P3
304 172
255
76 82 56 75 81 55 71 77 51 66 72 46 64 70 44 61 67 41 64 70 44
55 61 35 44 50 24 43 49 23 44 50 24 50 56 31 49 56 28 40 47 14
43 48 20 55 59 34 67 70 43 65 73 45 59 65 39 57 64 33 57 63 38
60 65 44 70 74 51 78 81 59 79 83 61 79 83 60 68 72 49 56 60 37
64 68 45 72 76 53 71 75 52 59 63 40 52 56 33 44 48 25 47 51 28
58 62 39 69 74 49 69 76 44 71 78 44 57 64 31 49 56 23 46 53 20
55 62 29 67 74 41 80 87 54 79 86 53 75 82 49 77 84 51 71 78 45
78 85 51 84 91 57 80 87 55 61 67 41 45 51 25 37 43 17 34 40 14
45 51 25 67 73 47 77 83 57 72 78 52 61 67 41 60 65 40 69 75 48
75 82 49 67 74 41 74 81 48 74 81 50 65 73 48 51 56 33 42 46 23
40 44 21 53 57 34 59 63 40 67 71 47 73 79 53 78 84 58 78 84 57
76 83 53 60 66 38 42 48 22 35 41 15 43 49 23 55 61 35 58 64 38
56 62 36 50 56 30 42 48 22 52 58 32 66 72 46 57 63 37 47 53 27
44 50 24 53 59 33 59 65 39 63 69 43 59 65 39 55 61 35 57 63 37
61 67 41 67 73 47 76 82 56 72 78 52 66 72 46 65 72 43 55 61 35
44 49 28 39 44 23 29 34 12 29 33 11 32 37 13 31 38 11 30 35 8 31 35 8
38 50 19 54 62 32 65 71 42 73 79 53 76 82 56 69 75 49 66 72 46
57 63 37 46 52 26 65 71 45 71 77 51 61 67 41 57 63 37 60 66 40
65 70 44 65 70 45 70 76 50 70 76 50 68 74 48 72 78 52 65 71 45
60 66 40 59 65 39 54 60 34 56 62 36 57 63 37 52 58 32 51 57 31
46 52 26 40 46 20 47 53 27 59 65 39 45 51 25 34 40 14 44 51 23
56 62 34 58 64 38 52 58 32 70 76 50 82 88 62 80 86 60 75 81 55
61 67 41 56 62 36 56 62 36 59 65 39 56 62 36 57 63 37 56 62 36
54 60 34 54 60 34 60 66 40 66 72 46 67 73 47 69 75 49 77 83 57
80 86 60 62 68 42 50 56 30 53 59 33 72 78 52 81 87 61 81 87 61
81 87 61 82 88 62 77 83 57 67 73 47 62 68 42 67 73 47 64 70 44
59 65 39 55 61 35 59 65 39 55 61 35 47 53 27 44 50 24 54 60 34
53 59 33 47 53 27 42 48 22 66 72 46 74 80 54 77 83 57 82 88 62
78 84 58 63 69 43 48 54 28 38 44 18 39 45 19 46 52 26 58 64 38
67 73 47 66 72 46 64 70 44 59 65 39 56 62 36 55 61 34 47 53 25
38 44 18 35 41 15 44 50 24 54 60 34 64 70 44 64 70 44 67 73 47
61 67 41 56 62 36 58 64 38 57 63 37 66 72 46 64 70 44 63 69 43
67 73 47 59 65 39 55 61 35 52 58 32 55 61 35 58 64 38 64 70 43
52 58 32 41 47 21 38 44 18 39 45 19 43 49 22 46 52 26 49 55 29
47 53 27 39 45 19 37 43 17 40 46 20 41 47 21 47 53 27 53 59 33
62 68 42 63 69 43 70 76 50 76 82 56 67 73 47 55 61 35 37 43 17
47 53 27 62 68 42 75 81 55 82 88 62 82 88 62 73 79 53 63 69 43
54 60 34 45 51 25 39 45 19 41 47 21 45 51 25 49 55 29 48 54 28
42 48 22 40 46 20 46 52 26 50 56 30 47 53 27 43 49 23 43 49 23
52 58 32 54 60 34 48 54 28 43 49 23 37 43 17 36 42 16 44 50 24
52 58 32 58 64 38 64 70 44 66 72 46 66 72 46 53 59 34 47 53 27
47 53 27 55 61 35 58 64 38 56 62 36 52 58 32 53 59 33 58 64 38
63 69 43 66 72 46 79 85 59 83 89 63 82 88 62 73 79 53 67 73 47
61 67 42 67 73 47 82 88 62 77 83 57 77 83 57 80 86 60 81 87 61
78 84 58 76 82 56 69 75 49 57 63 37 52 58 32 52 58 32 58 64 38
52 58 32 39 46 17 41 46 18 45 50 26 59 65 39 58 67 40 57 67 40
63 69 42 62 66 41 58 62 38 52 56 32 57 60 37 67 71 47 78 81 59
82 86 64 73 78 56 60 64 42 58 62 40 62 67 45 53 58 36 49 53 31
46 51 28 38 42 20 56 61 38 76 82 56 82 88 59 83 89 59 82 89 59
81 88 58 66 73 40 49 56 23 47 54 21 63 70 37 73 80 46 71 78 45
76 83 50 72 79 46 68 75 42 70 77 44 64 71 39 61 67 41 57 63 37
43 49 23 28 34 8 31 37 11 52 58 32 76 82 56 79 85 59 62 68 42
56 62 36 67 73 46 76 81 54 72 79 47 78 85 51 80 87 56 71 76 51
62 65 43 53 58 35 44 50 27 43 48 25 48 54 30 56 62 38 78 84 58
79 85 59 79 85 58 77 84 51 61 67 38 40 46 20 35 41 15 41 47 21
49 55 29 48 54 28 40 46 20 40 46 20 43 49 23 59 65 39 76 82 56
74 80 54 63 69 43 60 66 40 67 73 47 70 76 50 67 73 47 60 66 40
57 63 37 57 63 37 61 67 41 74 79 53 72 78 52 63 68 43 64 70 45
71 77 49 66 72 46 53 58 37 43 48 27 28 32 13 28 33 11 30 35 11
30 34 11 27 31 9 28 32 10 27 36 12 33 43 17 39 47 20 52 56 33
51 56 31 61 67 40 71 77 51 61 67 41 50 56 30 49 55 29 50 56 30
38 44 18 47 53 27 62 69 43 62 71 44 66 73 47 68 74 48 74 80 54
76 82 56 72 78 52 64 70 44 61 67 41 60 66 40 56 62 36 61 67 41
59 65 39 44 50 24 41 47 21 50 56 30 51 57 31 45 51 25 44 50 24
39 45 19 45 51 25 59 63 36 65 70 43 60 66 40 50 56 30 60 66 40
75 81 55 81 87 61 84 90 64 82 87 62 75 81 55 60 66 40 57 63 37
58 64 38 69 75 49 67 73 47 65 71 45 57 63 37 54 60 34 54 60 34
60 66 40 59 65 39 60 66 40 62 68 42 50 56 30 41 47 21 51 57 31
73 79 53 82 88 62 81 87 61 81 87 61 81 87 61 70 76 50 63 69 43
77 83 57 84 90 64 73 79 53 53 59 33 47 53 27 44 50 24 42 48 22
47 53 27 63 69 43 74 80 54 79 85 59 73 79 53 61 67 41 77 83 57
77 83 57 76 82 56 76 82 56 70 76 50 55 61 35 43 49 23 36 42 16
46 52 26 56 62 36 65 71 45 73 79 53 74 80 54 76 82 56 72 78 52
63 69 43 50 56 30 39 45 19 40 46 20 49 55 29 57 63 37 56 62 36
56 62 36 52 58 32 50 56 30 57 63 37 54 60 34 41 47 21 43 49 23
52 58 32 60 66 40 63 69 43 59 65 39 51 57 31 47 53 27 61 67 41
67 73 47 77 83 57 79 85 59 63 69 43 52 58 32 48 55 26 42 47 20
36 42 15 31 37 12 27 33 9 31 37 11 34 40 14 33 39 13 35 41 15
47 53 27 62 68 42 71 77 51 75 81 55 78 84 58 75 81 55 65 71 45
53 59 33 50 56 30 64 70 44 72 78 52 74 80 54 74 80 54 66 72 46
65 71 45 57 63 37 48 54 28 45 51 25 48 54 28 52 58 32 57 63 37
51 57 31 47 53 27 45 51 25 45 51 25 50 56 30 51 57 31 45 51 25
40 46 20 42 48 22 51 57 31 51 57 31 42 48 22 41 47 21 48 54 28
46 52 26 50 56 30 57 63 38 69 75 49 72 78 52 67 73 47 57 63 37
53 59 33 51 57 31 57 63 37 59 65 39 57 63 37 50 56 30 48 54 28
53 59 33 60 66 40 69 75 49 78 84 58 81 87 61 79 85 59 76 82 56
67 73 47 53 59 33 59 65 39 72 78 52 80 86 60 77 83 57 81 87 61
79 85 59 68 74 48 74 80 54 92 98 72 94 100 74 80 86 60 58 64 38
49 55 29 47 53 27 50 56 30 47 53 27 30 35 12 22 26 7 26 31 6 32 36 11
38 45 19 45 52 26 49 54 29 49 52 28 54 58 33 51 55 28 49 54 26
63 68 39 88 92 66 89 93 68 83 89 63 79 85 61 65 70 48 45 50 28
40 45 22 37 42 19 38 43 18 42 48 21 54 60 34 70 76 48 75 81 53
72 78 51 71 77 50 72 78 50 72 79 47 64 71 38 47 54 22 48 55 23
62 69 36 75 82 50 77 84 51 73 80 47 69 76 43 59 65 36 56 62 34
55 60 34 52 58 32 51 57 31 54 61 34 51 57 30 50 56 30 67 73 47
83 89 62 78 84 58 68 73 47 46 52 26 45 53 27 55 62 33 66 73 39
70 76 46 63 68 44 52 55 32 40 44 21 35 45 20 35 45 20 38 50 24
43 52 27 58 64 38 75 81 55 76 81 54 66 72 40 54 60 31 36 42 16
36 43 17 53 60 34 70 77 50 60 66 40 57 64 38 59 65 39 51 58 31
39 46 20 48 54 28 53 60 34 51 58 31 53 59 33 70 76 50 76 82 56
76 82 56 68 74 48 58 64 38 54 61 34 52 59 33 53 59 33 49 55 29
46 53 27 41 48 22 37 43 15 38 44 18 38 43 22 39 45 22 38 45 20
32 38 17 30 35 13 31 36 12 36 40 17 45 49 27 44 52 28 46 54 30
55 61 38 51 55 32 44 50 25 41 46 21 43 49 23 44 50 24 41 47 21
38 44 18 42 48 22 60 66 40 70 76 50 72 77 51 74 79 53 77 83 57
79 85 59 80 86 60 79 85 59 79 85 59 78 84 58 73 79 53 70 76 50
68 74 48 68 74 48 57 63 37 48 54 28 44 50 24 53 59 33 50 56 30
43 49 23 38 44 18 46 52 26 62 68 42 59 72 42 60 70 42 66 71 46
60 66 40 51 57 31 54 60 34 65 71 45 74 80 54 81 86 60 77 83 57
61 66 41 60 66 40 65 71 45 66 72 46 57 63 37 50 56 30 35 41 15
44 50 24 63 69 43 75 81 55 78 84 58 75 81 55 69 75 49 57 63 37
42 48 22 46 52 26 66 72 46 79 85 59 74 80 54 75 81 55 76 82 56
71 77 51 74 80 54 77 83 57 75 81 55 63 69 43 40 46 20 29 35 9
32 38 12 54 60 34 77 83 57 73 79 53 60 66 40 58 64 38 71 77 51
77 83 57 69 75 49 75 81 55 77 83 57 72 78 52 63 69 43 53 59 33
41 47 21 39 45 19 53 59 33 66 71 46 71 77 51 77 83 57 77 83 57
75 81 55 60 66 40 45 51 25 40 46 20 39 45 19 48 54 28 52 58 32
47 53 27 45 51 25 50 56 30 64 70 44 71 77 51 63 69 43 60 66 40
56 62 36 58 64 38 60 66 40 61 67 41 63 69 43 58 64 38 59 65 39
69 75 49 72 78 52 71 77 51 71 77 51 72 78 52 66 72 46 52 58 32
47 53 25 37 43 18 30 34 16 29 34 13 29 34 12 28 34 8 27 32 7 29 35 10
37 43 16 48 54 28 61 67 41 68 74 48 72 78 52 73 79 53 63 69 43
52 58 32 54 60 34 60 66 40 55 61 35 53 59 33 59 65 39 66 72 46
67 73 47 73 79 53 75 81 55 75 81 55 70 76 50 67 73 47 62 68 42
60 66 40 59 65 39 60 66 40 57 63 37 49 55 29 51 57 31 53 59 33
45 51 25 43 49 23 48 54 28 45 51 25 46 52 26 54 60 34 58 64 38
55 61 35 63 69 43 74 80 54 81 87 61 83 89 63 80 86 60 73 79 53
57 63 37 55 61 35 59 65 39 63 69 43 63 69 43 64 70 44 55 61 35
53 59 33 56 62 36 61 67 41 61 67 41 64 70 44 69 75 49 62 68 42
52 58 32 50 56 30 63 69 43 77 83 57 83 89 63 83 89 63 85 91 65
100 106 80 103 109 83 84 90 64 63 69 43 69 75 49 86 92 66 78 84 58
75 81 55 68 74 48 54 60 34 52 58 32 46 52 26 25 30 7 20 25 3 21 27 3
22 28 2 25 31 5 30 36 11 40 46 19 47 52 27 48 52 27 46 50 25 45 49 24
49 53 28 66 70 45 78 82 57 73 78 52 77 82 58 76 81 60 62 67 46
49 54 31 46 52 26 51 57 31 49 55 29 57 63 36 72 78 52 80 86 60
69 75 49 55 61 34 57 63 35 80 86 58 86 92 63 79 85 57 75 81 53
71 77 49 57 63 35 64 71 39 72 79 46 74 81 47 69 76 45 60 65 41
55 59 34 51 55 31 52 56 31 56 62 36 59 65 38 65 71 43 76 82 54
89 95 67 87 92 65 71 75 49 34 43 16 23 32 6 19 30 5 25 33 5 27 33 8
34 39 17 34 39 17 35 40 18 35 42 16 44 50 25 49 58 30 53 58 32
60 64 39 72 75 50 78 81 56 67 70 43 43 48 22 31 41 14 39 48 21
62 71 44 72 81 54 61 70 43 66 75 48 73 82 55 70 79 52 54 63 36
45 54 27 37 46 19 40 49 22 45 54 27 55 64 37 57 66 39 53 62 35
51 60 33 47 56 29 40 49 21 38 47 20 42 51 24 49 58 31 35 44 18
35 44 17 32 41 14 28 37 9 36 45 17 50 59 31 55 64 37 53 62 33
50 59 30 46 55 26 52 57 35 54 59 37 60 68 45 67 73 51 71 75 53
77 76 55 79 80 57 64 68 43 52 58 32 44 50 24 37 43 17 35 41 15
36 42 16 45 51 25 57 63 37 63 69 43 70 76 50 78 84 58 84 90 64
79 85 59 77 83 58 81 87 61 81 87 61 81 87 61 81 87 61 73 79 53
70 76 50 66 72 46 65 71 45 69 75 49 66 72 46 43 49 23 42 48 22
53 59 33 57 62 36 56 60 35 54 59 34 54 60 34 59 65 39 61 67 41
51 57 31 50 56 30 54 59 33 60 64 38 66 69 42 65 68 43 59 63 38
57 63 37 59 65 39 66 72 46 72 78 52 55 61 35 42 48 22 62 68 42
77 83 57 83 89 63 84 90 64 83 89 63 82 88 62 78 84 58 61 67 41
56 62 36 64 70 44 76 82 56 70 76 50 66 72 46 62 68 42 57 63 37
54 60 34 49 55 29 48 54 28 48 54 28 38 44 18 28 34 8 48 54 28
72 78 52 80 86 61 67 73 47 54 60 34 53 59 33 68 74 48 74 80 54
76 82 56 71 77 51 63 69 43 54 60 34 50 56 30 46 52 26 45 51 25
44 50 24 54 59 34 78 82 57 79 84 58 73 80 54 61 67 41 45 51 25
37 43 17 44 50 24 56 62 36 57 63 37 52 58 32 50 56 30 44 50 24
38 44 18 56 62 36 68 74 48 61 67 41 58 64 38 74 80 54 80 86 60
81 87 61 70 76 50 56 62 36 56 62 36 58 64 38 59 65 39 60 66 40
52 58 32 49 55 29 48 54 28 50 56 30 49 55 29 43 49 23 33 40 12
25 31 5 24 29 8 27 32 9 37 41 18 42 47 22 39 45 19 40 46 19 37 43 16
38 44 18 40 46 20 43 49 23 56 62 36 53 59 33 42 48 22 41 47 21
47 53 27 51 57 31 65 71 45 62 68 42 68 74 48 77 83 57 77 83 57
80 86 60 78 84 58 73 79 53 66 72 46 64 70 44 62 68 42 67 73 47
56 62 36 49 55 29 41 47 21 42 48 22 54 60 34 46 52 26 40 46 20
45 51 25 55 61 35 59 65 39 63 69 43 65 71 45 59 65 39 50 56 30
57 63 37 73 79 53 82 88 62 84 90 64 78 84 58 61 67 41 57 63 37
65 71 45 67 73 47 61 67 41 52 58 32 50 56 30 51 57 31 57 63 37
68 74 48 73 79 53 69 75 49 60 66 40 46 52 26 37 43 17 50 56 30
69 75 49 79 85 59 77 83 57 83 89 63 79 85 59 73 79 53 90 96 70
95 101 75 81 87 61 72 78 52 75 81 55 89 95 69 84 90 64 75 81 55
75 81 55 69 75 49 61 67 42 56 62 36 52 58 32 48 54 28 44 49 26
27 33 10 22 27 3 31 37 11 43 49 23 55 61 35 53 60 33 48 54 28
40 45 20 41 45 20 45 48 23 60 66 40 64 72 45 62 70 44 61 69 44
64 69 45 59 65 40 54 60 34 58 64 38 64 70 44 65 71 45 66 72 46
70 76 50 77 83 57 74 80 53 62 68 40 58 64 36 69 75 47 78 84 56
85 91 63 85 90 63 75 79 52 54 59 30 47 53 23 51 59 28 59 65 38
58 62 40 55 58 35 52 55 31 54 60 34 58 65 38 56 63 35 53 61 33
63 71 42 73 81 52 78 86 57 72 81 52 45 55 27 24 33 7 22 32 3 28 36 8
26 35 10 22 31 9 16 23 5 15 23 5 13 18 4 18 22 9 29 34 15 42 46 22
52 57 32 59 63 39 66 70 43 68 71 44 42 48 21 33 43 16 38 48 21
54 63 36 61 71 44 59 68 41 64 73 46 69 78 51 66 75 48 58 67 40
54 63 36 53 62 35 55 64 37 53 62 35 57 66 39 68 77 50 73 82 55
65 74 47 47 56 29 36 45 18 48 57 30 64 73 46 73 82 55 69 78 51
61 70 43 57 66 39 42 51 24 32 41 13 39 48 20 49 58 31 54 63 35
52 61 33 48 58 30 52 59 36 52 59 36 54 62 39 59 65 42 60 64 41
60 63 39 58 63 38 65 70 44 68 74 48 57 63 37 51 57 31 42 48 22
28 34 8 28 34 8 36 42 16 36 43 17 41 47 21 48 54 28 59 65 39 64 70 44
72 78 50 74 80 53 81 87 61 82 88 62 82 88 62 74 80 54 78 84 58
75 81 55 81 87 61 67 73 47 47 53 27 38 44 18 47 53 27 63 69 43
68 73 47 62 67 42 61 68 42 67 73 47 66 72 46 65 71 45 64 70 44
61 67 41 51 56 30 45 51 25 46 54 27 53 60 33 56 62 36 57 63 37
64 70 44 70 76 50 72 78 52 71 77 51 79 85 59 81 87 61 82 88 62
84 89 64 83 89 63 82 88 62 81 87 61 73 79 53 64 70 44 55 61 35
51 57 31 56 62 36 62 68 42 63 69 43 53 59 33 39 45 19 42 48 22
48 54 28 45 51 25 38 44 18 42 48 22 57 63 37 73 79 53 79 85 57
73 79 51 64 70 42 54 60 34 45 51 25 58 64 38 58 64 38 52 58 32
38 44 18 30 36 10 25 31 5 25 31 5 37 43 17 49 55 29 49 55 29 46 52 26
51 55 30 54 59 34 50 56 30 41 47 21 44 50 24 58 64 38 68 74 48
68 74 48 69 75 49 71 77 51 62 68 42 46 52 26 37 43 17 43 49 23
47 53 27 45 51 25 54 60 34 60 66 40 63 69 43 61 67 41 53 59 33
45 51 25 46 52 26 46 52 26 40 46 20 40 46 20 34 40 14 30 36 10
32 38 12 42 48 22 50 56 30 49 55 29 45 51 24 40 46 19 42 46 23
48 52 29 56 60 38 58 64 38 65 72 44 73 79 51 67 73 46 52 58 32
41 47 21 38 44 18 39 45 19 37 43 17 37 43 17 53 59 33 71 77 51
75 81 55 81 87 61 81 87 61 83 89 63 79 85 59 76 82 56 80 86 60
81 87 61 81 87 61 78 84 58 73 79 53 66 72 46 63 69 43 61 67 41
60 66 40 54 60 34 47 53 27 46 52 26 45 51 25 49 55 29 59 65 39
62 68 42 64 70 44 63 69 43 59 65 39 54 60 34 53 59 33 56 62 36
67 73 47 73 79 53 69 75 49 61 67 41 60 66 40 65 71 45 66 72 46
60 66 40 45 51 26 45 51 25 62 68 42 74 80 54 79 85 59 82 88 62
81 87 61 80 86 60 58 64 38 49 55 29 53 59 33 72 78 52 74 80 54
70 76 50 67 73 47 66 72 46 63 69 43 76 82 56 75 81 55 66 72 46
69 75 49 73 79 53 74 80 54 81 87 61 85 91 65 80 86 60 76 82 56
78 84 58 75 81 55 66 72 45 54 59 38 50 54 36 51 56 34 45 50 28
35 41 18 36 42 18 39 45 20 40 46 21 47 53 28 51 57 31 39 45 20
34 38 13 39 44 18 48 57 30 59 69 42 57 66 39 49 58 31 46 52 26
64 71 45 74 80 54 58 64 38 56 62 36 64 71 45 73 79 53 75 82 56
71 78 52 67 74 46 70 77 49 61 68 40 51 57 29 57 63 35 60 66 38
55 62 33 51 59 31 51 59 30 55 63 35 56 65 36 50 58 31 51 59 30
55 63 36 53 61 35 58 69 41 65 77 47 66 77 47 66 75 46 66 75 46
60 70 41 67 76 47 74 84 54 68 77 48 54 63 36 34 43 14 29 38 9
38 47 19 37 46 17 24 32 7 18 27 5 17 27 4 17 28 6 11 22 3 21 33 7
26 37 11 28 37 13 31 40 11 34 43 14 30 39 11 31 40 13 35 44 17
50 59 32 54 63 36 54 63 36 56 65 38 60 69 42 63 72 45 56 65 38
51 60 33 59 68 41 65 74 47 64 73 46 60 69 42 55 64 37 61 70 43
73 82 55 68 77 50 42 51 24 41 50 23 57 66 39 64 73 46 71 80 53
72 81 54 67 76 49 60 69 42 37 46 19 32 41 14 37 46 19 52 61 34
50 59 32 49 58 31 49 57 33 52 60 37 57 65 42 59 65 42 54 58 34
49 53 28 52 58 32 57 64 37 65 72 46 70 76 50 60 66 40 47 53 27
31 37 11 35 41 15 48 54 28 50 56 30 51 57 31 44 50 24 44 50 23
40 46 20 37 43 16 39 45 21 50 55 31 59 65 39 65 71 45 69 75 49
73 79 53 74 80 54 68 74 48 47 53 27 37 43 17 45 51 25 55 61 35
58 64 38 58 65 39 60 67 41 74 80 54 77 83 57 74 80 54 70 76 50
67 73 47 62 67 42 56 62 36 44 51 25 39 48 21 47 56 29 55 64 37
62 68 42 73 79 53 79 86 60 77 83 57 72 79 52 72 78 52 69 75 49
67 73 47 67 74 48 60 66 40 60 67 41 57 63 37 48 55 29 37 44 18
40 46 20 52 58 32 68 74 48 74 80 54 68 74 48 67 73 47 67 74 48
75 81 55 66 72 46 48 54 28 40 46 20 58 64 38 73 79 53 70 76 50
73 79 53 64 69 43 61 67 41 62 68 42 48 54 28 35 41 15 34 40 14
30 36 10 25 31 5 26 32 6 29 35 9 30 36 10 43 49 23 51 57 31 50 56 30
42 49 23 34 42 15 35 42 15 41 47 21 53 59 33 62 68 42 65 71 45
65 71 45 72 78 52 69 75 49 64 70 44 58 64 38 55 61 35 49 55 29
49 55 29 61 67 41 73 79 53 71 77 51 56 62 36 43 49 23 42 48 22
54 60 34 60 66 40 67 73 47 66 72 46 56 62 36 48 54 28 34 40 14
33 39 13 50 56 30 57 63 37 57 63 37 58 64 38 53 59 33 52 58 32
56 61 37 60 65 43 65 70 49 62 68 42 63 69 40 68 74 49 71 77 51
62 68 42 56 62 36 44 50 24 32 38 12 28 34 8 33 39 13 38 44 18
43 49 23 50 56 30 65 71 45 75 81 55 78 84 58 79 85 59 79 85 59
81 87 61 81 87 61 75 81 55 75 81 55 75 81 55 73 79 53 67 73 47
56 62 36 47 53 27 45 51 25 57 63 37 62 68 42 62 68 42 61 67 41
65 71 45 61 67 41 63 69 43 61 67 41 54 60 34 48 54 28 47 53 27
54 60 34 57 63 37 58 64 38 60 66 40 63 69 43 66 72 46 70 76 50
72 78 52 74 80 54 75 81 55 80 86 60 81 87 61 80 86 60 81 87 61
80 86 60 76 82 56 67 73 47 52 58 32 57 63 37 63 69 43 64 70 44
56 62 36 46 52 26 46 52 26 50 56 30 43 49 23 64 70 44 73 79 53
60 66 40 51 57 31 56 62 36 72 78 52 84 90 64 86 92 66 87 93 67
84 90 64 75 81 55 77 83 57 74 80 53 62 66 45 58 63 41 52 57 35
49 54 31 52 58 32 44 50 25 27 33 7 22 26 7 30 35 12 43 49 23 45 51 25
36 42 16 35 42 16 37 48 21 47 57 30 52 61 33 49 58 32 41 49 25
36 44 19 52 61 34 58 66 39 51 59 33 47 56 29 50 59 32 63 72 45
74 83 56 67 76 49 67 76 49 66 75 46 55 62 33 41 47 19 39 48 19
50 59 30 57 66 37 64 74 45 66 75 46 62 71 42 59 68 39 54 64 34
53 62 33 52 61 32 60 69 40 71 80 51 70 79 50 69 78 49 65 74 45
61 70 41 65 74 45 71 80 51 70 79 50 65 74 45 51 60 31 36 46 16
26 37 7 31 42 12 34 44 16 31 41 14 31 41 12 27 37 11 18 27 4 21 29 5
27 37 9 32 41 12 41 50 20 36 44 15 28 37 9 29 38 11 38 47 20 55 64 37
56 65 38 50 59 32 48 57 30 54 63 36 79 88 61 74 83 56 57 66 39
53 62 35 64 73 46 70 79 52 70 79 52 65 74 47 56 65 38 54 63 36
67 76 49 59 68 41 39 48 21 52 61 34 61 70 43 64 73 46 53 62 35
47 56 29 44 53 26 41 50 23 47 56 29 43 52 25 49 58 31 58 67 40
55 64 37 52 61 34 55 64 37 60 69 42 60 69 42 56 64 37 52 60 33
56 64 37 55 64 36 63 72 45 78 85 59 82 88 62 63 69 43 36 42 16
37 43 17 57 63 37 67 73 47 60 66 40 47 53 27 46 52 26 49 55 27
41 48 19 31 36 13 32 37 16 39 44 20 38 44 18 35 41 16 46 52 26
52 58 32 41 47 21 34 40 14 43 49 23 64 70 44 66 72 47 63 69 43
56 61 35 51 57 31 62 68 42 73 79 53 73 79 53 65 71 45 67 72 47
70 76 50 65 71 45 56 62 36 42 51 24 37 46 19 48 57 30 59 68 41
66 75 48 67 76 49 63 71 44 56 65 38 55 64 37 55 64 37 52 61 34
44 52 26 34 42 15 27 36 9 31 40 13 33 41 14 27 36 9 41 50 23 55 63 36
53 62 35 62 70 43 74 82 55 69 78 51 66 75 48 60 68 42 62 68 42
77 82 56 77 83 57 65 71 45 64 70 43 64 71 43 61 66 45 59 64 43
57 62 41 61 65 42 57 61 37 43 47 24 44 48 25 32 36 13 24 29 7
31 37 12 52 58 32 55 61 35 51 57 31 49 55 29 40 46 20 36 43 17
34 44 17 39 46 20 54 59 33 60 66 40 58 64 38 65 71 45 65 71 45
59 65 39 51 57 31 55 61 35 64 70 44 69 75 49 67 73 47 55 61 35
61 67 41 82 88 62 73 79 53 48 54 28 41 47 21 57 63 37 68 74 48
72 78 52 73 79 53 73 79 53 67 73 47 48 54 28 31 37 11 36 42 16
50 56 30 50 56 30 46 52 26 50 56 30 54 60 34 57 63 37 55 64 35
53 61 34 52 61 35 56 62 36 58 63 37 64 70 44 65 71 45 54 60 34
41 47 21 32 38 12 35 41 15 44 50 24 44 50 24 42 48 22 40 46 20
37 43 17 37 43 17 47 53 27 57 63 37 69 75 49 78 84 58 77 83 57
74 80 54 75 81 55 76 82 56 71 77 51 47 53 27 39 45 19 44 50 24
51 57 31 62 68 42 66 72 46 68 74 48 71 77 51 73 79 53 72 78 52
67 73 47 65 71 45 63 69 43 50 56 30 41 47 21 46 52 26 54 60 34
59 65 39 70 76 50 77 83 57 80 86 60 75 81 55 75 81 55 75 81 55
76 82 56 75 81 55 72 78 52 71 77 51 68 74 48 60 66 40 48 54 28
44 50 24 49 55 29 59 65 39 71 77 51 70 76 50 67 73 47 58 64 38
61 67 41 60 66 40 52 58 32 43 49 23 66 72 46 75 81 55 77 83 57
73 79 53 57 63 37 51 57 31 64 70 44 81 87 61 87 93 67 88 94 68
87 93 67 81 87 60 58 64 37 51 56 33 50 56 32 52 57 35 47 53 30
42 48 22 41 47 21 35 41 15 33 40 15 40 47 20 42 50 23 39 46 20
41 47 21 40 45 20 31 43 15 31 40 13 46 54 28 56 65 39 63 71 48
62 70 47 40 48 23 39 50 23 55 65 38 52 61 34 45 54 27 50 59 32
56 65 38 65 74 47 72 81 54 73 82 54 72 80 52 60 68 40 49 58 29
54 63 35 68 77 49 73 81 54 75 81 54 72 79 51 67 74 46 65 74 46
67 76 47 62 72 43 61 71 41 54 64 35 54 64 35 57 66 37 58 67 36
58 68 37 62 73 43 64 74 45 54 64 34 50 57 29 45 53 27 44 53 27
33 43 15 21 32 7 28 38 9 35 46 14 38 49 17 35 46 16 36 45 17 32 41 14
26 35 8 28 37 10 38 47 19 33 42 13 27 36 7 29 39 11 46 55 28 56 65 38
55 64 37 46 55 28 33 42 15 38 47 20 63 72 45 73 82 55 58 67 40
51 60 33 52 61 34 64 73 46 75 84 57 76 85 58 66 75 48 59 68 41
56 65 38 57 66 39 49 58 31 40 49 22 44 53 26 45 54 27 45 54 27
53 62 35 54 63 36 56 65 38 58 67 40 52 61 34 43 52 25 51 60 33
53 62 35 60 69 42 70 79 52 71 80 51 71 80 52 68 78 51 61 72 45
55 65 38 61 70 43 68 77 50 69 76 50 75 80 55 71 77 51 53 59 33
43 49 23 51 57 31 56 62 36 54 60 34 47 53 27 45 51 25 52 57 32
49 55 23 38 45 15 48 53 30 52 58 33 53 59 33 44 50 24 38 44 17
35 41 13 31 37 10 32 38 11 40 46 18 56 62 35 57 63 35 61 67 40
60 66 40 54 60 34 62 68 42 65 71 45 63 69 43 59 67 40 63 70 44
64 70 44 61 67 41 53 60 34 46 55 28 42 51 24 38 47 20 45 54 27
53 62 35 56 65 38 59 68 41 69 78 51 68 77 50 66 75 48 55 64 37
45 54 27 31 40 13 26 35 8 41 50 23 33 42 15 34 43 16 60 69 42
51 61 34 48 59 31 58 68 41 59 70 42 54 63 36 59 68 41 70 79 52
79 86 60 76 83 57 74 81 55 79 85 59 77 83 56 60 66 39 53 58 36
57 62 40 59 64 42 59 63 40 49 53 30 33 38 16 44 49 26 44 49 26
40 44 23 53 58 35 65 71 45 53 59 33 35 41 15 37 43 17 37 43 17
41 47 21 53 60 34 55 62 36 52 58 32 51 57 31 62 68 42 74 80 54
70 76 50 57 63 37 55 61 35 65 71 45 67 73 47 66 72 46 62 68 42
58 64 38 60 66 40 72 78 52 52 58 32 40 46 20 55 61 35 65 71 45
66 72 46 63 69 43 57 63 37 54 60 34 51 57 31 43 49 23 45 51 25
54 60 34 58 64 38 54 60 34 56 62 36 59 65 39 61 67 41 60 66 40
49 57 34 46 55 31 52 60 36 58 65 39 74 80 54 82 88 62 65 71 45
44 50 24 35 41 15 49 55 28 59 65 38 62 69 41 51 57 30 48 54 28
50 56 30 41 47 21 31 37 11 28 34 8 35 41 15 38 44 18 46 52 26
53 59 33 60 66 40 57 63 37 46 52 26 47 53 27 52 58 32 61 67 41
62 68 42 50 56 30 56 62 36 69 75 49 76 82 56 75 81 55 70 76 50
69 75 49 66 72 46 60 66 40 53 59 33 38 44 18 41 47 21 57 63 37
62 68 42 68 74 48 71 77 51 70 76 50 65 71 45 64 70 44 61 67 41
53 59 33 48 54 28 42 48 22 43 49 23 39 45 19 39 45 19 41 47 21
45 51 25 55 61 35 65 71 45 72 78 52 70 76 50 71 77 51 70 76 50
71 77 51 71 77 51 66 72 45 59 66 38 59 66 38 51 57 31 66 72 46
80 86 60 85 91 65 86 92 66 70 76 50 61 67 41 64 70 44 81 87 61
84 90 64 73 79 53 62 68 41 55 61 33 58 63 38 54 60 34 54 60 32
53 59 31 40 46 20 36 43 17 31 41 14 36 46 19 37 46 19 33 42 15
33 42 15 44 51 24 50 57 31 34 43 16 34 39 14 52 57 33 50 60 35
59 67 44 73 81 58 64 71 49 50 59 33 52 61 34 56 65 38 55 64 37
57 66 39 55 64 37 48 57 30 55 64 37 65 74 47 63 72 45 61 70 43
58 67 40 44 53 26 42 51 24 56 62 36 72 74 49 77 80 56 79 82 57
75 83 56 67 76 47 61 72 42 54 66 36 50 61 31 59 69 40 66 75 46
61 70 41 53 62 33 47 55 26 35 44 15 26 36 7 35 41 15 40 45 21
45 50 26 39 47 19 24 37 7 15 24 2 23 33 8 32 43 13 41 52 22 43 53 22
39 49 18 35 45 13 28 37 10 33 42 15 25 34 5 25 32 3 32 38 11 39 48 21
49 58 31 53 62 35 57 66 39 50 59 32 41 50 23 47 56 29 47 56 29
49 58 31 40 49 22 41 50 23 46 55 28 59 68 41 65 74 47 63 72 45
67 76 49 70 79 52 62 71 44 47 56 29 46 55 28 61 70 43 65 74 47
70 78 51 76 85 58 72 81 54 64 73 46 58 67 40 64 73 46 65 74 47
58 67 40 63 72 45 60 69 42 63 72 45 60 69 42 59 68 41 58 67 40
58 67 40 65 74 47 74 83 56 78 87 60 79 86 59 75 81 55 66 72 46
58 64 38 51 57 31 50 56 30 58 64 38 58 64 38 57 63 37 56 62 36
49 55 29 43 49 22 39 46 18 40 46 20 41 47 21 53 59 33 53 59 33
46 52 25 38 44 17 39 44 21 46 51 29 44 49 27 41 46 22 40 46 18
39 45 19 41 47 21 40 46 20 44 50 24 48 54 28 47 53 27 40 46 20
45 50 25 40 46 20 39 45 19 41 48 21 42 51 24 48 57 30 51 60 33
50 59 32 51 60 33 54 63 36 57 66 39 57 66 39 56 65 38 43 52 25
41 50 23 41 50 23 31 40 13 36 45 18 43 52 25 54 63 36 60 69 42
46 55 28 51 59 33 56 63 37 58 66 39 63 71 45 67 76 49 72 81 54
75 84 57 72 81 54 65 74 47 68 77 50 81 87 61 72 78 51 57 63 36
49 54 32 48 53 31 60 65 44 63 67 44 32 36 13 27 32 10 35 40 19
42 47 25 45 51 25 51 57 32 43 49 21 37 43 16 32 38 12 42 48 22
52 58 32 55 61 35 57 63 37 39 45 19 42 48 22 56 62 36 77 83 57
65 71 45 57 63 37 53 59 33 61 67 41 78 84 58 77 83 57 72 78 52
64 70 44 58 64 38 60 66 40 53 59 33 40 46 20 44 50 24 48 54 28
51 57 31 54 60 34 50 56 30 53 59 33 55 61 35 56 62 36 44 50 24
55 61 35 59 65 39 64 70 44 69 75 49 69 75 49 70 76 50 69 75 49
63 69 43 54 61 38 60 69 46 63 70 47 66 73 47 73 79 53 71 77 51
51 57 31 40 46 20 54 60 33 58 64 37 55 61 34 44 50 22 44 50 23
48 54 28 46 52 26 43 49 23 52 58 32 56 62 36 49 55 29 37 43 18
34 40 14 30 36 10 31 37 11 35 41 15 45 51 25 62 68 42 67 73 47
66 72 46 59 65 39 54 60 34 60 66 40 65 71 45 67 73 47 68 74 48
69 75 49 67 73 47 61 67 41 53 59 33 43 49 23 36 42 16 39 45 19
56 62 36 60 66 40 63 69 43 68 74 48 67 73 47 67 73 47 63 69 43
53 59 33 37 43 17 32 38 13 33 39 14 34 40 14 39 45 20 56 62 36
52 58 32 50 56 30 60 66 40 70 76 50 66 72 46 65 71 45 69 75 49
72 78 52 75 81 55 82 88 62 81 87 61 67 73 46 61 67 39 34 40 14
40 46 20 49 55 29 56 62 36 64 70 44 67 73 47 70 76 50 65 71 45
61 67 41 57 63 37 48 54 28 53 59 32 76 82 55 80 86 57 79 85 57
79 86 57 74 80 51 59 64 37 48 56 30 37 47 20 36 46 19 37 46 19
36 45 18 33 42 15 39 48 21 45 54 28 39 45 21 36 40 18 51 55 33
58 68 43 53 62 39 58 66 43 63 71 48 66 74 51 69 78 53 71 80 53
69 78 51 63 72 45 64 73 46 65 74 47 57 66 39 43 52 25 34 42 18
35 43 17 42 52 24 38 47 18 27 35 11 23 28 5 41 45 21 65 69 44
80 86 60 78 85 58 69 76 48 53 63 34 57 66 37 62 73 39 60 70 38
55 64 35 64 71 43 68 75 42 74 80 51 59 66 35 43 50 19 35 41 16
42 48 21 42 47 20 40 48 18 35 47 16 27 38 9 24 35 7 31 42 11 45 56 22
48 59 24 44 55 21 44 55 21 44 53 23 45 53 25 35 42 13 30 35 9
38 42 17 43 51 24 51 62 35 64 73 46 72 81 54 64 73 46 32 41 15
44 53 26 49 58 31 58 67 40 44 53 26 45 54 27 51 60 33 51 60 33
63 72 45 72 81 54 73 82 55 76 85 58 76 85 58 60 69 42 56 65 38
70 79 52 79 88 61 80 86 60 82 88 62 81 87 61 75 81 55 66 74 47
67 76 49 68 77 50 62 71 44 64 73 46 55 64 37 52 61 34 57 66 39
54 63 36 53 62 35 55 64 37 64 73 46 65 74 47 60 69 42 61 69 42
65 71 45 65 71 45 60 66 40 49 55 29 45 51 25 60 66 40 60 66 40
59 65 39 58 64 38 61 67 41 61 67 41 48 54 28 46 52 28 46 52 25
47 54 25 44 50 23 38 44 18 43 49 23 52 58 33 60 66 40 64 70 44
73 79 53 75 81 56 64 70 44 56 62 36 48 54 28 33 39 13 27 33 7 29 35 9
28 35 9 34 40 14 36 41 15 41 47 21 52 59 33 70 78 52 68 77 50
58 67 40 47 56 29 37 46 19 41 50 24 52 61 34 56 65 38 53 62 35
39 48 21 40 49 22 38 47 20 40 49 22 44 53 26 50 59 33 54 63 36
40 49 22 31 42 15 43 49 23 61 65 40 77 81 56 81 86 61 85 92 66
83 89 63 78 85 58 69 78 51 67 76 49 66 75 48 65 74 47 62 70 43
59 68 41 49 57 31 49 57 31 51 60 33 46 50 27 36 40 18 32 37 15
36 41 19 39 44 22 43 49 21 42 49 19 33 39 12 34 40 15 45 51 25
55 61 35 56 62 36 55 61 35 47 53 27 38 44 18 43 49 23 58 64 38
54 60 34 46 52 26 46 52 26 59 65 39 67 73 47 73 79 53 70 76 50
73 79 53 65 71 45 51 57 31 46 52 26 46 52 26 55 61 35 62 68 42
65 71 45 67 73 47 65 71 45 62 68 42 62 68 42 63 69 43 61 67 41
56 62 36 56 62 36 61 67 41 71 77 51 71 77 51 69 75 49 67 73 47
64 70 44 66 72 46 75 81 56 79 85 60 75 81 56 70 76 50 64 70 44
53 59 33 48 54 28 52 58 32 56 62 34 56 61 39 55 60 38 47 52 31
46 51 28 43 49 20 37 43 17 45 51 25 52 58 32 55 61 35 48 54 28
37 42 18 36 41 18 40 46 22 40 46 21 39 45 19 39 45 19 42 48 22
48 54 28 49 55 29 53 59 32 56 62 36 51 57 31 51 57 31 49 55 29
45 51 25 45 51 25 48 54 28 46 52 26 54 60 34 52 58 32 52 58 32
53 59 33 58 64 38 61 67 41 63 69 43 59 65 39 50 56 30 46 52 26
39 45 19 38 44 18 41 47 21 52 58 33 55 61 36 49 55 29 57 63 36
63 69 43 59 65 39 56 62 36 59 65 39 63 69 43 70 76 50 76 82 56
72 78 52 70 76 50 73 79 53 76 82 53 61 66 44 50 55 34 50 56 34
57 63 37 52 58 32 54 60 34 57 63 37 63 69 43 74 80 54 70 76 50
70 76 50 62 68 42 46 52 26 35 41 15 41 47 20 68 74 47 83 89 62
89 96 67 83 89 59 76 82 55 68 75 48 50 61 34 40 49 23 40 48 23
48 56 31 51 60 34 50 59 33 51 59 35 45 55 30 43 54 28 46 54 30
41 50 25 49 58 33 54 62 38 54 63 38 55 64 39 48 56 32 50 58 34
64 73 48 76 85 58 78 87 60 70 79 52 64 73 46 55 64 37 40 49 22
28 36 14 22 29 11 29 38 10 33 40 14 35 38 16 34 39 11 37 42 14
50 56 31 69 74 51 74 78 56 77 82 57 67 75 46 57 66 35 46 55 24
57 67 36 67 76 48 75 81 54 80 86 56 71 77 49 54 59 30 45 51 22
42 47 22 41 48 23 46 54 29 46 54 27 42 52 20 41 51 20 39 49 20
50 60 30 48 59 27 44 54 23 39 49 17 37 47 16 51 60 29 54 62 32
42 48 20 37 42 16 41 46 20 55 64 37 52 62 35 66 75 48 70 79 52
64 73 46 48 57 30 44 53 26 54 63 36 56 65 38 52 61 34 47 56 29
52 61 34 50 59 32 60 69 42 73 82 55 78 87 60 78 87 60 79 88 61
71 80 53 52 62 35 60 70 43 74 83 56 82 88 62 82 88 62 81 87 61
79 85 59 72 79 53 70 78 51 66 74 47 62 70 44 57 65 39 60 68 41
61 70 43 60 69 42 51 60 33 44 53 26 43 52 25 39 48 21 40 49 22
47 56 29 54 61 35 60 65 40 62 68 42 56 62 36 47 53 27 39 45 19
50 56 30 57 63 37 59 65 39 60 66 40 56 62 36 57 63 37 51 57 31
43 48 25 45 51 24 39 46 16 37 44 16 44 50 24 59 65 39 63 69 41
67 73 44 74 81 52 71 78 51 72 78 52 78 84 58 71 77 51 71 77 51
57 63 37 51 57 31 46 52 26 41 47 21 38 44 18 40 46 20 35 41 15
46 53 27 59 68 41 62 71 44 63 72 44 59 68 40 49 58 30 44 54 26
52 61 34 54 63 36 48 57 30 40 49 22 46 55 28 52 61 34 60 69 42
65 74 47 60 69 42 40 49 22 35 44 17 47 57 30 65 70 44 78 81 56
80 84 59 82 86 61 79 85 59 70 75 49 59 65 40 55 64 37 55 64 37
53 62 35 52 61 34 50 59 32 52 61 34 51 60 32 43 52 23 40 50 20
48 54 29 52 58 34 51 55 33 43 48 26 38 43 20 34 41 13 39 45 17
43 49 23 43 49 23 59 65 39 70 76 50 67 73 48 46 52 26 47 53 27
54 60 34 55 61 35 47 53 27 46 52 26 50 56 30 49 55 29 66 72 46
76 82 56 73 79 53 74 80 54 77 83 57 66 72 46 58 64 38 67 73 47
78 84 58 80 86 60 81 87 61 82 88 62 76 82 56 68 74 48 65 71 45
66 72 46 62 68 42 64 70 44 60 66 40 57 63 37 58 64 38 54 60 34
55 61 35 60 66 40 65 71 45 65 71 45 65 71 45 66 72 46 72 78 52
71 77 51 58 64 38 46 52 26 51 57 31 59 65 39 60 66 39 59 66 37
59 64 42 58 63 41 52 57 36 46 51 29 47 54 24 43 49 23 45 51 25
45 51 25 44 50 24 49 55 29 58 64 37 60 66 40 66 72 45 72 78 50
66 72 44 58 64 36 45 51 25 30 36 10 27 33 7 27 33 8 33 39 13 35 41 15
39 45 19 43 49 22 51 58 31 62 68 42 65 71 45 56 62 36 50 56 30
44 50 24 46 52 26 52 58 32 57 63 37 50 56 30 44 50 24 40 46 20
42 48 22 45 51 25 45 51 25 46 52 26 50 56 30 45 51 25 44 50 24
46 52 26 62 68 42 76 82 56 80 86 60 81 87 61 80 86 60 75 81 55
69 75 49 66 72 46 67 73 47 68 74 48 64 70 44 59 66 37 51 56 33
50 55 33 48 53 31 62 68 42 77 83 57 72 78 52 56 62 36 64 70 44
77 83 57 68 74 48 77 83 57 81 87 61 69 75 49 53 59 33 41 47 21
44 50 24 55 61 35 61 68 40 73 79 50 78 85 55 79 87 58 67 76 49
42 50 26 35 42 20 39 47 24 49 57 35 49 58 34 42 51 24 36 45 18
50 59 32 67 76 49 63 72 45 51 60 33 52 61 34 59 68 41 64 73 46
60 69 42 53 62 35 53 62 35 57 66 39 73 82 55 74 83 56 66 75 48
67 76 49 63 72 45 49 58 33 41 49 26 29 38 13 29 36 12 31 33 13
29 33 11 27 33 10 33 42 19 48 54 32 52 58 36 64 72 49 60 69 43
67 76 49 60 69 42 50 61 33 61 69 42 62 65 40 46 49 25 54 58 33
70 74 49 67 71 47 70 74 49 74 79 53 78 84 57 70 76 50 63 70 44
61 70 43 54 63 36 56 66 39 53 62 35 45 54 28 44 53 26 47 56 30
43 52 25 52 61 34 40 46 20 40 45 20 55 61 35 57 66 39 52 61 34
62 71 44 78 87 60 80 89 62 78 87 60 69 79 52 62 71 44 56 65 38
51 60 33 55 64 37 63 72 45 59 68 41 59 68 41 60 69 42 60 69 42
61 70 43 67 76 49 71 80 53 50 59 32 40 49 23 54 62 36 80 86 60
82 88 62 83 89 63 81 87 61 72 78 52 60 66 40 67 73 47 74 80 54
63 69 43 53 61 34 48 57 30 46 55 28 42 51 24 57 66 39 63 72 45
63 72 45 55 64 37 72 82 55 78 86 60 76 82 56 80 86 60 65 71 45
50 56 30 38 44 18 37 43 17 51 57 31 65 71 45 70 76 50 68 74 48
65 71 45 60 66 40 55 61 37 40 46 19 37 43 13 47 53 26 58 64 39
60 66 40 64 70 44 58 64 38 49 55 29 53 59 33 49 55 29 55 61 35
60 66 40 62 68 42 62 68 42 55 61 35 47 53 27 56 62 36 64 70 44
77 83 57 62 68 42 46 53 27 39 48 21 37 46 19 39 48 21 39 48 19
36 45 16 35 44 15 36 45 17 35 44 17 41 50 23 53 62 35 68 77 50
67 76 49 74 83 56 68 77 50 56 65 38 39 48 21 52 61 34 66 76 49
79 85 59 82 86 61 72 76 51 57 61 36 46 50 25 39 42 17 37 42 17
46 55 28 43 52 25 44 53 26 39 48 21 38 47 20 46 55 28 48 57 30
42 51 24 37 46 19 45 54 27 59 66 40 52 56 33 42 46 23 39 43 19
40 46 20 48 54 28 55 61 35 67 73 47 67 73 47 62 68 42 48 54 30
47 53 27 57 63 37 56 62 36 49 55 29 49 55 29 52 58 32 60 66 40
68 74 48 77 83 57 83 89 63 79 85 59 74 80 54 59 65 39 59 65 39
75 81 55 82 88 62 82 88 62 82 88 62 82 88 62 76 82 56 71 77 51
73 79 53 68 74 48 61 67 41 61 67 41 63 69 43 59 65 39 51 57 31
46 52 26 47 53 27 46 52 26 47 53 27 47 53 27 49 55 29 55 61 35
54 60 34 53 59 33 48 54 28 38 44 18 48 54 28 60 66 40 60 66 40
58 64 38 54 61 32 56 61 39 51 56 34 40 45 23 42 48 25 41 47 18
41 47 21 45 51 25 53 59 33 57 63 38 64 70 43 79 85 55 73 79 49
76 82 52 79 86 53 77 84 51 73 80 48 62 68 42 49 55 29 42 48 22
34 40 14 31 37 11 32 38 12 36 42 14 53 59 30 69 75 47 73 79 52
67 73 46 54 60 34 46 52 26 53 59 33 60 66 40 60 66 40 49 55 29
43 49 23 50 56 30 55 61 35 63 69 43 63 69 43 52 58 32 41 47 21
44 50 24 53 59 33 68 74 48 77 83 57 82 88 62 78 84 58 76 82 56
74 80 54 63 69 43 58 64 38 55 61 35 54 60 34 55 61 35 59 65 39
57 63 37 47 54 24 44 49 27 50 55 33 51 56 34 36 42 16 51 57 31
75 81 55 77 83 57 66 72 46 58 64 38 57 63 37 66 72 46 73 79 53
70 76 50 60 66 40 48 54 28 40 46 21 39 45 20 42 48 22 53 59 33
69 75 47 76 83 56 68 75 49 56 62 37 39 45 20 37 44 18 47 54 29
59 66 40 50 59 32 52 61 34 50 59 32 49 58 31 58 67 40 54 63 36
50 59 32 58 67 40 71 80 53 71 80 53 65 74 47 57 66 39 54 63 36
59 68 41 56 65 38 49 58 31 49 58 31 46 55 28 40 49 22 37 46 20
34 42 17 32 41 15 30 37 12 27 35 9 29 37 12 35 43 20 42 48 25
41 46 24 43 51 28 46 54 29 49 58 31 48 57 30 43 52 25 37 46 19
38 45 19 40 47 21 59 66 40 69 75 49 67 72 47 76 80 55 78 83 57
81 85 60 78 82 57 76 81 56 70 77 51 66 75 48 64 74 47 59 70 42
48 58 31 40 51 23 47 56 29 51 61 34 44 53 26 40 46 20 45 51 25
61 67 41 65 72 46 62 69 42 57 64 37 59 65 39 62 70 43 67 76 49
73 84 57 76 87 60 66 77 50 56 65 38 62 70 43 67 76 49 60 69 42
52 61 34 38 47 20 45 54 27 64 73 46 69 79 52 71 77 51 65 69 45
52 56 31 45 49 24 54 62 36 74 83 56 77 85 58 76 82 56 76 82 56
69 75 49 80 86 60 80 86 60 67 73 47 47 56 29 33 42 15 30 39 12
47 56 29 72 81 54 74 83 56 63 72 45 62 71 44 71 80 53 72 80 53
73 81 54 74 82 56 71 78 52 57 63 37 44 50 24 40 46 20 53 59 33
62 68 42 74 80 54 79 85 59 79 85 59 73 79 53 50 56 30 37 43 17
38 44 17 51 57 30 54 60 34 51 57 31 48 54 28 53 59 33 67 73 47
62 68 42 52 58 32 50 56 30 59 65 39 62 68 42 61 67 41 55 61 35
55 61 35 64 70 44 74 80 54 75 81 55 71 77 51 67 73 47 57 63 38
48 55 27 34 41 15 26 34 12 26 34 12 28 36 14 29 37 14 27 36 10
38 47 20 49 58 31 62 71 44 70 79 52 71 80 53 68 77 50 53 62 35
50 59 32 63 72 45 56 66 39 58 66 39 65 70 44 63 67 42 66 70 45
68 72 47 69 73 48 67 72 47 61 68 42 56 64 38 53 62 35 52 61 34
54 63 36 48 57 30 46 55 28 46 55 28 39 48 21 48 57 30 46 54 28
41 45 22 50 54 31 58 62 39 57 61 38 60 65 40 75 81 55 81 87 61
76 82 56 63 69 43 55 61 35 55 61 35 58 64 38 60 66 40 60 66 40
60 66 40 53 59 33 58 64 38 64 70 44 65 71 45 73 79 53 71 77 51
55 61 35 46 52 26 64 70 44 80 86 60 82 88 62 81 87 61 78 84 58
71 77 51 68 74 48 69 75 49 66 72 46 58 64 38 53 59 33 53 59 33
50 56 30 52 58 32 61 67 41 61 67 41 51 57 31 53 59 33 70 76 50
73 79 53 79 85 59 73 79 53 60 66 40 46 52 26 38 44 18 44 50 24
57 63 37 66 72 46 67 73 47 68 75 48 62 68 42 56 61 37 45 51 26
36 42 17 42 47 22 49 55 28 56 62 36 58 64 38 61 67 41 61 67 41
53 60 33 55 61 33 54 60 32 62 69 41 64 70 42 63 69 42 57 64 36
53 59 33 56 62 36 61 67 41 66 72 46 55 61 34 44 50 22 41 46 24
38 43 22 39 44 22 43 48 25 46 51 26 42 48 22 36 42 16 38 44 18
47 53 27 54 60 34 62 68 42 68 74 48 73 79 53 71 77 51 59 65 39
49 55 29 52 58 32 62 68 42 73 79 53 77 83 57 76 82 56 64 70 44
53 59 33 48 54 28 44 50 24 44 50 24 46 52 26 49 55 29 44 50 24
43 49 23 48 54 28 48 54 28 45 51 25 43 49 22 48 54 29 51 57 32
47 52 28 59 65 39 43 49 23 49 55 29 72 78 52 77 83 57 67 73 47
62 68 42 60 66 40 53 59 33 56 62 36 49 55 29 27 33 8 22 28 2 23 29 3
26 32 6 35 41 15 45 51 25 49 55 29 46 52 26 46 52 26 39 45 19
36 42 16 46 52 26 66 73 46 63 72 45 61 70 43 70 79 52 67 76 49
51 60 33 43 52 25 42 51 24 46 55 28 50 59 32 60 69 42 63 72 45
59 68 41 45 54 27 39 48 21 41 50 23 52 61 34 50 59 32 40 49 22
34 43 16 31 40 13 37 46 17 50 60 30 51 60 31 50 59 31 50 59 33
50 58 35 53 59 36 61 66 44 63 71 48 65 73 48 66 76 48 56 65 38
50 59 32 46 55 28 39 49 22 35 46 19 37 48 22 50 57 31 57 63 37
62 66 41 68 72 47 80 84 59 77 82 57 82 88 62 83 89 63 81 89 62
79 87 61 70 77 51 65 72 46 65 72 46 68 76 49 68 77 50 45 53 27
40 46 20 50 56 30 60 66 40 59 65 39 59 65 39 62 67 41 58 63 37
51 58 32 50 58 32 54 61 35 59 65 39 65 71 45 58 66 40 57 66 39
56 65 38 62 71 44 66 75 48 48 57 30 57 66 39 73 83 55 79 90 62
85 91 65 85 89 64 83 87 62 75 79 54 58 67 40 59 69 42 67 76 49
68 75 48 67 74 47 59 66 39 52 59 33 49 56 29 46 53 26 45 54 27
34 45 17 28 38 11 48 58 30 76 85 58 77 86 59 57 66 39 50 59 31
58 67 39 69 78 51 73 82 55 67 76 49 53 61 34 43 50 24 41 47 21
42 49 23 46 52 26 56 62 36 71 77 51 73 79 53 67 73 47 55 61 35
38 44 18 44 50 24 58 64 38 57 62 37 52 58 32 53 59 33 42 48 22
49 55 29 61 67 41 55 61 35 54 60 34 71 77 51 78 84 58 73 79 53
60 66 40 55 61 35 53 59 33 55 61 35 58 64 38 49 55 29 47 53 27
48 54 28 47 53 28 43 50 22 32 38 12 26 34 12 27 35 12 31 39 16
35 43 20 37 45 22 45 54 28 46 55 28 41 50 23 39 48 21 46 55 28
49 58 31 41 50 23 41 50 23 50 59 32 57 66 39 66 73 47 69 75 49
74 78 53 79 83 58 78 82 57 79 83 58 77 81 56 69 75 49 67 74 48
65 73 46 59 67 40 51 60 33 44 53 26 46 55 28 50 59 32 41 50 23
40 49 22 51 59 33 62 66 43 65 69 46 64 68 45 55 59 36 53 57 33
63 69 43 76 82 56 83 89 63 79 85 59 61 67 41 60 66 40 66 72 46
62 68 42 56 62 36 43 49 23 48 54 28 60 66 40 72 78 52 73 79 53
69 75 49 54 60 34 41 47 21 47 53 27 72 78 52 77 83 57 77 83 57
80 86 60 73 79 53 73 79 53 76 82 56 75 81 55 53 59 33 34 40 14
35 41 15 51 57 31 69 75 49 70 76 50 63 69 43 71 77 51 72 78 52
71 77 51 75 81 55 75 81 54 73 79 52 59 65 39 43 49 23 40 46 20
54 60 34 65 71 45 71 77 51 77 83 57 79 85 59 67 73 47 49 55 29
41 47 20 40 47 18 49 56 27 54 60 32 51 57 31 54 60 34 60 66 40
56 62 36 58 64 38 54 60 34 49 55 30 54 60 35 59 65 39 60 66 40
56 62 36 61 67 41 66 72 46 71 77 51 74 80 54 73 79 53 61 67 40
51 57 29 39 44 23 31 36 15 28 33 11 26 31 8 28 32 9 30 36 10 33 39 13
43 49 23 63 69 43 69 75 49 74 80 54 72 78 52 61 67 41 54 60 34
53 59 33 56 62 36 59 65 39 62 68 42 65 71 45 67 73 47 70 76 50
67 73 47 63 69 43 61 67 41 59 65 39 59 65 39 54 60 34 52 58 32
49 55 29 50 56 30 49 55 29 42 48 22 44 50 24 49 55 29 48 54 26
49 56 27 48 54 26 82 88 62 66 72 46 48 54 28 56 62 36 74 80 54
68 74 48 72 78 52 70 76 50 60 66 40 59 65 39 53 59 33 40 46 20
36 42 15 35 41 12 28 34 7 27 33 7 34 40 14 47 53 27 54 60 34 50 56 30
41 47 21 36 42 16 37 43 17 45 51 25 58 67 40 57 66 39 63 72 45
66 75 48 61 70 43 51 60 33 51 60 33 60 69 42 59 68 41 59 68 41
67 76 49 71 80 53 63 72 45 46 55 28 42 51 24 61 70 43 70 79 52
68 77 50 68 77 50 61 70 43 44 52 26 37 46 19 41 50 24 49 59 29
52 61 36 48 56 33 50 55 33 51 56 34 52 60 37 56 65 39 54 63 36
54 63 36 58 67 40 62 71 44 57 66 39 46 55 28 27 36 9 27 36 9 36 44 17
38 44 18 39 45 19 45 51 25 52 58 32 59 65 39 64 69 44 73 79 52
77 83 57 76 82 56 75 80 54 76 81 55 80 85 59 73 79 53 44 50 24
35 41 15 52 57 31 61 67 41 62 68 42 63 69 43 68 74 48 69 75 49
68 74 48 67 73 47 60 66 40 47 53 27 42 48 22 46 54 27 54 63 36
58 67 40 66 75 48 69 78 51 74 83 56 75 84 57 79 88 61 77 88 60
80 85 59 77 81 56 79 83 58 78 82 57 66 75 48 50 60 33 41 50 23
50 58 32 64 73 46 63 72 45 48 57 30 44 52 25 54 63 36 55 65 38
39 48 21 35 45 18 65 74 47 77 85 58 74 83 56 62 71 42 56 65 36
46 55 25 49 58 29 50 59 32 37 46 19 25 34 7 21 30 3 22 31 4 31 40 13
47 56 29 49 56 30 44 50 24 42 48 22 44 50 24 39 45 19 45 51 25
67 73 47 70 76 50 67 73 47 72 78 52 71 77 51 52 58 32 43 49 23
40 46 20 43 49 23 51 57 31 61 67 41 59 65 39 56 62 36 49 55 29
46 52 26 46 52 26 48 54 28 43 49 23 37 43 17 30 36 10 30 36 10
45 51 25 52 58 30 54 60 33 48 56 34 43 51 29 47 55 32 56 64 41
61 69 46 69 77 54 74 83 57 68 77 50 52 61 34 42 51 24 40 49 22
35 44 17 32 41 14 49 58 31 63 73 46 69 76 50 74 80 54 82 86 61
84 88 63 78 82 57 81 85 60 83 87 62 82 86 61 76 81 55 71 77 51
64 69 43 63 69 43 66 72 46 51 59 32 40 49 22 47 56 29 50 60 32
59 67 41 62 66 43 59 63 40 60 64 41 55 59 36 50 56 31 53 59 33
60 66 40 68 74 48 66 72 46 58 64 38 60 66 40 65 71 45 66 72 46
51 57 31 46 52 27 68 74 48 81 87 61 82 88 62 83 89 63 84 90 64
72 78 52 53 59 33 55 61 35 72 78 52 71 77 51 66 72 46 59 65 39
56 62 36 54 60 34 54 60 34 51 57 31 37 43 17 34 40 14 55 61 35
76 82 56 73 79 53 57 63 37 56 62 36 73 79 53 78 84 58 72 77 52
65 71 45 56 63 34 49 55 26 45 52 23 47 53 27 48 55 28 66 72 46
76 82 56 72 78 52 60 66 40 51 57 31 42 48 22 47 53 27 52 58 32
51 57 31 47 53 27 41 47 21 43 49 23 59 65 39 64 70 44 59 65 39
69 75 49 75 81 55 74 80 54 64 70 44 55 61 35 55 61 35 57 63 37
64 70 44 54 60 34 50 56 30 54 60 34 55 61 35 52 58 30 37 43 17
27 32 9 24 29 8 31 36 14 37 42 21 36 41 19 39 43 20 39 44 20 40 46 20
44 50 24 52 58 32 56 62 36 46 52 26 47 53 27 54 60 34 51 57 31
59 65 39 64 70 44 64 70 44 72 78 52 76 82 56 77 83 57 72 78 52
69 75 49 62 68 42 61 67 41 56 62 36 50 56 30 42 48 22 43 49 23
49 55 29 41 47 21 48 54 28 51 57 31 55 61 35 63 69 43 64 70 44
53 59 33 63 69 43 56 62 36 58 64 38 66 72 46 79 85 59 78 84 58
72 78 52 73 79 53 76 82 56 65 71 45 60 66 40 57 62 40 56 61 40
53 58 36 34 40 17 30 37 9 42 48 22 50 56 30 57 63 37 58 64 38
49 55 29 34 40 14 33 39 13 35 42 16 50 59 32 56 65 38 53 62 35
52 61 34 57 66 39 68 77 50 62 71 44 53 62 35 60 69 42 66 75 48
63 72 45 60 69 42 61 70 43 66 75 48 60 69 42 43 52 25 49 58 31
63 72 45 69 78 51 64 73 46 54 63 36 41 50 23 38 47 20 43 52 24
47 56 30 53 61 37 53 61 36 53 60 36 57 66 40 61 70 43 58 67 40
50 59 32 54 63 36 56 65 38 67 76 49 71 80 53 56 65 38 39 48 21
36 44 17 48 56 29 57 65 38 55 63 36 46 54 27 43 51 24 37 45 18
32 39 15 36 43 19 46 54 27 49 57 30 50 58 31 57 65 39 57 64 38
39 47 20 34 42 15 53 61 34 63 72 45 62 69 43 59 65 39 63 69 43
72 78 52 73 79 53 71 77 51 64 70 44 65 71 45 57 63 37 47 54 28
44 51 25 48 55 28 61 69 42 69 78 51 70 79 52 67 76 49 60 69 42
59 68 41 59 66 40 58 63 37 49 54 29 44 49 23 36 45 19 37 46 17
31 40 12 50 59 32 65 74 47 63 72 45 69 78 51 72 81 54 73 82 55
66 70 45 55 60 35 62 67 42 70 77 51 63 73 46 68 77 48 61 69 46
57 66 42 59 67 45 51 60 36 36 45 20 34 43 16 28 37 10 22 31 3 26 35 6
40 49 20 47 57 28 50 56 27 48 55 26 38 45 17 36 43 14 38 44 16
55 61 34 61 67 41 61 67 41 65 71 45 66 72 46 59 65 39 57 63 37
61 67 41 62 68 42 57 63 37 62 68 42 76 82 56 75 81 55 51 57 31
38 44 18 55 61 35 70 76 50 75 81 55 72 78 52 68 74 48 48 54 28
33 39 13 44 50 24 55 61 34 54 60 34 51 57 33 50 57 33 53 59 35
59 64 41 60 66 43 55 63 40 56 65 39 62 71 44 67 76 49 57 66 39
47 56 29 33 42 15 28 37 10 37 46 19 36 46 19 38 46 19 42 50 23
49 56 30 56 63 37 65 70 45 72 78 52 78 84 57 79 84 57 74 80 54
78 84 58 76 82 56 63 69 43 46 52 26 41 49 23 49 58 31 62 71 44
64 73 46 65 73 47 68 76 50 69 74 50 67 71 48 63 67 44 57 61 38
45 50 26 47 53 27 52 58 32 58 64 38 63 69 43 71 77 51 74 80 54
74 80 54 75 81 55 80 86 60 81 87 61 76 82 56 75 81 55 74 80 54
67 73 47 57 63 37 50 56 30 53 59 33 63 69 43 65 71 45 58 64 38
51 57 31 57 63 37 52 58 32 39 45 19 44 50 24 63 69 43 73 79 53
78 84 58 66 72 46 60 66 40 48 54 28 47 53 27 51 57 31 41 47 21
33 39 12 25 30 6 22 27 5 31 36 14 49 54 32 49 55 29 44 51 23 44 50 24
46 52 26 44 50 24 51 57 31 61 67 41 68 74 48 72 78 52 69 75 49
65 71 45 54 60 34 43 49 23 44 50 24 53 59 33 55 61 35 59 65 39
56 62 36 55 61 35 54 60 34 51 57 31 53 59 33 47 53 27 41 47 21
36 42 16 30 36 10 40 46 20 46 52 26 53 59 33 51 57 30 47 53 26
47 53 27 51 57 31 60 65 42 60 66 42 66 71 48 73 78 53 65 70 44
50 56 30 39 45 19 34 40 14 34 40 14 37 43 17 54 60 34 67 73 47
76 82 56 83 89 63 81 87 61 79 85 59 79 85 59 81 87 61 79 85 59
77 83 57 74 80 54 71 77 51 62 68 42 59 65 39 52 58 32 49 55 29
50 56 30 52 58 32 54 60 34 61 67 41 63 69 43 62 68 42 57 63 37
52 58 32 53 59 33 45 51 25 49 55 29 56 62 36 67 73 47 74 80 54
77 83 57 76 82 56 73 79 53 70 76 50 75 81 55 71 77 51 57 62 41
55 59 40 52 57 35 55 61 38 52 59 29 41 47 21 34 40 14 32 38 13
40 46 20 50 56 30 44 50 24 35 41 15 36 43 17 45 54 27 55 64 37
55 64 37 47 56 29 37 46 19 50 59 31 69 78 51 60 69 42 50 59 32
55 64 37 63 72 45 70 79 52 70 79 52 60 69 42 61 70 43 57 66 39
46 55 28 40 49 22 42 51 24 45 54 27 50 59 32 53 63 36 58 68 41
59 69 42 52 62 34 47 56 26 50 59 29 52 62 32 63 72 45 72 81 54
72 81 54 70 79 52 64 73 46 55 64 37 63 72 45 70 79 52 74 83 56
69 79 52 52 62 35 46 55 28 50 59 32 55 64 37 52 61 34 47 56 29
50 59 32 47 56 29 37 46 19 42 52 24 47 56 29 45 54 27 42 51 24
37 46 19 31 40 13 29 38 11 41 50 23 52 61 34 53 60 34 58 64 38
56 62 36 58 64 38 67 73 47 67 73 47 61 67 41 66 72 46 65 71 45
60 66 40 51 56 30 41 47 21 45 53 26 45 54 27 51 60 33 56 65 38
60 69 42 68 77 50 67 77 50 54 66 38 42 53 26 30 41 13 28 37 11
43 52 24 31 39 15 48 57 30 59 68 40 54 63 36 63 72 45 55 65 38
52 61 34 63 67 42 76 80 55 85 89 64 75 81 55 72 83 56 76 85 56
59 67 44 51 59 36 53 61 38 56 64 41 52 60 37 35 43 17 37 46 21
44 52 28 40 48 22 55 65 38 56 67 39 42 47 22 32 37 12 34 39 13
37 43 17 50 55 29 57 63 37 51 57 31 50 56 30 69 74 49 74 80 54
58 64 38 56 62 36 67 73 47 70 76 50 70 76 50 60 66 40 58 64 38
71 77 51 58 64 38 43 49 23 58 64 38 66 72 46 65 71 45 59 65 39
54 60 34 45 51 25 44 50 24 43 49 23 55 61 35 56 62 36 54 60 31
57 63 34 61 67 39 63 68 44 53 58 35 51 59 36 54 62 36 61 70 43
75 84 57 70 79 52 43 52 25 30 39 12 48 57 30 61 70 43 54 63 36
43 52 25 44 53 26 41 50 23 30 39 12 30 41 13 38 49 21 41 50 24
47 53 27 57 63 36 62 68 42 48 54 28 41 47 21 54 60 34 63 72 45
59 68 41 50 59 32 58 67 40 71 80 53 72 82 54 69 75 50 66 70 47
66 70 47 61 65 42 45 49 26 39 45 19 51 57 31 63 69 43 70 76 50
70 76 50 64 70 44 62 68 42 60 66 40 54 60 34 50 56 30 42 48 22
41 47 21 41 47 21 34 40 14 37 43 18 54 60 34 63 69 43 71 77 51
70 76 50 71 77 51 67 73 47 66 72 46 69 75 49 61 67 41 63 69 43
71 77 51 70 76 50 63 69 43 59 65 39 59 65 39 48 54 28 39 45 19
33 39 14 23 29 3 26 32 4 42 48 23 47 52 30 49 54 31 47 52 31 41 47 20
37 43 15 38 44 18 50 56 30 54 60 34 64 70 44 66 72 46 64 70 44
60 66 40 59 65 39 64 70 44 65 71 45 59 65 39 54 60 34 74 80 54
76 82 56 52 58 32 43 49 23 54 60 34 65 71 45 72 78 52 75 81 55
66 72 46 46 52 26 32 38 12 40 46 20 54 60 34 52 58 32 50 56 30
53 59 33 55 61 35 56 62 36 56 63 36 57 64 35 57 64 34 63 69 40
65 71 45 56 62 36 44 50 24 36 42 16 37 43 17 40 46 20 40 46 20
39 45 19 40 46 20 47 53 27 59 65 39 69 75 49 80 86 60 79 85 59
82 88 62 78 84 58 75 81 55 64 70 44 52 58 32 47 53 27 48 54 28
57 63 37 63 69 43 67 73 47 68 74 48 68 74 48 67 73 47 65 71 45
60 66 40 47 53 27 43 49 23 53 59 33 52 58 32 43 49 23 39 45 19
53 59 33 68 74 48 77 83 57 82 88 62 82 88 62 78 84 58 76 82 56
63 69 41 58 63 41 59 64 42 57 62 40 53 58 35 56 63 34 53 59 33
38 44 18 36 42 16 45 51 25 49 55 29 42 48 22 38 44 18 37 44 18
36 45 18 39 48 21 48 57 30 55 64 37 56 65 38 47 56 29 45 54 27
47 56 29 50 59 32 42 51 24 42 51 24 53 62 35 63 72 45 69 78 51
70 79 52 68 77 50 62 71 44 49 58 31 50 59 32 63 72 45 69 78 51
74 83 56 71 81 54 65 75 48 60 70 43 62 71 44 61 70 43 57 66 40
62 71 44 63 72 45 60 69 42 58 67 40 56 65 38 59 68 41 69 78 51
76 85 58 76 85 58 72 81 54 65 75 48 58 68 41 49 58 32 51 60 33
57 66 39 56 65 38 56 65 38 50 59 31 44 53 26 41 50 23 39 48 21
44 53 26 55 64 37 46 55 28 36 45 18 36 45 18 45 54 27 46 54 27
46 52 26 50 56 30 49 55 29 45 51 25 43 49 23 44 50 24 40 46 20
38 44 18 42 48 22 41 47 21 39 45 19 46 52 26 59 67 40 53 62 35
52 61 34 52 61 34 50 59 32 54 63 36 58 67 40 45 55 28 39 49 22
39 49 22 32 41 14 40 49 22 43 52 25 62 71 44 50 59 32 44 53 26
51 60 33 56 67 39 66 75 48 75 79 54 81 85 60 78 82 57 67 73 47
68 79 52 75 84 54 64 72 50 54 62 39 48 56 33 52 60 37 59 67 44
40 48 25 29 37 14 35 43 20 39 46 24 42 51 28 45 54 30 39 42 20
34 37 15 43 46 24 52 56 34 58 62 39 52 57 33 37 42 18 44 48 25
70 75 50 70 77 50 54 61 34 54 60 34 64 70 44 74 80 54 72 78 52
68 74 48 58 64 38 59 65 39 52 58 32 40 46 20 49 55 29 51 57 31
50 56 30 52 58 32 54 60 34 58 64 38 57 63 37 45 51 25 52 58 32
59 65 39 65 71 45 72 78 52 71 77 52 68 74 49 63 68 43 58 62 39
65 73 47 66 76 48 69 78 51 70 79 52 51 60 33 40 49 22 54 63 36
55 64 37 52 61 34 43 52 24 44 53 23 47 56 26 36 45 16 46 56 29
50 59 32 46 55 28 37 47 20 33 40 14 32 38 12 35 41 15 44 50 24
60 66 40 58 67 40 59 69 42 54 63 36 57 66 39 61 70 43 59 68 41
59 68 41 63 72 45 61 70 43 54 63 36 46 54 27 40 46 20 43 49 23
53 59 33 59 65 39 61 67 41 68 74 48 64 70 44 61 67 41 52 58 32
36 42 16 31 37 11 38 44 18 37 43 18 44 50 25 56 62 36 52 58 32
58 64 38 66 72 46 64 70 44 64 70 44 67 73 47 74 80 54 79 85 59
81 87 61 74 80 54 61 67 41 54 60 34 58 64 38 58 64 38 50 56 30
38 44 18 45 51 25 44 50 24 40 46 20 52 58 30 59 65 40 40 45 24
40 45 23 41 46 24 43 49 23 51 57 30 52 58 32 53 59 33 61 67 41
67 73 47 65 71 45 54 60 34 58 64 38 64 70 44 67 73 47 65 71 45
62 68 42 63 69 43 70 76 50 50 56 30 42 48 22 58 64 38 65 71 45
65 71 45 60 66 40 58 64 38 48 54 28 43 49 23 48 54 28 56 62 36
55 61 35 56 62 36 57 63 37 61 67 41 56 62 36 53 59 33 55 61 35
59 65 39 73 79 54 73 79 53 52 58 32 39 45 17 41 48 19 53 59 30
55 61 34 49 55 29 51 57 31 45 51 25 35 41 15 29 35 9 35 41 15
43 49 23 52 58 32 58 64 38 65 71 45 57 63 37 51 57 31 53 59 33
56 62 36 55 61 35 52 58 32 65 71 45 73 79 53 74 80 55 71 77 51
68 74 48 65 71 45 56 62 36 43 49 23 41 47 21 53 59 33 62 69 43
74 80 54 74 80 54 57 63 37 44 50 24 48 54 28 67 73 47 80 86 60
82 88 62 79 85 59 66 72 46 45 51 24 44 50 27 45 50 28 50 55 32
49 55 31 44 51 23 45 51 25 46 52 26 47 53 27 50 56 30 48 54 28
45 51 25 50 56 30 46 52 26 37 44 17 34 41 15 51 60 33 55 64 37
67 76 49 71 80 53 47 56 29 43 52 25 56 65 38 55 64 37 50 59 32
49 58 31 53 62 35 58 67 40 69 78 51 78 87 60 77 86 59 73 82 55
63 72 45 59 69 42 73 83 55 81 87 61 82 87 62 80 85 59 76 81 56
72 80 53 72 80 53 68 78 51 58 69 42 49 60 33 57 67 40 59 69 42
54 62 36 49 58 31 52 61 34 50 60 33 47 56 29 54 59 34 58 63 37
66 70 45 56 62 37 42 52 25 43 52 25 53 62 35 55 64 37 57 66 39
57 66 39 53 62 35 49 58 31 43 52 25 48 57 30 37 46 19 34 43 16
42 51 24 58 67 40 64 73 46 74 82 55 77 85 58 71 79 52 67 75 48
62 70 43 48 56 30 37 44 18 38 44 18 36 42 16 35 41 15 38 44 18
43 49 23 66 74 47 67 76 49 60 69 42 51 60 33 44 53 26 46 56 28
55 62 36 58 63 37 45 50 24 42 47 22 42 51 24 49 58 31 60 69 42
58 67 40 40 49 22 34 43 16 47 56 29 65 75 48 78 87 60 82 88 62
82 87 61 80 84 59 70 75 50 59 68 41 59 68 40 57 66 41 59 67 43
54 63 38 51 59 35 48 56 33 38 46 23 41 49 26 43 51 28 40 48 25
38 47 23 36 45 19 37 43 18 37 43 18 40 47 22 59 66 41 64 70 45
59 64 40 41 45 22 47 51 28 54 59 35 51 56 31 44 49 24 47 52 27
56 62 36 70 76 50 70 76 50 71 77 51 73 79 53 61 67 41 49 55 29
61 67 41 69 75 49 72 78 52 76 82 56 75 81 55 66 72 46 63 69 43
66 72 46 62 68 42 64 70 44 58 64 38 63 69 43 62 68 42 60 66 40
63 69 43 66 72 46 69 74 49 75 82 56 75 83 56 71 80 53 62 71 44
50 59 32 47 56 29 55 64 37 55 64 37 57 66 37 54 62 37 50 58 35
44 52 29 42 50 26 41 50 22 50 59 32 48 57 30 40 49 22 43 51 24
48 55 29 54 60 33 57 63 37 51 57 31 45 52 26 43 50 24 38 45 19
40 48 21 40 47 21 37 44 18 42 49 22 40 48 21 45 52 25 53 62 35
54 63 36 53 59 33 50 56 30 50 56 30 54 60 34 61 67 41 58 64 38
46 52 26 41 47 21 40 46 20 39 45 19 45 51 25 51 57 31 54 60 34
46 52 26 51 57 31 62 68 42 68 74 48 71 77 51 75 81 55 77 83 57
75 81 55 71 77 51 69 75 49 74 80 54 64 70 44 51 57 31 49 55 29
56 62 36 52 58 32 31 37 11 31 37 11 42 48 22 47 53 27 45 51 25
40 46 19 38 43 18 40 44 22 48 53 31 52 57 36 52 58 32 41 48 20
46 52 26 58 64 38 66 72 46 57 63 37 56 62 36 61 67 41 75 81 55
76 82 56 70 76 50 59 65 39 54 60 34 53 59 33 45 51 25 48 54 28
53 59 33 55 61 35 56 62 36 56 62 36 58 64 38 56 62 36 50 56 30
54 60 34 65 71 45 69 75 49 68 74 48 67 73 47 65 71 45 64 70 44
66 72 46 68 74 48 67 73 47 66 72 46 68 74 48 55 61 35 46 52 24
54 59 36 55 60 38 48 53 31 42 47 24 45 51 23 45 51 25 44 50 24
53 59 33 54 60 34 43 49 24 32 38 14 31 37 13 30 36 12 36 42 16
41 47 21 57 63 37 62 68 42 62 68 42 55 61 35 56 62 36 60 66 40
61 67 40 59 65 39 57 63 37 57 63 37 55 61 35 48 54 28 42 48 22
48 54 28 60 66 40 62 68 42 57 63 37 65 71 45 73 79 53 64 70 44
61 67 41 56 62 36 68 74 48 67 73 47 54 60 34 52 58 32 62 68 42
66 73 44 65 71 42 67 74 45 68 74 46 58 64 38 58 64 38 54 60 34
58 64 38 53 59 33 46 52 26 40 46 20 49 55 29 53 59 33 40 45 19
39 45 19 57 63 37 56 65 38 62 71 44 73 82 55 74 83 56 65 74 47
61 70 43 58 67 40 54 63 36 54 63 36 56 65 38 52 61 34 58 67 40
63 72 45 63 72 45 68 77 50 74 83 56 62 71 44 48 58 31 56 62 36
74 78 53 81 85 60 84 88 63 81 87 61 68 76 50 60 69 42 64 72 46
63 71 44 62 70 43 56 65 38 47 56 29 43 52 25 48 57 30 48 58 31
48 57 30 64 68 43 74 77 53 76 80 55 73 78 53 56 66 39 38 47 21
37 46 19 45 54 27 57 66 39 61 70 43 61 70 43 59 68 41 53 62 35
50 59 32 36 45 18 35 44 17 48 57 30 61 70 43 64 73 46 64 73 46
55 64 37 56 65 38 60 69 42 63 72 45 63 72 45 61 68 42 59 66 40
47 53 27 51 57 31 55 61 35 58 64 38 45 53 26 41 50 23 43 52 25
49 58 31 46 55 28 33 44 17 37 43 17 42 46 21 38 42 17 48 52 27
61 69 43 64 74 47 76 85 58 67 76 49 52 61 34 40 49 22 58 67 40
73 81 54 79 88 61 81 88 61 70 75 49 52 56 31 43 49 23 43 50 23
50 58 32 48 57 28 42 50 20 39 48 21 43 51 26 45 52 30 41 49 26
40 48 25 48 56 33 50 58 35 41 50 26 35 44 17 35 44 17 49 58 31
56 65 38 63 72 45 68 77 50 53 58 35 39 44 21 54 58 35 61 66 42
54 58 35 50 54 31 55 61 35 58 64 38 71 77 51 82 88 62 79 85 59
76 82 56 64 70 44 58 64 38 78 84 58 83 89 63 82 88 62 83 89 63
79 85 59 70 76 50 71 77 51 67 73 47 58 64 38 58 64 38 58 64 38
61 67 41 53 59 33 47 53 27 49 55 29 50 56 30 53 59 33 47 53 27
50 57 31 56 65 38 54 63 36 38 47 20 47 56 29 59 68 41 60 69 42
55 65 35 56 64 40 54 62 39 42 50 27 45 53 30 41 50 20 36 45 18
38 47 20 49 58 31 59 68 41 69 78 51 79 86 59 81 88 62 77 84 58
73 79 53 66 72 46 41 47 21 37 43 17 33 39 13 31 37 11 35 41 15
40 46 20 62 68 42 75 83 56 69 78 51 60 66 40 47 53 27 48 54 28
56 62 36 61 67 41 45 51 25 42 48 22 45 51 25 56 62 36 60 66 40
56 62 36 44 50 24 41 47 21 49 55 29 64 70 44 78 84 58 83 89 63
82 88 62 77 83 57 69 75 49 62 68 42 59 65 39 58 64 38 59 65 39
58 64 38 53 59 33 48 54 28 43 49 23 47 53 27 47 53 27 41 47 21
39 45 19 37 43 17 37 43 17 34 40 15 43 49 23 64 68 45 63 67 45
49 54 33 48 54 28 51 57 29 49 55 29 46 52 26 42 48 22 47 53 27
63 69 43 69 75 49 70 76 50 76 82 56 70 76 50 53 59 33 56 62 36
67 73 47 69 75 49 76 82 56 78 84 58 70 76 50 64 70 44 68 74 48
67 73 47 66 72 46 65 71 45 58 64 38 57 63 37 59 65 39 62 68 42
66 72 46 70 76 50 73 79 53 78 84 58 75 81 55 64 70 44 54 60 34
52 58 32 55 61 35 59 66 36 58 63 41 57 62 40 51 56 34 44 49 27
41 48 18 42 48 21 47 53 27 47 53 27 44 50 24 44 50 24 50 55 30
53 59 33 55 60 35 47 53 27 41 47 21 36 42 16 33 39 13 39 45 19
41 47 21 40 46 20 43 48 22 42 48 21 46 52 26 52 58 31 50 56 30
50 56 30 47 53 27 53 59 33 57 63 37 55 61 35 51 56 31 40 46 20
45 51 25 48 54 28 56 62 36 56 62 36 52 58 32 45 51 25 41 47 21
37 43 17 45 51 25 65 71 45 68 74 48 74 80 54 80 86 60 81 87 61
76 82 56 75 81 55 71 77 51 68 74 48 67 73 48 58 64 38 46 52 26
47 53 27 55 61 35 43 49 23 39 45 19 52 59 33 63 72 45 58 67 40
57 66 39 60 69 42 64 73 46 68 77 50 73 82 55 70 79 52 61 70 43
61 70 43 68 77 50 61 70 43 51 60 33 42 51 24 46 55 29 67 76 49
71 80 53 63 74 47 58 63 38 54 58 33 60 64 39 72 76 51 77 81 56
79 84 59 74 80 54 74 80 54 77 83 57 68 74 48 49 57 30 38 47 20
33 42 15 55 64 37 72 83 55 69 78 51 56 60 35 73 77 52 75 78 54
74 80 52 70 83 51 62 71 41 50 59 30 41 50 22 49 58 31 59 68 41
69 78 51 76 85 58 76 85 58 66 75 48 42 51 24 36 45 18 49 58 31
51 60 33 48 57 30 43 52 25 51 60 33 67 76 49 58 67 40 49 58 31
56 65 38 63 72 45 62 70 43 54 60 34 59 64 38 66 71 46 76 82 56
68 76 49 62 71 44 56 65 38 45 54 27 35 44 17 23 34 6 29 35 9 30 34 9
29 33 8 37 41 16 48 57 31 53 63 36 66 75 48 65 74 47 64 73 46
48 57 30 60 69 42 62 71 44 54 63 36 58 67 40 60 68 42 66 72 46
67 73 47 68 74 48 63 69 43 57 64 37 56 62 36 53 60 31 54 61 38
45 53 30 42 50 27 39 47 24 40 48 25 47 55 32 36 44 20 43 52 25
55 64 37 54 62 36 61 69 42 77 85 58 75 84 57 69 78 51 59 68 41
55 64 37 54 63 36 58 67 40 59 67 40 55 63 36 56 65 38 59 68 41
65 72 46 71 77 51 72 78 52 54 60 34 48 54 28 70 76 50 82 88 62
81 87 61 82 88 62 76 82 56 67 73 47 71 77 51 68 74 48 55 61 35
55 61 35 53 59 33 48 54 28 56 62 36 61 67 41 54 60 34 62 68 42
70 76 50 71 77 51 74 81 55 62 71 44 43 52 25 34 43 16 43 52 25
58 67 40 68 77 50 66 75 45 61 69 45 57 65 42 45 53 30 35 43 21
40 49 20 50 59 31 57 66 39 59 68 41 54 63 36 55 64 38 54 63 36
52 61 34 59 68 41 63 72 45 62 71 44 52 60 33 49 58 31 56 65 38
64 72 45 56 65 38 44 53 26 42 51 24 42 51 22 42 51 21 45 52 22
41 47 19 38 45 19 40 46 20 47 53 27 56 62 36 63 69 43 70 76 50
74 80 54 64 70 44 48 54 28 52 58 32 64 70 44 75 81 55 74 80 54
73 79 53 62 68 42 53 59 33 45 51 26 47 53 27 49 55 29 48 54 28
44 50 24 47 53 27 51 57 31 45 51 25 39 45 19 48 54 28 53 59 33
45 51 25 44 50 24 43 49 23 46 52 26 58 64 38 65 71 45 66 72 46
61 67 41 49 54 30 52 56 33 55 61 35 54 59 33 52 58 32 55 61 35
62 68 42 72 78 52 81 87 61 79 85 59 72 78 52 64 70 44 62 68 42
74 80 54 82 88 62 85 91 65 83 89 63 76 82 56 74 80 54 69 75 49
65 71 45 62 68 42 59 65 39 57 63 37 55 61 35 50 56 30 46 51 25
47 53 27 53 59 33 55 61 35 57 63 37 57 63 37 54 60 34 51 57 31
44 50 24 51 57 31 59 65 39 59 65 39 58 64 37 57 63 39 50 54 37
42 47 26 42 46 24 43 49 20 48 53 27 51 57 31 52 58 32 62 68 42
74 80 54 75 82 53 75 81 52 76 82 53 70 76 50 58 64 38 44 50 24
37 43 17 33 39 14 33 39 14 34 40 11 47 54 25 64 70 43 70 76 50
64 70 45 53 59 33 47 53 27 51 57 31 54 60 34 52 58 32 49 55 29
52 57 31 55 61 35 53 59 33 58 64 38 62 68 42 64 70 44 64 70 44
58 64 38 54 60 34 53 59 33 46 52 26 41 47 21 40 46 20 49 55 29
56 62 36 60 66 40 63 69 43 70 76 50 75 81 55 79 85 59 83 90 62
79 85 59 72 78 52 68 74 48 76 82 56 66 72 46 43 49 23 43 49 23
57 64 38 62 70 44 60 68 41 63 70 44 60 69 42 55 64 37 57 66 39
58 67 40 51 60 33 51 60 33 54 63 36 54 63 36 63 72 45 63 72 45
56 65 39 73 82 55 79 89 62 80 90 62 84 90 64 81 85 60 74 78 53
69 73 48 64 68 43 63 69 43 59 67 40 59 65 39 53 59 33 46 52 26
43 52 25 44 53 26 35 44 17 37 46 19 64 73 46 77 86 59 65 71 45
54 59 34 57 61 35 62 68 45 64 74 49 53 61 37 38 46 21 31 40 14
32 41 14 42 51 24 56 65 38 60 69 42 60 69 42 53 62 35 40 49 22
39 48 21 58 67 40 59 68 41 55 64 37 55 64 37 49 58 31 50 59 32
50 59 32 47 56 29 58 67 40 66 75 48 64 72 45 58 65 38 52 59 32
52 59 33 50 57 31 42 50 23 38 48 21 37 46 19 38 47 20 43 53 26
40 50 22 36 43 18 34 38 15 41 45 22 45 50 26 49 58 30 53 63 35
54 63 36 46 55 28 45 54 27 40 49 22 35 44 17 40 49 22 58 67 40
70 79 52 72 81 54 80 86 60 81 87 61 80 86 60 80 86 60 75 81 55
72 78 52 70 76 48 62 68 45 47 55 32 48 55 31 55 62 37 44 52 27
38 45 21 45 53 28 60 70 43 60 71 43 59 70 42 56 66 39 53 64 37
58 69 41 74 83 56 77 86 59 62 71 44 56 65 38 64 73 46 62 71 44
52 61 34 35 44 17 52 62 35 72 79 52 76 82 56 75 81 55 65 71 45
44 50 24 55 61 35 75 81 55 74 80 54 74 80 54 69 75 49 72 78 52
71 77 51 66 72 46 45 51 25 30 36 10 41 47 21 69 75 49 74 80 54
62 68 42 63 69 43 76 82 56 72 78 52 79 85 59 73 79 53 60 69 42
46 55 28 38 47 20 48 57 30 66 75 48 75 84 57 76 85 56 67 75 50
47 55 31 36 44 21 38 47 23 45 54 26 49 58 30 44 53 26 50 59 32
65 74 47 62 71 44 55 64 37 57 66 39 62 71 44 61 70 43 57 66 39
54 63 36 60 69 42 67 76 49 68 77 50 67 76 49 62 71 44 47 56 28
34 42 18 26 34 10 27 32 9 30 36 12 29 34 9 31 37 11 42 48 22 54 60 34
63 69 43 69 75 49 66 72 45 49 55 29 52 58 32 56 62 36 55 61 35
58 64 38 63 69 43 68 74 48 71 77 51 69 75 49 65 71 44 60 66 40
58 64 38 56 62 36 50 58 31 46 52 26 52 58 32 45 51 25 43 49 23
47 53 27 49 55 29 54 60 34 58 64 38 57 63 37 66 73 46 79 86 60
80 87 60 72 79 52 54 60 34 58 63 38 63 67 44 64 70 44 57 63 37
50 56 30 56 62 36 64 70 44 65 71 45 68 74 48 61 67 41 49 55 29
59 65 39 78 84 58 86 92 66 85 91 65 76 82 56 72 78 52 74 80 54
72 78 52 55 61 35 48 54 28 50 57 31 55 63 36 60 68 40 66 74 46
59 66 41 61 68 41 72 78 52 72 78 52 76 82 56 64 70 44 49 55 29
42 48 22 48 54 28 59 65 39 71 77 51 73 79 53 69 75 49 55 61 35
47 53 29 40 46 25 45 51 29 49 56 32 51 59 29 56 63 37 59 66 40
54 62 35 46 54 28 54 61 34 64 72 42 61 68 38 59 65 36 57 63 36
59 65 39 65 71 45 69 75 49 60 66 39 48 54 27 40 46 22 38 43 20
37 42 18 40 45 21 37 44 16 35 41 16 43 49 23 55 61 35 64 70 44
70 76 50 72 77 52 66 73 47 50 56 30 51 57 31 52 58 32 52 58 32
57 63 37 61 67 41 54 60 34 52 58 32 59 65 39 60 66 40 63 69 43
47 53 27 36 42 16 35 41 15 42 48 22 48 54 28 49 55 29 48 54 28
49 55 29 53 59 31 56 61 37 61 67 41 66 72 46 67 73 47 74 80 54
53 59 33 36 42 16 49 55 29 62 68 42 63 69 43 63 68 42 69 76 49
72 81 54 70 79 52 65 75 47 54 63 36 49 58 31 43 52 25 48 57 30
57 66 39 67 76 49 73 82 55 75 84 57 75 84 57 70 78 51 65 74 47
63 73 46 60 70 43 57 67 39 42 52 25 36 45 18 38 47 20 66 72 46
73 78 52 57 64 38 60 69 42 72 81 54 56 65 38 41 50 23 60 69 42
70 79 52 68 77 50 62 73 45 54 66 35 52 61 38 49 57 34 36 43 21
25 33 10 23 31 8 22 31 4 32 42 14 46 55 28 46 55 28 41 50 23 36 45 18
35 44 17 41 50 23 62 71 44 63 72 45 65 74 47 72 81 54 59 68 41
47 56 29 47 56 29 50 59 32 52 61 34 61 70 43 62 71 44 53 62 35
38 47 20 45 54 27 58 67 40 58 67 40 50 59 32 42 51 24 33 42 15
44 53 27 53 62 32 52 61 37 46 57 34 47 57 34 50 60 38 62 71 43
65 74 46 66 75 48 58 67 40 57 66 39 48 57 30 40 49 22 31 40 13
37 46 19 46 55 28 54 62 35 61 66 40 67 73 47 73 79 53 76 82 56
81 87 61 85 91 65 80 86 60 73 80 52 72 78 49 76 82 56 56 62 36
39 45 19 48 54 27 61 67 40 59 68 41 60 68 42 61 70 43 59 67 41
55 63 37 51 59 33 47 56 29 52 62 35 58 67 40 58 67 40 59 68 41
69 78 51 66 75 48 58 67 40 75 84 57 83 90 64 83 89 63 81 87 61
82 88 62 66 72 46 54 60 34 58 64 38 68 74 48 66 72 46 56 62 36
48 54 28 51 57 31 48 54 28 43 49 23 43 49 22 63 69 43 80 86 60
70 76 50 53 59 33 49 55 29 63 69 43 64 70 44 54 60 34 42 49 22
34 43 16 36 45 18 45 54 27 47 56 29 58 67 40 62 71 44 54 63 36
42 51 23 45 54 24 57 66 36 57 66 37 60 69 43 55 64 38 41 50 23
45 54 27 56 65 38 52 61 34 60 69 42 69 78 51 69 78 51 55 64 37
48 57 30 50 59 32 47 56 29 41 50 23 36 45 18 39 48 21 45 54 27
44 54 24 37 45 22 32 40 17 35 40 18 45 50 28 50 54 31 57 63 37
55 61 35 47 53 27 40 46 20 44 50 24 42 48 22 36 42 17 54 60 34
63 69 44 71 77 51 74 80 54 81 87 61 80 86 60 82 88 62 81 87 61
74 80 54 70 76 50 67 73 47 59 65 39 52 62 34 46 54 27 45 51 25
44 50 24 47 53 27 56 62 36 62 68 42 64 70 44 60 66 40 52 58 32
59 66 40 70 80 53 74 84 57 65 73 47 58 64 38 62 67 43 68 72 49
55 60 35 46 52 26 59 65 39 74 80 54 78 84 58 74 80 54 63 69 43
44 50 24 54 60 34 75 81 55 74 80 54 74 80 54 68 74 48 67 73 47
68 74 48 62 68 42 45 51 25 38 44 18 50 57 31 65 74 47 64 73 47
59 68 42 70 79 51 74 83 56 72 81 54 72 79 53 64 70 44 59 65 39
45 51 25 43 49 23 63 69 43 73 79 53 72 78 52 68 74 48 59 65 39
52 58 32 48 54 27 38 46 21 45 53 30 45 53 30 49 57 32 59 68 40
58 67 39 61 70 43 63 72 45 57 66 39 54 63 36 57 67 40 57 67 40
58 68 41 63 69 43 63 69 43 66 72 46 64 70 45 50 56 30 40 46 18
30 35 14 30 35 13 32 37 15 30 35 12 30 37 8 35 41 15 49 55 29
63 69 43 68 74 48 65 71 45 56 62 36 52 58 32 56 62 36 53 59 33
53 59 33 54 60 34 55 61 35 63 69 43 67 73 47 67 73 47 65 71 45
59 65 39 64 70 44 74 80 54 71 77 51 63 69 43 53 59 33 56 62 36
55 61 35 53 59 33 46 52 26 45 51 25 45 50 25 39 45 19 41 47 21
43 49 23 46 52 25 46 52 26 37 44 17 34 40 14 47 53 27 59 65 39
54 60 34 54 60 34 58 65 39 60 69 42 65 74 47 62 71 44 66 75 48
63 72 45 52 61 34 44 53 26 41 50 23 50 59 32 52 61 34 54 63 36
56 65 38 59 69 42 62 72 45 52 62 34 39 48 21 30 40 13 36 45 18
39 48 21 43 52 25 58 67 40 56 64 37 69 78 51 62 71 44 58 67 40
59 68 41 75 84 57 75 84 57 67 77 49 71 81 53 63 72 42 56 64 41
54 62 39 51 59 36 45 53 30 29 37 14 32 41 17 40 48 25 51 59 35
55 63 39 46 55 30 32 41 14 32 41 14 38 47 20 55 64 37 54 63 36
54 63 36 60 69 42 67 76 49 54 63 36 58 67 40 67 76 49 66 75 48
62 71 44 63 72 45 67 76 49 53 62 35 42 51 24 59 68 41 68 77 50
68 77 50 59 68 41 47 56 29 37 46 19 42 52 22 50 58 34 50 58 36
50 58 35 54 62 39 57 66 37 54 63 35 50 59 32 53 62 35 60 69 42
71 80 53 64 73 46 38 47 20 31 40 13 48 57 30 53 62 35 47 53 27
42 48 22 42 48 22 38 44 18 44 50 24 55 61 35 56 62 36 60 66 40
72 78 52 60 66 40 39 45 19 47 53 27 61 67 41 61 67 41 58 64 38
67 72 47 75 81 55 73 79 53 67 73 47 63 69 43 53 62 34 42 51 24
44 53 26 53 62 35 66 75 48 72 81 54 69 78 51 66 75 48 64 73 46
65 72 46 61 67 41 51 57 31 49 55 29 46 51 25 36 42 16 50 56 30
64 70 44 68 74 48 68 74 48 69 75 49 70 76 50 60 66 40 54 60 34
65 71 45 70 76 50 73 79 53 64 70 44 62 68 42 56 62 36 43 49 23
36 42 16 27 33 7 24 30 4 33 42 15 39 48 21 50 59 32 46 55 28 36 45 18
33 42 15 37 46 19 54 63 36 59 68 41 61 70 43 66 75 48 63 72 45
58 67 40 57 66 39 53 62 35 48 57 30 63 72 45 72 81 54 54 63 36
41 50 23 51 60 33 62 71 44 67 76 49 60 69 42 50 59 32 32 41 14
37 46 19 50 59 32 51 61 31 52 60 37 51 59 36 54 59 37 58 63 41
59 64 42 61 66 42 67 72 48 65 71 45 53 59 33 42 48 22 30 36 11
33 39 15 42 48 21 47 53 27 51 57 31 62 68 42 68 74 48 75 80 54
80 86 60 80 86 60 77 83 57 74 80 54 72 78 52 59 65 39 51 58 32
50 56 30 55 61 35 61 67 41 64 70 44 65 71 45 64 70 44 62 68 42
59 65 39 49 55 29 43 49 24 51 60 35 56 66 42 63 70 46 70 76 50
73 77 54 74 78 55 72 78 52 74 79 54 79 85 59 81 87 61 77 83 57
68 74 48 59 65 39 52 58 32 65 71 45 70 76 50 59 65 39 50 56 30
49 55 29 44 50 24 40 46 21 54 60 34 57 63 37 71 77 51 72 78 52
62 71 44 41 49 26 49 57 35 51 59 34 41 51 23 32 42 15 30 35 10
39 45 19 48 54 28 45 51 25 46 52 26 54 60 34 55 61 35 51 57 31
53 59 33 61 67 41 66 72 46 67 73 47 55 62 37 41 49 26 38 46 23
52 60 37 55 63 40 55 64 37 57 66 38 58 67 40 56 65 38 51 60 33
47 56 29 41 51 24 37 46 19 38 45 19 43 49 23 50 56 30 50 56 31
45 51 24 41 47 19 46 51 30 54 59 37 55 60 38 66 71 47 62 69 39
50 56 30 38 44 18 36 42 16 39 45 19 43 49 23 61 67 41 71 77 51
77 83 57 76 82 56 66 72 46 63 69 43 66 72 46 67 73 47 70 76 50
63 69 43 59 65 39 58 64 38 59 65 39 72 78 52 80 86 60 78 84 58
75 81 55 65 71 45 55 61 35 52 58 32 54 60 34 57 63 37 60 67 40
52 58 32 50 56 30 46 52 26 44 49 25 53 58 34 49 54 30 37 43 17
38 44 18 49 55 29 50 56 30 55 61 35 53 60 33 47 55 28 41 50 23
38 47 20 38 47 20 36 45 18 37 46 19 36 45 18 38 47 20 48 57 30
55 64 37 55 64 37 53 62 35 48 57 30 53 62 35 54 63 36 48 57 30
42 51 24 37 46 19 38 47 20 41 50 23 60 69 42 49 59 32 42 51 24
49 58 31 63 72 45 74 83 56 76 85 58 77 86 59 70 79 52 72 81 53
75 84 55 61 70 46 54 62 39 50 58 35 51 59 36 44 52 29 36 44 21
32 40 17 34 42 20 45 53 30 42 51 27 31 40 13 34 43 16 47 56 29
56 65 38 52 61 34 34 43 16 42 51 24 70 79 52 61 70 43 49 58 31
55 64 37 66 75 48 72 81 54 62 71 44 60 69 42 58 67 40 48 57 30
38 47 20 48 57 30 50 59 32 53 62 35 54 63 36 57 66 39 55 64 35
50 58 34 51 59 37 58 66 43 67 75 52 68 77 49 68 76 49 63 72 45
56 65 38 64 73 46 70 79 52 75 84 57 63 72 45 46 55 28 48 57 30
58 66 39 54 60 34 50 56 30 50 56 30 44 50 24 39 45 19 49 55 29
48 54 28 44 50 24 39 45 19 32 38 13 35 41 15 48 54 28 54 60 34
56 62 36 55 61 35 57 63 37 65 71 45 63 69 43 63 69 43 62 69 42
57 65 38 45 54 27 41 51 24 43 52 25 48 57 30 56 65 38 58 67 40
63 72 45 63 72 45 58 65 39 48 54 28 30 37 11 31 38 12 40 47 21
39 46 21 62 68 42 54 61 34 55 62 36 61 67 41 62 68 42 68 74 48
76 82 56 75 81 55 76 82 56 77 83 57 60 66 40 54 60 34 57 63 37
59 65 39 43 49 23 36 42 16 45 51 25 40 47 20 55 64 37 55 64 38
34 43 17 32 41 14 36 45 18 45 54 27 52 61 34 51 60 33 53 62 35
71 80 53 65 74 47 54 63 36 61 70 43 68 77 50 68 77 50 56 65 38
58 67 40 71 80 53 46 55 28 45 54 27 59 68 41 62 71 44 57 66 39
53 62 35 47 56 29 40 49 22 46 55 28 55 64 37 51 60 31 54 62 38
58 66 44 61 67 45 53 59 37 54 60 38 58 63 39 70 76 51 76 83 57
49 56 30 37 44 17 49 56 30 58 65 38 49 57 28 46 52 26 45 51 25
34 40 15 33 40 15 40 47 21 43 49 23 48 54 28 57 63 37 52 58 32
45 51 25 52 58 32 61 67 41 59 64 39 56 62 36 65 71 45 76 82 56
73 79 53 69 75 49 68 74 48 60 66 40 43 49 23 39 44 19 54 61 37
62 71 47 66 75 51 66 73 48 65 71 46 61 67 43 54 61 35 46 53 27
38 44 18 40 47 21 38 44 18 42 48 22 50 57 31 61 68 42 73 79 53
68 76 49 69 76 50 67 73 47 71 77 51 63 69 43 60 66 40 67 73 47
67 73 47 63 69 43 60 67 41 52 60 37 38 46 24 32 40 18 24 31 8
33 41 14 45 53 26 43 50 23 44 51 25 41 48 21 39 45 19 39 45 19
47 53 27 56 63 36 63 70 44 64 71 44 58 65 38 60 66 40 65 72 44
64 71 47 51 59 36 58 66 43 75 83 60 56 64 41 44 52 28 49 57 33
61 70 43 64 73 46 69 78 51 56 65 38 37 46 19 36 44 17 48 54 28
52 58 32 53 59 33 56 62 36 56 62 35 57 63 36 58 64 42 58 64 42
62 68 46 62 68 45 49 56 29 42 47 23 38 43 18 40 46 19 41 47 21
39 45 19 36 42 16 44 50 24 74 80 54 81 87 61 82 88 62 76 82 56
76 82 56 72 78 52 65 71 45 59 65 39 57 63 37 63 69 43 55 61 35
51 57 31 55 61 35 51 57 31 46 52 26 55 61 35 64 70 44 61 67 41
49 55 29 46 52 26 53 59 33 57 63 37 60 66 40 58 64 38 53 59 34
48 53 29 44 50 25 37 43 17 37 43 17 52 58 32 63 69 43 70 76 50
78 84 58 70 78 51 64 73 46 62 71 44 50 59 32 43 52 25 42 51 24
38 47 20 38 47 20 43 52 25 58 67 40 57 66 39 54 63 36 48 57 30
47 56 29 51 60 33 54 63 36 48 57 30 38 47 20 43 52 25 54 63 36
62 71 44 58 67 41 40 49 22 36 45 18 56 65 38 75 84 57 79 88 61
81 90 63 76 85 58 62 71 44 53 62 35 53 63 34 57 66 37 52 61 31
46 54 28 49 57 34 38 46 23 40 48 25 45 53 30 45 53 30 40 48 24
36 45 18 34 43 16 38 47 20 50 59 32 63 72 45 61 70 43 40 49 23
46 55 27 51 60 33 44 53 26 44 53 26 52 61 34 63 72 45 69 78 51
73 82 55 73 82 55 61 70 43 51 60 33 68 77 50 74 83 56 76 85 58
77 86 59 67 76 49 64 73 47 67 76 48 60 69 40 60 69 39 58 67 38
59 68 41 56 65 38 55 64 37 63 72 45 69 78 51 66 75 48 65 74 47
63 72 45 56 65 38 42 51 24 53 61 35 60 66 40 58 64 38 55 61 35
52 58 32 45 51 25 42 48 22 47 53 27 47 53 27 37 43 17 42 48 22
54 60 34 55 61 35 62 68 42 60 66 40 54 60 34 47 53 27 38 44 19
36 42 17 37 43 17 36 42 17 37 43 17 44 51 25 55 64 37 59 68 41
54 63 36 49 58 31 50 59 32 55 64 37 56 65 38 41 50 23 39 48 21
36 46 19 39 48 21 50 59 32 57 66 39 44 53 26 46 55 28 59 68 41
70 78 51 76 82 56 81 87 61 77 83 57 67 73 47 68 74 48 70 76 50
63 69 43 53 59 33 53 59 33 56 62 36 41 47 21 31 37 12 41 47 21
44 51 25 43 52 25 36 45 18 30 39 12 42 51 24 52 61 34 55 64 37
44 53 27 38 47 20 53 62 35 62 71 44 49 58 31 50 59 32 63 72 45
72 81 54 69 78 51 67 76 49 55 64 37 49 58 31 46 55 28 51 60 33
57 66 39 57 66 39 55 64 37 57 66 39 57 66 39 52 61 34 54 63 36
58 67 40 64 73 46 66 75 47 66 75 46 63 72 43 61 71 41 69 78 49
71 80 52 68 77 50 64 73 46 49 58 31 49 58 31 57 66 39 53 62 35
45 54 27 45 51 25 46 52 26 40 47 21 49 57 33 50 59 31 40 46 21
37 42 17 37 43 17 36 42 16 44 50 24 53 59 33 53 59 33 53 59 33
54 60 34 56 62 35 54 62 35 55 61 33 54 60 32 54 60 33 54 60 34
50 56 30 46 52 26 52 57 34 57 63 40 58 68 44 58 66 41 53 63 35
49 58 31 39 48 21 33 42 15 42 51 24 45 51 25 46 52 27 56 62 36
53 62 35 59 68 41 64 73 46 68 77 50 73 82 55 72 78 52 78 84 58
78 84 58 64 70 44 55 61 35 58 64 38 55 61 35 40 46 21 35 43 21
42 50 27 39 46 23 45 49 26 52 57 32 43 49 23 39 48 21 41 50 23
44 53 26 50 57 31 49 55 29 60 66 40 65 73 46 61 70 43 57 66 40
65 74 47 67 76 49 63 72 42 57 65 41 55 63 41 55 63 41 48 56 33
42 50 27 52 60 37 57 65 42 58 67 41 55 65 37 48 57 30 43 52 25
51 60 33 57 66 39 60 66 40 61 67 41 61 67 41 60 66 40 58 64 38
59 65 39 60 68 42 67 76 50 63 71 46 46 55 31 41 48 26 49 54 32
51 56 33 50 57 27 49 55 29 45 51 25 40 46 20 38 44 18 57 63 37
53 59 33 65 71 45 71 77 51 78 84 58 75 81 55 68 74 48 71 77 51
75 81 55 66 72 46 52 58 32 38 44 18 42 48 22 63 69 43 69 75 49
64 70 44 70 76 50 80 86 60 74 80 54 65 71 45 53 59 32 41 48 19
50 56 27 62 69 40 66 73 43 71 77 49 69 75 48 61 67 41 41 47 21
42 48 22 54 60 34 57 63 37 56 62 36 45 53 26 57 66 39 58 67 40
55 64 37 59 68 41 60 69 42 52 61 34 50 59 32 59 68 41 67 76 49
63 72 45 53 62 35 51 60 33 45 54 27 34 43 16 29 38 11 34 43 16
32 41 14 38 47 20 54 63 36 63 72 45 73 82 55 62 71 44 53 62 35
50 59 32 69 78 51 72 81 54 64 73 46 62 71 44 53 62 35 48 57 30
54 63 35 57 66 38 48 57 30 46 55 28 47 56 30 49 56 33 44 52 29
40 48 25 47 55 32 50 58 34 35 44 17 37 45 19 51 60 34 53 61 34
69 78 51 75 84 56 60 69 42 54 63 36 57 66 39 54 63 36 54 63 36
53 62 35 55 64 37 68 77 50 70 79 52 71 80 53 74 83 56 57 66 39
57 66 39 72 81 54 79 88 61 80 89 62 78 87 60 69 78 51 66 75 48
65 74 47 56 65 37 58 67 39 57 66 39 45 54 27 47 56 29 51 60 33
46 55 28 58 67 40 61 70 43 67 76 49 58 67 40 43 52 25 43 51 24
54 60 34 61 67 41 62 68 42 61 67 41 57 63 37 49 55 29 40 46 20
38 44 18 45 51 25 60 66 40 64 70 44 64 70 44 68 74 48 66 72 46
68 74 48 67 73 47 57 63 37 50 56 30 43 49 24 44 50 25 48 54 28
47 54 28 52 61 34 52 61 34 52 61 34 47 56 29 39 48 21 47 56 29
48 57 30 43 52 25 50 59 32 59 68 41 68 77 50 63 72 45 41 50 23
39 48 21 61 70 43 75 84 57 80 88 61 76 82 56 66 72 46 52 58 32
51 57 31 52 58 32 50 56 30 47 53 27 50 56 30 49 55 29 42 48 22
47 53 27 55 61 35 48 54 28 39 46 19 34 43 16 40 49 22 49 58 32
59 68 41 64 73 46 50 59 32 47 56 29 54 63 36 53 62 35 46 55 28
48 57 30 55 64 37 70 79 52 75 84 57 76 85 58 71 80 53 57 66 39
64 73 46 75 84 57 80 89 62 80 89 62 76 85 58 68 77 50 65 74 47
64 73 46 62 71 44 61 70 43 55 64 37 50 59 32 49 58 31 54 63 36
57 66 39 59 69 41 62 71 44 65 74 47 57 66 39 41 50 23 51 60 33
58 67 40 58 67 40 55 64 37 54 62 35 47 53 27 46 52 26 42 47 21
43 51 26 44 54 26 50 58 31 62 67 41 67 72 46 69 75 49 68 74 48
63 69 43 50 56 30 37 43 17 33 39 13 33 39 13 33 41 16 37 45 18
53 59 35 66 73 48 64 70 44 54 60 33 47 53 28 52 56 34 56 59 35
47 55 30 42 50 25 43 52 25 45 54 27 47 56 29 46 56 29 45 54 27
49 55 29 55 61 35 73 78 52 78 86 59 77 86 59 73 82 55 70 79 52
63 72 45 61 69 43 64 70 44 61 66 40 50 55 29 48 53 27 50 56 30
45 50 25 33 40 14 36 45 19 37 46 22 37 44 21 38 42 19 48 53 28
57 63 37 50 59 32 50 58 31 47 54 28 44 51 25 53 59 33 51 56 31
52 61 32 64 73 43 65 74 44 73 82 54 69 78 51 56 65 37 53 61 36
57 65 41 58 67 42 65 74 48 63 72 46 60 69 43 58 67 41 59 68 41
59 68 41 55 64 37 56 65 38 61 70 43 64 72 45 70 76 50 67 73 47
69 75 49 73 79 53 72 78 52 66 72 46 59 67 40 54 64 36 51 60 33
54 62 38 56 64 41 53 60 37 43 49 26 42 47 19 42 48 22 46 52 26
51 57 31 48 54 28 79 85 59 78 84 58 76 82 56 62 68 42 64 70 44
71 77 51 72 78 52 67 73 47 66 72 46 60 66 40 53 59 33 40 46 21
34 40 15 44 50 24 66 72 46 74 80 54 64 70 44 67 73 47 67 73 47
74 80 53 70 75 50 54 60 35 41 46 22 39 45 19 45 51 23 65 72 42
73 79 50 73 79 53 52 58 32 36 42 16 43 49 23 53 59 33 47 53 27
45 53 26 54 63 36 61 70 43 55 64 37 56 65 38 63 72 45 67 76 49
60 69 42 55 64 37 62 71 44 63 72 45 54 63 36 50 59 32 46 55 28
38 47 20 33 42 15 31 40 13 29 38 11 30 39 12 36 45 18 42 51 24
50 59 32 53 62 35 57 66 39 50 59 32 43 52 25 40 49 22 47 56 29
66 75 48 68 77 50 72 81 54 77 86 59 75 84 57 69 78 51 66 75 48
62 71 44 60 68 44 45 53 29 41 49 25 47 55 31 45 53 28 38 47 20
47 55 28 60 69 42 58 67 40 57 66 39 63 72 45 70 79 52 74 83 56
71 80 53 59 68 41 61 70 43 67 76 49 57 66 39 46 55 28 43 52 25
65 74 47 69 78 51 63 72 45 48 57 30 49 58 31 67 76 49 76 85 58
76 85 58 67 76 49 67 76 49 75 84 57 63 72 45 45 54 27 36 45 18
42 51 24 68 77 50 70 79 52 59 68 40 68 77 50 74 83 56 76 85 58
69 78 51 54 63 36 42 50 23 47 53 27 60 67 41 73 79 53 81 87 61
75 81 55 58 64 38 38 44 18 41 47 21 53 59 33 53 59 33 47 53 27
49 55 29 63 69 43 49 55 29 51 57 31 60 66 40 65 71 45 56 62 36
57 63 37 70 76 50 75 81 55 64 72 45 54 63 36 45 54 27 36 45 18
27 36 9 27 36 9 30 39 12 29 38 11 41 50 23 55 64 37 65 74 47 73 82 55
65 74 47 45 54 27 55 64 37 65 74 47 64 73 46 60 68 41 60 66 40
59 65 39 58 64 38 57 63 37 57 63 37 53 59 33 52 58 32 50 56 30
46 52 26 44 50 24 42 48 22 54 60 34 45 52 25 46 53 26 50 59 32
54 63 37 67 76 49 77 86 59 68 77 50 54 63 36 54 63 36 58 67 40
55 64 37 54 63 36 52 61 34 61 70 43 68 77 50 74 83 56 71 80 53
48 57 30 52 61 34 78 87 60 82 91 64 81 90 63 76 85 58 67 76 49
70 79 52 62 70 44 55 63 37 57 65 39 53 62 35 50 59 32 54 63 36
48 57 30 51 60 33 61 69 43 68 76 50 69 78 51 55 64 37 38 47 20
40 49 22 53 62 35 63 72 45 64 73 46 58 67 40 51 60 33 41 48 22
40 47 21 46 52 26 52 60 35 57 68 40 59 68 41 59 65 39 57 64 38
61 68 41 65 72 46 68 75 49 58 65 39 55 61 35 54 61 35 57 64 38
46 55 27 39 48 21 43 53 29 47 56 31 54 59 34 44 51 24 38 44 19
45 51 25 54 59 31 52 60 31 58 67 39 66 75 46 64 73 46 50 58 31
46 55 28 58 67 40 71 78 51 78 83 58 73 78 52 62 67 42 56 61 36
48 57 30 48 58 31 48 58 31 43 53 26 47 56 30 48 56 30 41 49 22
43 51 25 51 59 32 47 54 28 43 51 24 36 45 18 45 54 27 55 64 37
62 66 43 64 69 45 60 66 40 49 58 31 51 59 32 55 61 35 47 54 27
56 63 37 60 67 42 73 81 56 78 86 61 69 78 52 65 74 47 64 73 46
70 79 53 77 86 59 79 88 61 76 85 56 75 84 56 69 78 51 60 68 42
58 67 41 58 67 40 53 62 35 51 60 33 50 59 32 49 58 31 55 63 36
57 64 38 57 63 37 55 61 35 58 64 38 52 58 32 49 55 29 55 62 36
58 67 40 58 66 39 55 63 39 48 56 33 43 51 27 44 50 28 44 49 26
46 52 26 51 57 31 59 65 39 70 76 50 77 83 57 74 80 54 70 76 50
67 73 47 65 71 45 57 63 37 43 49 23 39 45 19 47 53 27 61 67 41
58 64 38 54 60 34 68 74 48 60 66 40 46 52 26 65 71 45 71 77 51
63 69 43 58 64 38 54 60 31 52 58 34 44 49 27 30 35 14 26 32 9 27 33 7
36 42 16 47 53 26 52 57 32 45 51 25 38 44 18 40 46 20 58 64 38
59 65 39 62 71 44 64 73 46 51 60 33 48 57 30 50 59 32 55 64 37
60 69 42 65 74 47 58 67 40 44 53 26 44 53 26 54 63 36 50 59 32
50 59 32 45 54 27 42 51 24 47 56 29 49 58 31 51 60 33 51 60 33
55 64 37 58 67 40 61 70 43 56 65 38 54 63 36 52 61 34 46 55 28
39 48 21 36 45 18 47 56 29 54 63 36 59 68 41 64 73 46 71 80 53
71 80 53 78 87 60 75 84 57 67 76 49 65 74 47 71 80 53 49 58 31
37 46 19 53 62 35 55 64 37 55 64 37 59 68 41 58 67 40 56 65 38
54 63 36 53 62 35 53 62 35 53 62 35 58 67 40 64 73 46 66 75 48
61 70 43 76 85 58 80 89 62 79 88 61 77 86 59 71 80 53 58 67 40
54 63 36 59 68 41 62 71 44 59 68 41 47 56 29 50 59 32 48 57 30
34 43 16 42 51 24 73 82 55 71 80 53 56 65 38 52 61 34 58 67 40
59 68 41 45 54 27 34 43 17 32 41 14 35 44 17 47 54 28 61 67 41
62 68 42 53 59 33 40 46 20 47 53 27 59 65 39 55 61 35 58 64 38
50 56 30 46 52 26 53 59 33 49 55 29 63 69 43 68 74 48 61 67 41
51 57 31 52 58 32 58 64 38 50 56 30 42 49 23 35 44 17 42 51 24
45 54 27 38 47 20 36 45 18 38 47 20 45 54 27 50 59 32 53 62 35
52 61 34 47 56 29 46 55 28 40 49 22 37 46 19 51 60 33 61 70 43
66 74 48 76 82 56 81 86 61 82 88 62 80 86 60 74 80 54 66 72 46
63 69 43 57 63 37 50 56 30 47 53 27 44 50 24 46 52 26 54 60 34
58 65 38 55 65 38 55 64 37 55 64 37 62 72 45 73 82 55 67 76 49
55 64 37 62 71 44 64 73 46 51 60 33 49 58 31 63 72 45 73 82 55
74 83 56 69 78 51 50 59 32 50 59 32 69 78 51 70 79 52 68 77 50
60 69 42 62 71 44 62 70 43 51 55 32 31 39 15 43 52 29 64 72 47
66 75 48 59 68 41 66 75 48 75 80 55 74 80 54 67 74 47 55 64 37
46 55 28 42 51 24 56 65 38 68 77 50 69 78 51 63 72 45 50 59 32
42 51 24 42 51 24 46 55 28 48 57 30 47 57 29 58 67 40 58 67 40
56 65 38 59 68 41 60 69 42 54 63 36 53 62 35 55 64 37 60 66 40
59 67 40 59 68 41 56 65 38 46 55 28 32 40 17 27 34 10 28 34 8
33 39 14 37 43 17 39 45 19 50 55 30 57 64 38 60 69 42 56 65 38
49 57 31 55 62 35 60 66 40 65 71 45 68 75 49 69 73 48 72 78 52
65 71 45 56 63 37 54 63 36 54 64 36 48 58 31 44 53 26 46 56 29
41 50 23 41 50 23 45 55 28 46 56 29 50 59 32 50 60 33 58 67 40
77 86 59 79 87 61 69 73 50 55 59 35 58 65 38 59 68 41 53 62 35
49 58 31 55 64 34 61 70 45 64 72 49 61 69 46 50 58 35 52 60 38
66 74 49 78 87 60 79 88 61 75 84 57 71 80 53 65 74 47 51 60 33
47 56 28 50 58 33 55 63 38 56 65 38 64 73 46 60 70 42 62 71 42
69 77 49 67 76 49 62 71 44 52 61 34 46 54 27 49 56 29 60 66 40
69 75 49 66 71 46 57 63 37 48 54 28 44 51 28 40 48 24 47 56 29
50 59 34 53 61 39 58 64 38 56 62 35 56 62 36 58 64 38 52 58 32
53 59 33 56 62 36 61 67 41 60 66 40 55 61 35 41 47 21 32 38 12
37 43 17 41 47 21 52 58 32 62 68 42 61 67 41 60 66 40 57 63 37
63 69 43 77 83 57 74 80 54 66 72 46 70 76 47 62 67 44 54 59 37
52 57 35 47 52 30 33 38 13 36 42 17 45 52 24 52 58 32 50 56 31
38 44 18 31 37 12 40 46 20 55 61 35 53 61 34 49 58 31 56 65 38
68 77 50 57 66 39 56 65 38 62 71 44 69 78 51 66 75 48 61 70 43
55 64 37 46 55 28 56 65 38 63 72 45 56 65 38 44 53 26 41 50 23
47 56 29 47 56 29 51 60 33 52 61 34 55 64 37 57 66 39 56 65 38
53 62 35 56 65 38 62 71 44 61 70 43 49 58 31 37 46 19 48 57 30
52 61 34 44 53 26 42 51 24 39 48 21 37 46 20 47 56 29 51 60 33
51 60 33 54 63 36 40 49 22 34 43 16 56 65 38 58 67 40 52 61 34
59 68 41 67 76 49 69 78 51 61 70 43 62 71 44 56 65 38 48 57 30
45 54 27 57 66 39 68 77 50 66 75 48 61 70 43 61 70 43 59 68 41
53 62 35 42 51 24 37 46 19 35 44 17 37 46 20 58 67 40 55 64 37
66 75 48 68 77 50 58 67 40 55 64 37 65 74 47 68 77 50 66 75 48
58 67 40 55 64 37 53 62 35 43 52 25 32 41 14 25 34 7 26 35 8 42 51 24
50 58 31 46 53 27 37 43 17 34 39 13 40 46 20 54 60 34 57 63 37
62 68 42 66 72 46 58 64 38 55 61 35 57 63 37 57 63 37 61 67 41
68 74 48 54 60 34 39 45 19 58 64 38 68 74 48 68 73 47 58 66 39
37 46 19 37 46 19 49 58 31 52 61 34 51 60 33 51 60 33 57 66 39
54 63 36 56 65 38 58 67 40 58 67 40 55 64 37 39 48 21 28 37 11
40 49 22 46 55 28 48 57 29 51 59 31 53 59 32 59 65 39 70 76 50
73 79 53 69 75 49 76 82 56 67 73 47 46 52 26 44 50 24 52 58 32
58 64 38 63 69 43 69 76 50 67 74 47 58 66 39 56 64 37 45 53 26
45 54 26 54 64 35 62 71 42 71 80 52 72 81 54 69 78 51 71 80 53
71 80 53 69 78 51 69 78 51 67 76 49 51 60 33 45 54 27 59 68 41
64 73 46 58 67 40 55 64 37 53 62 35 42 51 24 42 50 26 57 66 42
69 77 54 65 74 48 56 65 38 44 53 26 43 51 26 40 47 23 30 38 14
27 35 9 28 37 9 44 53 26 47 56 29 42 51 24 45 54 27 45 54 27 45 54 27
54 63 36 60 69 42 62 71 44 58 67 40 47 56 29 41 50 23 52 60 33
59 68 41 59 68 41 52 61 34 51 60 33 54 63 36 56 65 38 48 57 30
40 48 21 28 37 10 42 51 23 49 58 32 48 57 32 41 49 26 46 53 29
55 61 35 56 62 36 61 67 41 61 67 41 51 57 31 44 51 24 34 43 15
31 41 13 42 51 23 57 63 37 69 75 49 77 83 57 74 83 54 79 87 58
83 90 61 76 82 55 70 76 50 68 75 48 62 67 41 52 57 31 47 51 25
51 56 31 49 55 31 53 62 35 57 65 38 58 64 38 57 63 37 50 57 32
52 60 35 63 72 44 63 72 43 59 66 40 63 69 43 68 74 48 61 70 43
62 71 44 72 81 54 81 90 61 80 89 64 73 81 58 49 57 34 49 57 34
63 71 46 59 68 41 52 61 34 51 60 33 51 60 32 50 59 30 46 55 28
51 60 33 60 69 41 63 71 45 54 63 36 59 68 41 64 73 46 58 66 42
52 60 37 49 57 33 49 58 31 45 54 27 46 55 28 64 72 45 62 69 42
56 61 35 59 65 39 57 63 37 53 59 33 51 57 30 42 50 26 39 47 24
49 58 31 57 66 40 64 72 47 64 70 44 61 67 41 53 59 33 50 56 30
45 51 25 52 58 32 59 65 39 55 61 35 49 55 29 52 58 32 52 58 32
48 54 28 43 49 22 37 43 17 48 54 28 60 66 40 50 56 30 45 51 25
48 54 28 64 70 44 73 79 53 78 84 58 72 78 52 72 78 49 68 73 49
54 58 37 53 58 37 55 59 37 55 59 36 46 51 29 34 40 16 38 44 18
46 52 26 42 48 22 33 39 13 40 46 20 48 54 28 51 59 32 49 58 31
46 55 28 51 60 33 54 63 36 51 60 33 53 62 35 56 65 38 63 72 45
62 71 44 63 72 45 59 68 41 42 51 24 44 53 26 53 62 35 59 68 41
62 71 44 58 67 40 52 61 34 54 63 36 55 64 37 60 69 42 63 72 45
64 73 46 59 68 41 54 63 36 64 73 46 70 79 52 73 82 55 54 63 36
47 56 29 48 57 30 49 58 31 49 58 31 51 60 33 43 52 25 40 49 22
44 53 26 44 53 26 41 50 23 35 44 17 32 41 14 46 55 28 47 56 29
48 57 30 46 55 28 46 55 28 51 60 33 49 58 31 52 61 34 52 61 34
45 54 27 42 51 24 47 56 29 47 56 29 50 59 32 51 60 33 56 65 38
58 67 40 47 56 29 36 45 18 30 39 12 41 50 23 42 51 24 54 63 36
44 53 26 55 64 37 55 64 37 59 68 41 73 82 55 77 86 59 67 76 49
72 81 54 62 71 44 54 63 36 51 60 33 52 61 34 36 45 19 30 39 12
36 45 18 49 58 31 51 60 33 36 44 17 33 40 14 41 47 21 51 58 31
53 60 33 47 53 27 58 64 38 70 77 51 55 61 35 53 60 34 67 73 47
72 78 52 61 67 41 58 64 38 64 70 44 42 48 22 52 58 32 58 65 39
58 64 38 53 60 34 49 58 31 42 51 24 47 56 29 55 64 37 57 66 39
59 68 41 61 70 43 55 64 37 51 60 33 58 67 40 67 76 49 71 80 53
45 54 27 36 45 19 52 61 34 53 62 34 46 54 28 43 52 25 40 46 22
35 40 17 45 50 24 45 51 25 46 52 26 50 56 30 39 45 19 44 50 24
55 61 35 53 59 33 52 58 32 62 68 42 69 75 49 65 71 45 63 69 43
62 68 42 52 58 32 41 48 22 44 52 26 55 63 37 62 71 44 61 71 44
60 69 42 57 66 39 48 57 30 35 44 17 35 44 17 37 46 19 37 46 19
47 56 29 54 62 36 63 72 45 61 70 43 68 77 50 66 75 48 67 76 49
64 73 48 63 71 47 57 65 42 52 60 34 55 64 37 44 53 27 33 41 17
31 39 16 28 36 14 45 53 29 46 55 28 39 48 22 38 47 21 37 46 19
42 51 25 47 56 29 53 62 36 64 72 46 57 65 39 52 61 34 57 66 39
62 71 44 57 65 39 56 65 38 74 83 56 49 58 31 41 50 23 54 63 36
62 71 44 64 73 46 57 66 38 39 48 22 35 43 20 49 57 33 50 58 35
52 60 37 54 62 39 51 59 35 52 59 33 56 62 36 63 69 43 65 71 45
50 56 30 39 45 19 39 47 23 45 53 29 43 51 27 41 47 22 39 45 20
45 51 25 52 61 34 61 69 43 67 72 48 66 72 46 63 69 43 57 62 36
50 57 32 49 56 32 50 57 33 63 68 45 71 74 52 67 76 49 63 71 45
58 64 38 52 58 32 43 49 24 47 55 33 58 67 41 67 76 49 68 77 50
68 75 49 68 74 48 63 72 45 59 68 41 57 66 39 53 62 35 48 57 31
48 56 34 55 63 41 61 69 46 60 68 43 56 65 38 56 65 38 50 59 32
45 54 28 58 67 40 64 73 47 66 75 48 58 67 40 47 56 28 36 45 19
37 46 19 34 42 15 30 38 15 29 37 15 37 45 22 44 53 27 40 49 22
38 47 20 47 56 29 51 58 31 55 61 35 61 67 41 64 70 44 64 70 44
58 65 38 47 55 31 58 66 43 59 68 41 49 59 31 48 57 30 55 61 35
60 66 40 57 63 37 42 48 22 43 49 23 47 53 27 57 63 37 52 58 32
49 55 29 47 53 27 46 52 26 41 47 21 39 45 19 37 43 17 42 48 22
50 56 30 60 66 40 59 65 39 50 56 30 49 55 29 61 67 41 72 78 52
70 76 50 61 67 41 51 57 30 46 52 25 48 54 27 49 55 28 45 51 25
45 51 25 47 52 27 46 52 26 44 50 24 43 49 23 47 53 27 40 46 20
36 42 16 47 53 27 55 62 35 61 70 43 47 56 29 45 54 27 49 58 31
46 55 28 44 53 26 47 56 29 54 63 36 63 72 45 67 76 49 64 73 46
58 67 40 55 64 37 65 74 47 69 78 51 69 78 51 66 75 48 62 71 44
58 67 40 54 63 36 51 60 33 54 63 36 50 59 32 46 55 28 50 59 32
50 59 32 49 58 31 54 63 36 57 66 39 49 58 31 42 51 24 48 57 30
48 57 30 51 60 33 50 59 32 45 54 27 41 50 23 43 52 25 35 44 17
44 53 26 52 61 34 59 68 41 62 71 44 58 67 40 55 64 37 51 60 33
39 48 21 35 44 18 35 44 17 36 45 18 43 52 25 51 60 33 53 62 35
49 58 31 42 51 24 43 52 25 46 55 28 43 52 25 41 50 23 43 52 25
48 57 30 56 65 38 48 57 30 37 46 19 46 55 28 64 73 46 73 82 55
69 78 51 65 74 47 53 62 35 52 61 34 52 61 34 49 58 31 44 53 26
47 56 29 43 52 25 39 48 21 41 50 23 42 51 24 39 48 21 32 41 14
35 44 17 43 52 25 53 62 35 52 61 34 40 49 22 45 54 27 50 58 31
45 54 27 44 53 26 53 62 35 65 74 47 65 74 47 63 72 45 49 58 31
48 57 30 61 69 42 63 72 45 65 74 47 60 68 42 58 67 40 56 65 38
53 62 35 51 60 33 54 63 36 53 62 35 51 60 33 52 61 34 55 64 37
60 69 42 61 70 43 58 67 40 49 58 31 41 50 23 49 58 31 50 59 29
49 57 32 48 56 33 43 49 27 42 46 25 45 52 24 45 51 24 41 47 21
40 46 20 51 57 31 57 63 37 54 60 34 49 55 29 44 50 24 37 43 17
37 43 17 39 45 19 41 47 21 41 47 21 51 57 28 53 58 36 49 54 32
45 52 30 45 53 30 48 58 32 47 57 32 41 50 25 38 47 20 37 46 19
44 53 26 44 53 26 44 53 26 46 55 28 53 62 37 61 70 42 62 71 44
65 74 47 62 71 44 59 68 41 64 73 46 56 65 38 47 56 29 48 57 30
48 56 30 32 40 17 29 37 14 38 46 23 42 50 27 39 47 24 33 41 18
36 44 21 47 55 31 47 55 31 39 47 24 43 53 29 54 63 39 54 58 35
50 55 31 55 64 37 62 71 44 62 71 44 53 61 38 46 54 31 48 57 27
45 54 26 54 63 36 56 65 38 51 60 33 50 59 31 49 58 31 46 54 29
48 56 33 56 64 42 58 66 43 56 64 41 54 62 39 54 63 39 59 67 43
63 68 43 61 67 41 56 62 36 43 49 23 46 53 27 50 58 35 47 55 32
40 48 26 39 47 24 39 47 24 42 50 27 39 47 25 32 40 18 35 44 21
40 46 21 40 46 20 49 55 28 48 56 32 46 54 31 46 55 32 51 57 33
53 57 34 50 58 32 50 58 31 49 55 29 47 52 26 44 50 25 46 54 31
51 59 37 54 61 39 51 59 34 46 55 27 38 47 20 35 44 17 38 47 20
37 46 19 40 49 22 46 55 28 50 59 31 57 66 38 59 68 40 61 70 43
62 71 44 66 75 48 61 69 44 50 58 36 49 57 35 49 57 33 39 48 21
36 45 18 41 50 22 39 47 23 41 46 20 43 49 23 40 45 23 41 49 27
41 50 24 43 52 25 47 56 29 51 60 33 54 63 36 56 62 36 58 63 37
59 65 39 59 67 41 52 62 34 49 58 31 48 57 32 51 59 34 48 57 30
51 60 33 51 60 33 50 59 32 50 59 32 46 55 28 46 55 28 59 65 39
55 61 35 53 59 33 57 63 37 54 60 34 55 61 35 46 52 26 40 46 20
30 36 10 31 37 11 30 36 10 33 39 13 41 47 21 48 54 29 50 56 30
53 59 33 49 55 29 48 54 28 42 48 22 42 48 22 58 64 37 59 65 38
62 69 41 66 72 45 63 69 43 60 66 40 57 63 37 55 61 35 49 55 29
43 49 23 48 54 28 44 50 24 36 42 16 49 55 29 56 62 36 55 62 36
61 69 42 61 69 42 63 70 44 57 66 39 51 60 33 56 65 38 57 66 39
49 58 31 42 51 24 49 58 31 60 69 42 52 61 34 48 57 30 51 60 33
62 71 44 68 77 50 67 76 49 60 69 42 62 71 44 60 69 42 53 62 35
41 50 23 34 43 16 51 60 33 62 71 44 56 65 38 64 73 46 67 76 49
64 73 46 54 63 36 40 49 22 41 50 23 50 59 32 59 68 41 65 74 47
58 67 40 47 56 29 36 45 18 44 53 26 50 59 32 47 56 29 45 54 27
52 61 34 49 58 31 47 56 29 53 62 35 55 64 37 47 56 29 49 58 31
60 69 42 58 67 40 49 58 31 46 55 28 41 50 23 30 39 12 28 37 10
30 39 12 31 40 13 45 54 27 55 64 37 63 72 45 58 67 40 48 57 30
51 60 33 63 72 45 60 69 42 55 64 37 53 62 35 51 60 33 50 59 32
48 57 30 44 53 26 46 55 28 47 56 29 45 54 27 42 51 24 42 51 24
46 55 28 40 49 22 43 52 25 49 58 31 53 62 35 65 74 47 63 72 45
53 62 35 49 58 31 48 57 30 51 61 34 49 58 31 49 58 31 56 65 38
63 72 45 67 76 49 54 63 36 47 56 29 66 75 48 72 81 54 71 80 53
66 75 48 58 67 40 59 68 41 50 59 32 51 60 33 50 59 32 42 51 24
44 53 26 46 55 28 49 58 31 56 65 38 61 70 43 57 66 39 43 52 25
36 45 18 47 56 29 53 62 32 52 61 36 51 59 36 48 54 31 39 44 23
39 45 18 44 50 23 54 60 34 58 64 38 57 63 37 57 63 37 60 66 40
62 68 42 60 66 40 48 54 28 44 50 24 44 50 24 47 53 27 42 47 21
47 53 24 50 55 33 51 56 34 41 48 25 40 46 23 43 47 24 45 49 26
51 57 33 54 63 36 60 69 42 51 60 33 39 48 21 46 55 28 62 71 44
68 77 51 66 75 48 58 67 40 46 55 28 46 55 28 47 56 29 45 54 27
46 55 28 48 57 30 42 51 24 43 52 25 45 53 28 43 51 28 37 45 22
35 43 20 43 51 28 49 57 34 56 64 41 52 60 37 40 48 25 46 54 31
47 55 32 44 51 28 48 52 29 58 64 41 69 78 52 65 74 47 61 70 43
49 57 34 59 67 44 68 77 50 70 79 52 67 76 49 62 71 44 59 68 41
55 64 37 52 61 36 50 58 36 49 57 34 47 55 32 45 53 29 48 56 34
51 59 36 50 60 36 54 62 38 56 61 36 46 52 26 50 55 30 53 59 33
53 59 33 51 59 36 46 54 32 38 46 23 38 46 23 40 48 25 41 49 26
47 55 32 55 63 40 59 67 44 66 73 47 61 67 41 49 55 29 36 43 20
26 34 11 29 37 15 34 40 17 43 47 23 49 58 31 60 68 42 51 56 30
45 51 25 46 52 27 47 56 33 44 52 29 41 49 26 43 51 25 45 55 27
44 53 27 42 51 24 43 52 25 49 58 31 59 68 41 66 75 47 67 76 47
63 72 44 58 67 39 54 63 36 54 63 36 53 62 34 48 56 30 43 51 29
44 52 29 39 48 24 33 42 15 36 45 18 37 46 19 34 42 18 44 49 23
51 56 30 47 53 30 46 54 30 46 55 28 43 52 25 47 56 29 46 55 28
55 64 37 63 70 44 67 73 47 63 69 43 52 60 33 53 62 35 53 62 35
58 67 39 60 69 41 55 64 37 52 61 34 54 63 36 52 61 34 49 58 31
48 57 30 52 61 34 56 62 36 58 64 38 56 62 36 46 52 26 43 49 23
50 56 30 50 56 30 48 54 28 50 56 30 47 53 27 45 51 25 47 53 27
47 53 27 49 55 29 51 57 31 55 61 35 52 58 32 48 54 28 46 52 26
47 53 27 44 50 24 42 48 22 49 55 29 55 61 35 57 63 37 61 67 41
65 71 45 66 72 46 63 69 43 61 67 41 62 68 42 59 65 39 42 48 22
44 50 24 54 60 34 55 60 34 55 61 35 57 63 37 59 64 39 57 64 38
51 60 33 47 56 29 50 59 32 51 60 33 54 63 37 55 64 37 64 73 46
68 77 50 66 75 48 61 70 43 56 65 38 55 64 37 52 61 34 53 62 35
57 66 39 51 60 33 45 54 27 45 54 27 37 46 19 45 54 27 66 75 48
59 68 41 51 60 33 52 61 34 56 65 38 49 58 31 35 44 17 32 41 15
36 45 18 43 52 25 56 65 38 53 62 35 43 52 25 36 45 18 51 60 33
54 63 36 49 58 31 49 58 31 49 58 31 49 58 31 48 57 30 56 65 38
60 69 42 51 60 33 45 54 27 50 59 32 50 59 32 45 54 27 40 49 22
38 47 20 39 48 21 36 45 18 36 45 18 39 48 21 43 52 25 49 58 31
49 58 31 51 60 33 47 56 29 40 49 22 37 46 20 46 55 28 56 65 38
61 70 43 66 75 48 67 76 49 66 75 48 63 72 45 61 70 43 56 65 38
50 59 32 50 59 32 44 53 26 39 48 21 44 53 26 54 63 36 54 63 36
53 62 35 55 64 37 57 66 39 62 71 44 57 66 39 49 58 31 54 63 36
55 64 37 46 55 28 50 59 32 62 71 44 66 75 48 63 72 45 52 61 34
51 60 33 63 72 45 64 73 46 60 69 42 54 63 36 59 68 41 53 62 35
37 46 19 38 47 20 57 66 39 62 71 44 55 64 37 59 68 41 64 73 46
62 71 44 55 64 37 42 51 24 36 45 18 47 56 29 57 66 36 62 71 46
58 66 43 47 53 31 43 48 27 46 52 25 49 56 28 45 51 25 49 55 29
56 62 36 49 55 29 54 60 34 57 64 38 54 60 34 49 55 29 49 55 29
56 62 36 57 63 37 53 59 33 49 55 26 38 43 20 29 34 13 31 36 15
32 37 15 34 38 15 46 50 26 52 58 34 55 64 37 54 63 36 44 53 26
47 56 29 53 62 35 58 67 40 61 70 43 62 71 44 62 71 44 58 67 40
53 62 35 49 58 31 47 56 29 47 56 29 49 58 31 42 51 24 39 48 21
43 52 25 44 52 29 47 55 32 48 56 33 57 65 42 67 75 52 63 71 48
49 57 34 47 55 32 52 60 37 46 54 31 44 54 28 50 60 32 59 68 42
63 72 45 55 64 37 45 54 27 56 65 38 69 78 52 70 79 50 66 75 47
62 71 44 60 69 42 49 58 31 41 50 22 49 57 31 51 59 36 55 64 36
52 61 34 51 59 32 60 68 43 61 69 46 54 63 39 43 51 26 41 46 21
49 55 29 61 67 41 62 68 42 56 62 36 44 53 26 39 47 24 40 48 25
41 49 26 47 55 32 50 58 35 50 59 33 48 57 30 50 59 32 55 61 35
58 64 38 53 60 34 53 60 34 55 64 38 56 65 38 45 52 27 41 45 22
36 44 17 37 45 18 36 42 16 36 42 16 42 49 24 49 57 34 55 63 39
59 66 44 54 62 38 49 58 30 48 57 31 53 62 35 59 68 41 64 73 46
58 67 40 51 60 33 46 55 28 46 55 28 46 55 28 42 51 24 44 53 26
43 52 24 40 48 21 43 51 28 44 52 29 44 52 28 43 52 24 51 60 33
57 66 38 55 63 39 55 61 35 52 58 32 48 54 31 47 56 31 49 58 30
49 58 31 51 60 33 60 69 42 65 74 47 60 67 40 60 66 40 65 71 45
68 76 49 70 80 52 69 78 51 62 71 44 57 66 39 51 60 33 53 61 35
53 61 35 51 60 33 49 59 32 50 59 32 54 63 36 55 61 35 55 61 35
60 66 40 61 67 41 60 66 40 53 59 33 49 55 29 51 57 31 54 60 34
48 54 28 47 53 27 49 55 29 48 54 28 49 55 29 51 57 31 53 59 33
56 62 36 58 64 38 57 63 37 55 61 35 60 66 40 57 63 37 50 56 30
48 54 28 50 56 30 46 52 26 43 49 23 44 50 24 45 51 25 46 52 26
46 52 26 51 57 31 45 51 25 38 44 18 46 52 26 54 60 34 52 58 32
55 61 35 58 64 38 57 65 38 52 61 34 51 60 33 47 56 29 42 51 24
46 55 28 55 64 37 55 64 37 56 65 38 56 65 38 55 64 37 46 55 28
38 47 20 34 43 16 36 45 18 49 58 31 50 59 32 55 64 37 59 68 41
52 61 34 55 64 37 66 75 48 63 72 45 59 68 41 53 62 35 48 57 30
41 50 23 38 47 20 29 38 11 29 38 11 38 47 20 46 55 28 43 52 25
33 42 15 36 45 18 48 57 30 51 60 33 51 60 33 57 66 39 53 62 35
50 59 32 55 64 37 55 64 37 56 65 38 55 64 37 46 55 28 44 53 26
54 63 36 57 66 39 52 61 34 38 47 20 39 48 21 44 53 26 48 57 30
48 57 30 52 61 34 53 62 35 52 61 34 48 57 30 51 60 33 54 63 36
44 53 26 31 40 13 42 51 24 46 55 28 44 53 26 43 52 25 46 55 28
50 59 32 54 63 36 56 65 38 61 70 43 55 64 37 37 46 19 49 58 31
54 63 36 52 61 34 57 66 39 61 70 43 57 66 39 52 61 34 47 56 29
46 55 28 44 53 26 53 62 35 62 71 44 60 69 42 62 71 44 62 71 44
59 68 41 56 65 38 51 60 33 40 49 22 39 48 21 53 62 35 56 65 38
53 62 35 53 62 35 52 61 34 47 56 29 56 65 38 60 69 42 57 66 39
50 59 32 48 57 30 41 50 23 34 43 16 26 35 8 32 41 14 39 48 21
47 56 29 42 51 24 38 47 20 38 47 20 47 55 28 54 62 36 57 66 39
58 66 39 49 57 31 47 55 29 49 57 30 53 61 34 61 70 43 51 60 33
44 53 26 50 59 32 54 63 36 51 59 32 37 45 19 32 41 14 46 54 27
47 55 28 43 51 24 44 52 26 50 58 32 53 62 35 54 62 35 55 63 37
48 57 30 38 47 20 30 38 12 36 45 21 47 55 32 51 60 36 60 69 42
60 69 42 65 74 47 70 79 52 66 75 48 63 72 45 55 64 37 49 58 31
43 52 25 47 56 29 51 60 32 57 65 39 56 64 41 56 64 41 52 60 37
44 52 29 49 57 34 54 62 39 53 61 38 58 66 43 59 67 44 52 60 37
58 67 42 66 76 47 67 76 48 63 72 45 51 60 33 45 54 27 58 67 40
59 68 40 50 59 31 49 58 31 46 55 28 43 52 25 43 51 24 55 63 38
58 67 40 52 60 36 45 54 26 50 59 32 49 58 30 41 49 25 37 45 22
43 51 28 45 53 28 47 56 29 52 60 34 49 58 31 46 55 28 50 59 32
53 62 35 51 60 33 44 52 26 40 48 24 48 56 33 49 57 35 54 63 36
54 64 34 51 60 33 48 56 30 46 55 28 45 53 26 41 50 23 44 53 26
49 58 30 45 54 26 35 43 19 36 43 20 40 48 25 43 51 28 49 57 34
43 51 28 41 49 26 40 48 25 38 46 23 42 50 28 53 62 36 64 73 46
67 76 49 66 75 48 69 78 51 67 76 49 60 69 42 58 67 40 51 60 33
47 56 29 43 52 25 45 54 27 45 54 26 48 57 29 50 58 34 49 57 34
47 55 30 51 59 33 62 70 44 62 71 43 56 65 38 58 64 38 59 64 40
54 58 36 57 65 40 60 69 41 65 74 47 58 64 38 50 56 30 53 60 33
58 66 36 58 67 40 58 67 39 57 64 38 58 64 38 54 60 34 46 52 26
49 55 29 56 62 35 55 61 35 58 65 39 61 67 41 55 63 37 53 62 35
54 63 36 46 52 26 48 54 28 48 54 28 53 59 33 58 64 38 61 67 41
64 70 44 59 65 39 52 58 32 53 59 33 66 72 46 68 74 48 65 71 45
59 65 39 59 65 39 56 62 36 57 63 37 57 63 37 54 60 34 52 58 32
58 64 38 65 71 45 63 69 43 55 61 35 55 61 35 51 57 31 48 54 28
50 56 30 49 55 29 46 52 26 42 48 22 43 49 23 45 51 25 39 45 19
38 44 18 47 53 27 49 55 29 53 59 33 50 56 30 48 56 29 45 54 27
38 47 21 39 48 20 35 44 17 40 49 22 46 55 28 50 59 32 49 58 31
48 57 30 49 58 31 48 57 30 41 50 23 37 46 18 35 44 17 45 54 27
51 60 33 39 48 21 44 53 26 54 63 36 62 71 44 69 78 51 64 73 46
61 70 43 59 68 41 51 60 33 47 56 29 47 56 29 38 47 20 33 42 15
39 48 21 44 53 26 40 49 22 33 42 15 37 46 19 48 57 30 48 57 30
43 52 25 48 57 30 54 63 36 46 55 28 48 57 30 63 72 45 62 71 44
56 65 38 57 66 39 45 54 27 44 53 26 51 60 33 51 60 33 53 62 35
50 59 32 46 55 28 48 57 30 50 59 32 55 64 37 57 66 39 55 64 37
50 59 32 58 67 40 64 73 46 62 71 44 49 58 31 43 52 25 51 60 33
47 56 29 43 52 25 42 51 24 38 47 20 43 52 25 43 52 25 39 48 21
34 43 16 38 47 20 53 62 35 49 58 31 46 55 28 47 56 29 52 61 34
49 58 32 50 59 32 49 58 31 41 50 23 41 50 23 45 54 27 46 55 28
50 59 32 56 65 38 56 65 38 47 56 29 35 44 17 31 40 13 34 43 16
39 48 21 45 54 27 52 61 34 58 67 40 57 66 39 63 72 45 69 78 51
62 71 44 60 69 42 51 60 33 49 58 31 49 58 31 40 49 22 31 40 13
35 44 17 43 52 25 48 57 30 36 45 18 35 44 17 37 46 19 45 54 26
44 53 24 51 61 32 60 69 42 50 59 32 51 61 34 59 68 41 58 67 40
50 59 32 54 63 36 43 52 25 42 51 24 52 61 34 56 65 38 54 63 36
47 56 29 37 47 20 46 55 28 49 58 30 50 59 31 55 64 35 52 61 33
51 60 33 51 60 33 62 71 44 62 71 44 38 47 20 40 48 22 48 56 33
42 50 27 43 51 28 37 46 19 34 43 16 41 50 23 43 52 26 45 54 27
48 57 30 40 49 22 44 53 26 50 59 32 51 60 33 55 64 37 62 71 45
58 66 43 56 64 41 49 57 34 39 47 24 39 47 24 46 54 31 55 63 40
63 71 48 59 67 44 55 63 40 47 55 30 39 48 21 41 50 23 38 47 20
43 52 25 50 59 32 56 65 38 55 64 37 63 72 45 62 71 44 59 68 41
56 65 38 56 65 37 58 66 42 50 58 35 44 52 30 35 43 17 32 41 14
28 37 10 36 44 19 34 42 19 41 49 26 41 50 22 37 47 19 41 50 23
50 59 32 54 63 36 52 61 34 54 63 36 52 61 34 54 62 36 48 56 33
56 64 41 57 65 42 42 50 25 47 56 27 56 65 38 59 68 41 52 61 34
36 45 18 36 45 18 46 55 28 48 57 30 50 59 31 49 57 32 47 55 32
50 58 35 56 64 41 55 63 41 44 52 29 38 46 23 35 43 20 36 44 21
36 44 21 38 46 22 46 55 29 55 64 37 61 70 43 66 75 48 61 70 43
57 66 39 55 64 37 46 55 28 46 55 28 55 64 37 60 69 42 59 68 41
56 65 39 53 60 38 44 52 30 41 49 27 48 56 33 53 62 34 58 67 40
62 71 44 63 70 44 59 64 40 61 66 42 60 70 40 58 67 38 55 64 36
55 61 35 55 61 35 59 65 39 55 63 36 49 57 34 46 54 31 47 54 28
54 59 33 58 64 38 61 66 40 49 55 29 40 46 20 41 47 21 38 44 18
35 41 15 33 40 14 37 46 19 43 52 25 57 63 37 58 64 38 58 64 38
52 58 32 51 57 31 54 60 34 60 66 40 60 66 40 59 65 39 59 65 39
59 65 39 59 65 39 63 69 43 68 74 48 67 73 47 63 69 43 60 66 40
60 66 40 57 63 37 51 57 31 42 48 22 45 51 25 53 59 33 54 60 34
60 66 40 61 67 41 55 61 35 50 56 30 43 49 23 49 55 29 54 60 34
55 61 35 53 59 33 49 55 29 38 44 18 45 51 25 56 62 36 55 61 35
54 60 34 57 65 38 55 64 37 47 56 28 48 57 30 46 55 28 43 52 25
51 60 33 55 64 37 48 57 30 48 57 30 44 53 26 36 45 18 39 49 20
32 41 14 38 46 19 50 59 33 60 69 42 54 63 36 44 53 26 52 61 34
64 73 46 66 75 48 63 72 45 50 59 32 45 54 27 51 60 33 46 55 28
43 52 25 44 53 26 43 52 25 43 52 25 41 50 23 44 53 26 37 46 19
37 46 19 46 55 28 56 65 38 57 66 39 46 55 28 49 58 31 49 58 31
43 52 25 49 58 31 55 64 37 63 72 45 63 72 45 60 69 42 50 59 32
59 68 41 71 80 53 73 82 55 68 77 50 61 70 43 59 68 41 52 61 34
53 62 35 53 62 35 47 56 29 51 60 33 52 61 34 53 62 35 58 67 40
55 64 37 48 57 30 42 51 24 50 59 32 54 63 36 51 60 33 47 56 29
41 50 23 43 52 25 38 47 20 44 53 26 51 60 33 57 66 39 57 66 39
56 65 38 51 60 33 43 52 23 36 45 19 34 43 17 36 45 18 39 48 21
49 58 31 54 63 36 49 58 31 41 50 23 44 53 26 46 55 28 40 49 22
45 54 27 51 60 33 53 62 35 45 54 27 41 50 23 54 63 36 66 75 48
69 78 51 63 72 45 53 62 35 51 60 33 51 60 33 47 56 29 46 55 28
47 56 29 42 51 24 42 51 24 40 49 22 35 44 17 36 45 18 37 46 19
47 56 30 56 65 38 46 55 29 35 44 17 48 57 30 47 56 29 43 52 25
52 61 34 64 73 46 63 72 45 62 71 44 50 59 32 53 62 35 60 69 42
62 71 44 59 68 41 56 65 38 57 66 39 54 63 36 52 61 34 52 61 34
53 62 35 53 62 35 55 64 37 55 64 37 58 67 40 60 69 42 50 59 32
44 53 26 49 58 32 47 55 33 46 55 30 44 53 27 40 49 22 39 48 21
42 51 25 41 49 25 41 50 22 47 56 29 50 59 32 53 62 35 48 57 30
37 46 19 37 46 18 35 44 18 34 42 20 36 44 21 48 56 33 52 60 37
45 53 30 43 51 28 48 56 33 48 56 33 44 52 29 42 50 27 38 47 22
39 49 21 42 51 24 42 51 24 50 59 32 60 69 42 60 69 42 62 71 44
61 70 43 58 67 40 62 71 44 61 70 43 49 58 31 44 53 26 43 51 28
32 40 17 31 40 14 39 49 21 40 49 21 37 46 18 39 47 25 43 51 28
44 53 24 41 51 23 47 56 29 53 62 35 49 58 31 52 61 34 61 70 43
66 75 48 55 64 37 46 55 28 51 60 34 49 58 32 52 60 36 53 62 35
50 59 32 50 59 32 48 57 30 46 55 28 52 61 34 56 65 38 57 66 39
55 64 36 54 62 38 57 65 43 56 64 41 54 62 39 46 54 31 44 52 29
49 57 34 46 54 31 40 48 25 39 47 24 39 47 24 40 48 24 39 48 22
39 48 20 40 49 22 40 49 22 44 53 26 46 55 28 45 54 28 45 54 27
49 58 31 51 60 33 49 58 31 50 59 30 45 53 30 41 49 26 46 54 31
51 59 36 52 61 31 49 59 31 48 57 30 41 50 23 39 46 20 39 45 19
42 51 24 49 58 31 53 62 35 61 67 41 63 69 43 64 70 44 61 70 40
63 71 47 52 60 37 50 56 31 51 57 31 43 49 23 40 46 20 44 50 24
41 47 21 41 47 21 42 48 23 42 48 22 42 50 23 41 50 23 44 53 26
57 63 37 58 64 38 59 65 39 60 66 40 55 61 35 52 58 32 52 58 32
50 56 30 55 61 35 57 63 37 69 75 49 70 76 50 68 74 48 64 70 44
62 68 42 60 66 40 61 67 41 58 64 38 55 61 35 46 52 26 43 49 23
43 49 23 51 57 31 67 73 47 58 64 38 58 64 38 56 62 36 60 66 40
43 49 23 31 37 11 35 41 15 50 56 30 59 65 39 53 59 33 43 49 23
38 44 18 49 55 29 51 57 31 53 59 33 53 61 34 46 55 28 43 52 25
53 62 35 58 67 40 51 60 33 47 56 29 48 57 30 47 56 29 43 52 25
34 43 16 33 42 15 35 44 17 31 39 15 33 42 16 42 51 25 52 61 34
54 63 36 49 58 31 44 53 26 41 50 23 41 50 23 58 67 40 61 70 43
64 73 46 68 77 50 65 74 47 63 72 45 63 72 45 57 66 39 48 57 30
50 59 32 47 56 29 39 48 21 50 59 32 53 62 35 55 64 37 57 66 39
57 66 39 60 69 42 57 66 39 52 61 34 55 64 37 52 61 34 44 53 26
53 62 35 67 76 49 64 73 46 51 60 33 54 63 36 65 74 47 69 78 51
60 69 42 58 67 40 57 66 39 45 54 27 32 41 15 41 50 23 63 72 45
54 63 36 60 69 42 64 73 46 65 74 47 56 65 38 40 49 22 41 50 23
50 59 32 62 71 44 66 75 48 54 63 36 38 47 20 40 49 22 48 57 30
46 55 28 45 54 27 54 63 36 49 58 31 55 64 37 57 66 38 52 61 34
49 58 31 58 67 40 56 65 38 50 59 32 49 58 31 41 50 23 25 34 7 24 33 6
27 36 10 34 43 17 48 57 30 57 66 39 60 69 42 48 57 30 47 56 26
53 61 35 59 68 39 57 66 38 56 65 38 56 65 38 54 63 36 51 60 33
48 57 30 46 55 28 43 52 25 41 50 23 44 53 26 41 50 23 45 54 27
50 59 32 51 60 33 62 71 44 69 78 51 60 69 42 48 57 30 52 61 34
54 63 36 46 55 28 46 55 28 56 65 38 60 69 42 55 64 37 46 55 28
63 72 45 73 82 55 72 81 54 63 72 45 61 70 43 58 67 40 44 53 26
44 53 26 49 58 31 54 63 36 55 64 37 56 65 38 62 71 44 62 71 44
52 61 34 37 46 19 41 50 23 55 64 37 59 67 44 55 63 40 46 54 31
36 45 18 40 49 22 45 54 28 52 61 34 55 64 37 52 61 34 50 59 32
55 64 37 56 65 38 46 55 28 49 58 31 55 64 37 52 61 34 44 53 27
43 52 25 40 48 24 35 42 20 30 38 16 32 40 18 46 55 29 56 65 39
61 69 43 57 66 39 46 55 28 52 61 34 58 67 40 61 70 43 61 70 43
55 64 37 51 60 33 49 58 31 47 56 29 44 53 26 46 55 28 43 52 25
40 49 22 47 55 29 42 51 24 36 46 18 44 53 25 53 62 35 56 65 37
55 63 37 47 55 29 47 56 29 51 60 33 49 58 31 49 58 31 54 63 36
70 79 52 65 74 47 53 62 35 58 67 40 67 77 49 70 79 52 69 78 51
64 73 46 57 66 39 53 62 35 52 61 36 50 58 34 46 54 30 44 53 27
47 56 29 55 64 37 57 66 38 52 61 32 47 56 27 42 51 24 49 57 34
53 61 38 49 57 33 46 55 29 39 48 21 38 47 21 44 53 27 48 56 30
46 55 28 54 62 39 58 66 43 60 68 44 58 66 42 47 56 28 39 48 21
37 46 20 37 46 19 36 45 18 49 56 30 54 60 33 48 55 25 38 46 20
44 53 30 47 55 32 45 53 30 53 59 30 52 59 33 47 54 28 45 52 25
54 60 34 60 66 40 64 70 44 63 70 44 53 60 34 55 63 36 52 61 34
51 59 32 52 59 32 47 54 28 47 53 28 46 52 26 44 50 24 32 38 12
37 43 17 47 53 27 47 53 27 51 57 31 47 53 27 49 55 29 49 56 30
42 51 24 50 59 32 44 50 24 51 57 31 53 59 33 51 57 31 51 57 31
49 55 29 47 53 27 47 53 27 46 52 25 45 51 26 53 59 33 56 62 36
54 60 34 55 61 35 53 59 33 41 47 21 32 38 12 33 39 13 45 51 26
51 57 31 55 61 35 55 61 35 45 51 25 57 63 37 61 67 41 59 65 39
54 60 34 51 57 31 43 49 23 35 41 15 30 36 10 32 38 13 44 50 24
44 50 24 37 43 17 30 36 10 37 43 17 52 58 32 53 59 33 49 57 31
47 56 29 44 53 26 48 57 30 54 63 36 56 65 38 50 59 32 41 50 23
43 52 25 51 60 33 47 56 29 39 48 21 35 44 17 40 49 22 43 52 25
43 52 25 48 57 30 52 61 34 45 54 27 48 57 30 50 59 32 45 54 27
34 43 17 33 42 15 45 54 27 47 56 29 44 53 26 49 58 31 52 61 34
53 62 35 56 65 38 58 67 40 41 50 23 32 41 14 47 56 29 49 58 31
51 60 33 56 65 38 56 65 38 52 61 34 48 57 29 41 50 23 41 50 23
51 60 34 56 65 38 58 67 40 62 71 44 60 69 42 57 66 38 48 57 30
39 48 21 39 48 21 51 60 33 48 57 30 51 60 33 49 58 31 36 45 18
46 55 28 60 69 42 57 66 39 47 56 29 46 55 28 45 54 27 32 41 14
27 36 9 31 40 14 43 52 25 43 52 25 37 46 19 30 39 13 37 46 19
51 60 33 53 62 35 52 61 34 44 53 26 45 54 27 46 55 28 55 64 37
56 65 38 41 50 23 39 48 21 48 57 30 46 55 28 37 46 19 31 40 13
38 47 20 38 47 20 36 45 16 38 48 18 44 53 27 49 58 31 49 58 31
48 57 30 45 54 27 29 38 11 33 42 17 42 51 24 46 55 28 54 63 36
56 65 38 60 69 42 62 71 44 59 68 41 56 65 38 50 59 32 37 46 19
39 48 21 45 54 27 51 60 33 54 63 36 51 60 33 49 58 31 48 57 30
51 60 33 49 58 31 52 61 34 57 66 39 48 57 30 52 61 34 62 71 44
63 72 45 57 66 39 44 53 26 47 56 29 58 67 40 56 65 38 47 56 29
49 58 31 40 49 22 31 40 13 45 54 27 59 68 41 51 60 33 44 53 26
51 60 34 50 59 32 43 52 25 38 47 21 38 47 20 42 51 23 50 59 33
47 55 33 43 51 29 43 51 28 46 55 28 47 56 29 41 50 23 39 48 21
48 57 30 49 58 31 52 61 34 47 56 29 42 51 24 45 54 27 45 54 27
43 52 24 43 52 25 45 54 27 36 45 18 28 37 12 29 37 15 34 42 20
37 46 22 46 55 28 43 52 25 39 48 22 34 43 17 41 50 23 50 59 32
53 62 34 58 67 39 61 70 43 63 72 45 58 67 40 54 63 35 52 61 34
44 53 26 37 46 19 40 49 22 41 50 23 46 55 28 47 56 29 47 56 29
47 56 29 59 68 41 62 71 44 52 61 34 50 59 32 51 60 33 46 55 28
51 60 33 58 67 40 59 68 41 56 65 38 41 50 23 50 59 32 60 69 42
60 69 42 55 64 37 52 61 34 50 59 32 39 48 21 48 57 30 50 58 34
45 52 30 54 62 39 53 61 36 51 60 33 52 61 34 45 54 28 33 41 17
43 51 26 48 57 32 53 61 38 51 59 36 43 52 28 43 52 25 35 44 17
38 47 20 47 56 29 49 58 31 50 59 32 47 55 32 45 53 30 47 55 33
47 55 32 45 53 27 51 60 34 50 58 32 37 46 20 33 42 15 32 39 13
29 34 10 31 37 13 28 34 11 37 45 22 48 56 34 51 58 35 50 57 28
50 56 30 53 59 32 58 64 38 62 68 42 64 70 43 59 65 39 50 56 30
46 52 26 42 51 24 38 47 20 41 50 23 39 45 19 41 47 21 45 51 25
45 51 25 44 50 24 54 60 34 60 66 40 55 61 35 52 58 32 50 56 30
47 53 27 49 55 29 52 59 33 54 63 36 53 63 36 24 30 4 31 37 11
45 51 25 49 55 29 49 55 29 45 51 26 43 49 23 36 42 16 31 36 13
27 33 9 31 37 11 44 50 24 48 54 28 42 48 22 39 45 19 40 46 20
35 41 15 31 37 10 29 35 9 46 52 27 47 53 28 36 42 17 37 43 17
54 60 34 62 68 42 62 68 42 58 64 38 50 56 30 44 50 24 43 49 23
40 46 20 35 41 16 30 36 10 33 39 13 32 38 12 26 32 6 27 33 7 36 42 16
45 51 25 39 46 20 42 51 24 40 49 22 39 48 21 40 49 22 47 56 29
51 60 33 52 61 34 48 57 30 38 47 20 43 52 25 50 59 32 50 59 32
49 58 31 44 53 26 45 54 27 46 55 28 49 58 31 47 56 29 46 55 28
48 57 30 54 63 36 51 60 33 41 50 23 39 48 22 35 44 17 39 48 21
40 49 22 32 41 14 30 39 12 34 43 16 35 44 18 27 36 9 26 35 8 37 46 19
40 49 22 41 50 23 42 51 24 44 53 26 36 45 19 35 44 19 31 40 14
27 36 10 39 48 21 46 55 28 43 52 25 42 51 24 47 56 27 37 46 17
26 35 6 28 37 9 30 39 12 43 52 25 34 43 16 43 52 26 49 58 31 54 63 37
59 68 41 55 64 37 56 65 38 46 55 28 43 52 25 42 51 24 33 42 15
28 37 10 32 41 14 36 45 19 28 37 10 22 31 4 27 36 9 41 50 23 35 44 18
37 46 19 47 56 30 40 49 22 46 55 28 53 62 35 51 60 33 51 60 33
42 51 24 30 39 12 43 52 25 46 55 28 43 52 25 36 45 18 36 45 18
44 53 26 46 55 28 48 57 30 47 56 29 45 54 27 47 56 29 56 65 38
57 66 39 36 45 16 30 39 10 39 48 19 34 43 16 33 42 15 29 38 12
32 41 14 38 47 20 37 46 19 35 44 17 28 37 11 32 41 14 41 50 23
39 48 21 44 53 26 47 56 29 45 54 27 48 57 29 39 48 21 30 39 12
37 46 19 45 54 27 50 59 32 51 60 33 46 55 28 39 48 21 31 40 13
31 40 13 31 40 13 37 46 19 41 50 24 50 59 32 50 59 32 53 62 35
51 60 33 54 63 36 55 64 37 48 57 30 45 54 27 38 47 20 25 34 8 24 33 7
29 38 11 35 43 16 31 39 12 26 35 9 28 37 11 31 39 16 36 44 21
49 57 34 49 58 32 44 53 26 49 58 31 45 54 27 44 53 26 51 60 33
31 40 14 34 43 16 45 54 27 47 56 29 45 54 27 27 36 9 31 40 13
43 52 25 43 52 24 45 54 29 44 52 29 41 49 26 49 57 33 56 65 37
42 51 23 24 33 7 30 39 13 32 41 14 33 42 15 30 39 11 34 43 17
41 50 23 46 55 28 46 55 28 41 50 23 40 49 22 40 49 22 38 48 20
47 56 29 53 62 35 54 63 36 51 60 33 47 56 29 34 43 16 36 45 18
48 57 30 53 62 35 54 63 36 49 58 31 44 53 26 46 54 28 45 54 27
42 51 24 37 46 21 43 52 25 53 62 35 52 61 34 46 55 28 44 53 27
37 46 20 46 55 28 49 58 31 52 61 34 43 51 27 28 36 13 31 39 16
34 42 17 30 39 11 29 38 11 30 38 13 28 36 13 34 41 19 39 47 25
45 53 30 45 53 30 48 56 32 48 57 30 39 48 21 42 51 24 46 55 28
40 49 22 44 52 26 45 53 30 44 52 29 37 45 22 27 35 12 29 37 14
37 45 22 40 49 21 34 43 15 38 47 20 46 53 25 50 56 28 49 54 29
36 42 19 27 35 12 26 34 12 28 35 12 35 42 13 42 48 22 51 57 31
59 65 38 61 67 41 59 65 39 54 60 34 47 53 27 43 49 23 43 52 25
45 54 27 47 55 28 49 56 30 48 54 28 44 50 24 38 44 18 47 53 27
54 60 34 55 61 35 52 58 32 53 59 33 49 55 29 49 55 29 53 59 33
51 58 32 49 58 31 45 55 28 47 53 27 34 40 15 37 43 17 48 54 28
48 54 28 40 46 20 48 54 28 43 49 23 45 51 25 44 50 25 42 48 22
49 55 29 49 55 29 43 49 24 40 46 20 31 37 11 27 33 7 24 30 5 23 28 8
38 44 19 48 54 28 53 59 33 41 47 22 42 48 22 52 58 32 53 59 33
45 51 24 39 45 19 45 50 26 46 52 26 43 49 23 40 46 20 40 46 20
35 41 15 35 41 15 42 48 22 30 36 10 31 37 11 46 52 26 52 59 32
52 59 32 44 53 26 44 53 26 42 51 24 43 52 25 45 54 27 49 58 31
51 60 33 55 64 37 52 61 34 49 58 31 55 64 37 61 70 43 59 68 40
57 66 39 50 59 32 47 56 29 43 52 25 35 44 17 37 46 19 42 51 25
36 45 20 50 59 32 51 60 33 40 49 22 35 43 18 40 48 22 47 56 27
48 57 30 47 56 29 41 50 22 23 32 6 32 41 14 48 57 30 49 58 31
50 59 32 50 59 32 47 56 29 44 52 26 36 45 19 32 41 15 37 46 19
45 54 27 45 54 25 39 48 18 34 43 13 32 40 18 30 39 17 27 35 13
39 47 23 49 57 33 48 57 30 30 40 11 37 47 17 57 66 36 59 68 40
54 63 36 43 52 26 41 50 23 38 47 20 39 48 21 38 47 20 35 44 16
32 41 14 33 42 16 28 37 10 22 31 5 29 38 11 41 50 23 54 63 36
46 55 28 36 45 18 40 49 22 37 46 19 37 46 20 48 56 28 56 65 38
56 65 38 50 59 32 42 51 24 56 65 38 59 68 41 56 65 38 53 62 35
52 61 34 48 57 30 46 55 28 43 52 25 39 48 21 43 52 25 46 55 28
50 59 31 50 58 34 45 53 29 30 38 15 43 51 28 48 56 32 44 53 28
42 51 24 33 42 15 32 41 14 30 39 12 35 44 17 44 53 26 47 56 29
49 58 31 45 54 27 37 46 19 30 39 12 25 34 8 26 35 8 31 40 14 45 54 27
48 57 28 35 44 15 31 40 14 42 51 24 34 43 17 33 42 15 37 46 19
41 50 23 36 45 18 33 42 15 49 58 31 55 64 39 58 66 42 54 62 39
50 59 33 47 56 29 43 52 25 40 49 22 38 47 20 39 48 21 31 40 13
27 36 9 28 37 11 28 37 11 32 40 16 43 51 28 40 48 24 32 41 16
35 44 18 37 46 20 36 45 18 47 56 29 55 64 37 56 65 38 46 55 28
42 51 24 45 54 27 50 59 32 52 61 34 50 59 32 50 59 32 45 54 27
40 49 23 46 54 30 47 55 31 47 55 31 46 54 31 52 60 37 54 62 39
46 55 30 36 45 20 40 48 24 43 51 27 38 47 23 33 42 18 28 36 12
30 38 16 35 43 19 32 40 16 32 40 16 33 41 18 35 43 20 36 44 20
33 41 17 32 40 16 31 40 16 36 44 21 42 50 26 41 49 25 38 46 22
34 42 19 45 53 29 45 54 28 36 45 20 33 41 17 29 38 11 30 39 10
34 43 17 40 49 22 46 55 29 49 58 31 54 63 36 56 65 38 54 63 36
56 65 38 54 63 36 40 49 22 43 52 24 36 45 20 24 32 10 28 36 14
30 38 15 34 42 18 30 39 15 30 38 15 34 43 19 31 39 16 34 42 20
47 55 31 49 57 34 49 57 35 54 62 38 48 57 30 45 54 27 45 54 28
39 48 23 40 48 24 45 53 29 41 49 26 43 51 28 35 43 20 42 51 25
45 54 28 47 55 29 49 58 33 49 57 34 49 58 34 49 57 34 53 60 38
38 45 23 37 44 22 39 47 23 32 41 15 31 38 12 33 39 12 33 39 15
27 33 9 31 37 11 32 39 11 29 35 10 39 47 23 41 49 23 38 46 19
41 49 25 46 54 30 47 54 31 48 53 29 43 48 23 32 38 12 44 50 24
47 53 27 46 52 26 42 49 25 35 42 19 30 37 14 33 39 14 37 43 17
40 46 20 46 52 26 52 59 33 56 63 37 39 44 22 44 50 23 31 37 11
28 34 9 38 44 18 48 54 28 51 57 30 44 50 24 38 44 18 44 50 23
52 58 32 52 58 32 46 52 26 41 47 21 43 49 23 39 44 23 35 41 18
33 39 14 29 35 10 32 38 12 38 44 18 46 52 26 47 53 27 46 52 26
41 47 22 37 43 18 35 41 17 40 45 23 42 47 23 49 55 29 53 59 33
53 59 33 53 59 33 53 59 33 47 53 27 51 57 31 43 49 23 31 37 11
43 49 22 48 54 28 49 55 29 51 59 32 48 57 30 49 58 31 46 55 27
45 54 27 45 54 27 45 54 28 50 59 33 58 67 39 54 63 36 51 60 33
48 57 30 49 57 31 46 55 29 50 59 32 44 53 26 39 48 21 34 43 16
31 40 13 54 63 36 52 61 35 49 58 31 51 60 33 50 59 32 33 41 18
23 32 8 28 37 12 44 52 26 49 58 31 43 52 25 23 32 6 36 45 17 46 55 29
44 53 26 42 51 24 41 50 23 39 48 21 48 57 30 51 60 33 44 53 26
43 52 25 47 56 29 39 48 21 30 39 11 25 34 7 24 32 14 23 30 11
26 34 12 35 43 21 42 50 27 44 53 27 42 51 25 33 42 16 32 41 15
40 48 22 44 53 27 51 59 33 55 63 37 52 61 35 53 62 36 53 62 36
42 51 25 38 47 21 35 43 18 29 38 11 37 46 20 47 56 29 46 55 28
50 59 32 51 60 33 50 59 32 48 57 30 49 58 31 49 58 29 41 49 23
48 57 30 59 68 41 58 67 40 46 55 28 46 55 28 55 64 36 57 66 39
54 63 36 51 60 33 45 53 27 29 38 11 31 40 13 51 60 33 49 58 31
43 52 26 53 62 35 52 60 36 41 49 26 23 31 9 35 43 20 51 59 36
53 61 37 46 54 28 31 39 13 31 40 14 41 50 24 40 49 22 42 51 24
45 54 27 42 51 25 51 60 33 51 60 33 41 50 23 43 52 24 45 54 28
40 49 24 37 46 20 30 39 12 24 32 6 22 31 5 26 35 8 34 43 16 44 53 26
48 57 30 43 52 25 33 42 16 45 54 27 50 59 32 53 61 38 55 63 40
49 56 35 48 57 31 44 53 26 40 49 22 38 47 20 33 42 15 31 40 13
38 47 20 36 45 18 41 50 24 39 48 22 52 60 38 56 64 41 44 52 29
44 53 26 47 56 29 39 48 21 41 50 23 53 63 35 59 68 41 49 58 31
41 50 23 57 66 39 61 70 43 60 69 42 54 63 36 51 60 33 40 49 23
39 48 21 44 52 28 41 49 27 41 49 26 45 53 30 51 59 36 51 59 35
34 42 19 30 38 15 46 54 31 54 62 39 48 56 33 40 48 25 30 38 16
31 39 16 36 44 22 42 50 27 46 54 32 44 52 29 48 56 33 51 59 36
43 51 28 38 46 23 40 47 25 39 47 24 30 38 16 30 39 16 31 39 16
27 35 12 23 31 9 34 41 19 40 49 23 44 53 28 46 54 31 41 49 25
38 47 20 48 57 29 54 63 36 54 63 36 46 55 28 46 55 29 43 52 25
36 45 18 35 44 17 34 43 16 31 40 13 40 49 21 34 43 16 30 38 15
37 45 22 47 55 32 43 51 28 44 52 29 39 47 25 40 48 25 33 41 18
41 49 23 47 56 29 54 62 40 49 57 34 53 61 37 59 68 41 59 68 41
56 65 39 54 62 39 48 56 33 43 51 28 43 51 28 43 51 28 42 51 26
42 51 24 45 54 28 48 57 31 46 54 31 41 49 26 42 50 27 45 54 31
48 56 33 43 51 28 41 49 26 32 40 17 31 40 13 35 42 17 42 48 23
41 46 24 48 53 29 55 61 35 54 60 33 43 48 25 33 41 18 32 41 17
25 33 10 24 32 10 33 41 18 34 42 20 32 37 14 35 40 16 45 50 25
46 52 27 42 48 22 39 45 19 36 43 19 36 44 22 42 51 28 46 53 28
52 58 31 52 58 32 51 57 31 45 51 25 44 50 24 32 37 14 32 37 14
37 43 17 33 39 13 25 31 5 33 39 13 38 44 20 38 44 18 42 48 24
44 49 25 44 50 25 45 51 25 50 56 30 50 56 30 48 54 28 47 53 27
42 48 23 44 50 24 44 50 23 49 55 29 46 52 26 46 52 26 48 54 28
51 57 31 48 54 28 50 56 30 52 58 31 54 60 33 45 50 26 41 47 21
38 44 18 37 43 17 39 45 19 40 45 20 37 43 16 40 46 20 39 46 18
26 33 6 26 32 5 43 49 22 41 47 20 44 50 24 45 53 27 41 51 24 40 49 21
37 46 18 34 43 16 39 48 21 47 56 29 45 54 27 46 55 28 48 57 30
35 44 17 25 33 10 24 33 6 33 42 16 46 55 28 43 52 25 48 57 30
45 54 27 54 63 36 55 64 37 56 65 38 50 59 32 44 52 25 35 44 17
27 36 10 21 28 8 29 38 12 39 48 20 25 34 7 23 32 5 39 48 21 43 52 25
41 50 24 48 57 30 44 53 26 44 53 26 51 60 34 54 63 36 48 57 30
38 47 20 40 49 22 45 54 28 38 47 20 31 40 12 36 44 21 39 47 25
42 50 27 47 55 32 47 55 32 42 50 27 47 55 32 48 56 34 39 47 24
26 34 11 32 40 17 37 45 22 36 44 21 35 43 20 34 42 19 41 49 27
44 52 29 43 51 28 26 34 11 36 45 18 44 53 26 42 51 24 48 57 30
50 59 32 47 56 29 44 53 26 39 48 21 38 47 20 46 55 28 52 61 35
52 61 34 53 62 35 48 57 30 37 46 19 29 38 11 28 37 11 46 55 28
47 56 29 41 50 23 45 54 27 42 51 24 49 58 32 57 66 39 48 57 30
44 53 26 38 47 21 24 32 10 20 28 6 26 34 12 39 47 24 31 39 16
25 33 11 32 40 17 44 52 29 51 59 36 51 59 36 45 54 28 43 52 25
43 52 25 46 55 28 51 60 33 30 39 13 40 49 22 47 56 29 41 50 25
27 36 12 31 39 15 42 51 24 37 46 20 41 50 23 42 51 24 42 51 24
48 57 30 46 55 27 31 40 14 23 31 7 37 46 19 35 44 17 39 47 23
44 52 30 46 54 32 51 59 34 51 60 33 48 57 30 39 48 21 35 44 17
39 48 22 48 57 30 53 62 35 51 60 33 48 57 30 39 48 23 37 45 23
49 57 33 53 62 34 55 64 36 49 58 31 49 58 31 50 59 33 48 56 30
38 47 20 39 48 21 47 56 29 51 60 32 46 55 28 43 52 25 38 47 20
40 49 23 48 57 30 54 63 36 40 48 25 38 46 24 36 44 22 29 37 16
29 37 17 31 39 15 29 37 15 37 45 22 41 49 25 41 49 26 42 50 27
43 51 28 42 50 27 33 41 18 42 50 27 50 58 35 41 49 26 40 48 25
43 51 27 41 49 27 32 40 18 27 35 13 38 46 23 36 43 20 26 36 13
31 39 16 36 42 20 43 48 26 43 49 27 35 42 20 27 35 12 28 36 13
36 44 21 41 49 26 52 61 30 58 67 37 61 70 40 57 67 39 53 62 35
46 55 28 38 47 20 37 46 19 40 49 22 43 53 26 46 55 26 44 53 24
39 47 24 46 54 31 57 65 42 53 61 38 51 59 37 50 58 36 47 55 33
51 59 36 56 65 40 54 62 36 41 49 26 42 50 28 51 59 35 47 56 29
47 56 29 42 51 24 41 50 25 38 46 24 45 53 29 42 50 27 41 50 27
43 51 28 37 45 21 38 47 21 40 49 22 31 39 16 38 46 23 44 52 29
45 53 30 46 54 31 43 51 28 38 46 23 30 38 15 43 51 28 47 55 32
46 54 32 44 49 26 45 49 26 43 49 25 39 45 19 38 43 21 44 52 29
42 50 28 29 37 14 27 35 12 29 37 14 33 42 19 30 38 15 31 38 15
41 45 22 43 47 24 46 50 28 51 55 32 54 60 37 57 65 42 58 67 44
55 62 35 50 57 28 50 57 28 41 47 19 36 42 16 37 43 17 42 48 22
37 43 18 43 49 23 38 44 18 36 42 16 32 38 12 25 30 8 47 53 26
52 57 33 45 51 28 45 51 25 45 51 25 41 47 21 47 53 27 52 58 32
57 63 37 50 56 31 53 59 33 54 60 34 58 64 38 59 65 39 58 64 38
56 62 36 55 61 35 48 54 28 46 52 26 41 47 21 46 52 25 49 55 28
49 54 29 51 57 31 43 49 23 42 48 22 42 48 21 46 52 24 45 51 24
43 48 25 36 41 19 24 29 7 40 45 22 50 55 30 47 53 27 44 52 26
40 50 23 36 44 19 35 43 17 32 41 14 37 46 19 48 57 30 45 54 27
35 44 16 35 44 17 32 40 18 28 36 14 26 35 10 40 48 24 50 59 34
36 45 18 35 44 15 54 63 34 59 68 39 56 65 37 47 56 29 44 53 28
44 53 25 38 47 18 37 46 19 29 37 10 25 34 7 33 42 15 29 38 10 23 32 6
38 47 21 46 55 28 40 49 22 37 46 19 41 50 23 37 46 17 45 54 25
50 59 30 56 65 38 52 61 34 42 51 24 46 55 28 55 64 37 57 66 38
51 60 36 45 53 29 48 56 32 46 54 30 45 53 30 42 50 27 44 52 29
46 54 32 51 59 36 49 57 34 36 44 21 37 45 22 41 49 26 42 50 27
34 42 19 33 41 18 33 41 18 22 30 7 30 38 15 40 49 24 45 54 28
44 53 26 39 47 23 37 46 20 31 39 16 30 39 14 34 43 16 41 51 24
41 50 23 38 47 20 40 49 22 43 51 24 29 38 11 28 37 10 34 43 17
40 49 24 34 43 17 42 51 24 53 62 35 56 65 35 59 68 41 51 60 33
48 57 30 42 51 24 40 49 22 41 50 21 27 35 10 30 38 16 33 41 18
28 36 13 22 30 8 35 43 20 44 52 29 35 43 20 39 47 24 42 49 27
40 48 24 52 60 35 57 66 39 51 60 33 46 55 28 38 47 21 49 58 31
50 59 32 45 54 26 43 52 24 43 52 24 45 55 26 48 57 29 46 55 28
45 54 27 46 55 28 51 60 33 55 64 37 40 49 22 32 40 17 48 56 31
39 48 23 36 44 19 24 33 8 29 38 14 32 41 15 28 37 11 34 43 16
38 47 20 43 53 23 39 48 20 37 46 19 41 50 23 39 48 21 40 49 21
41 50 22 35 44 19 40 49 23 45 54 29 47 55 30 39 48 23 34 44 16
26 35 9 28 37 12 27 36 10 38 47 21 48 57 30 53 62 34 55 64 36
52 61 33 55 64 36 52 60 33 41 50 21 42 50 25 36 44 22 21 29 7 20 28 6
28 36 13 32 40 18 30 39 16 30 38 15 29 37 16 35 43 20 46 54 31
44 52 29 44 52 29 52 60 37 50 58 35 42 50 27 44 52 29 34 42 19
41 49 26 46 54 31 45 53 30 38 46 23 34 42 19 45 53 29 45 53 30
47 55 32 50 54 33 51 54 33 54 58 36 48 54 31 33 41 17 34 44 20
35 44 21 31 39 17 27 34 13 32 40 17 34 42 19 35 43 20 37 45 21
36 45 19 35 44 17 39 47 22 42 51 24 50 59 32 52 60 33 51 58 34
44 51 28 31 39 16 37 45 22 46 54 32 50 59 34 47 56 30 42 51 25
37 45 22 36 44 22 38 46 24 36 44 21 44 52 29 53 61 38 53 61 38
48 57 32 51 59 34 42 50 26 47 55 31 47 55 32 38 46 24 30 38 16
26 34 12 24 32 12 26 34 13 27 35 12 30 38 15 28 36 13 36 44 22
42 50 27 45 53 29 48 56 32 49 57 33 44 53 28 39 47 23 45 53 29
39 47 23 40 49 25 45 52 28 43 49 27 30 37 15 33 40 16 40 48 24
42 51 27 43 51 27 44 52 30 49 57 34 50 58 35 44 52 29 37 45 23
32 38 15 31 35 12 33 37 14 34 38 16 43 46 23 46 51 29 51 57 34
51 56 33 50 55 33 47 52 30 44 49 27 49 54 31 53 58 33 50 56 31
51 57 31 52 58 32 52 58 32 51 57 31 48 54 28 48 54 28 43 49 23
39 45 19 43 49 22 47 53 26 49 55 29 52 58 32 52 58 32 46 52 26
46 52 26 45 51 25 44 50 24 54 60 34 60 66 40 55 61 35 52 58 32
55 61 35 49 55 29 45 51 25 52 57 32 46 52 26 38 44 18 36 42 19
46 52 25 56 62 36 52 58 32 54 60 34 50 56 30 34 40 16 30 36 11
32 37 15 47 51 30 51 56 34 34 39 17 29 34 11 46 50 27 45 50 25
45 53 27 42 51 24 40 49 22 48 57 30 51 60 33 47 56 29 45 54 27
40 49 23 37 46 21 31 39 15 26 34 11 24 32 11 26 34 13 36 44 21
43 52 27 46 55 29 39 48 21 37 46 19 33 41 15 36 45 21 47 55 30
49 58 33 54 62 36 50 59 32 50 59 33 50 58 31 40 49 23 41 49 25
32 40 15 35 44 17 45 54 28 48 57 30 50 59 33 48 57 30 50 59 32
45 53 27 46 55 28 46 54 28 46 55 29 56 65 38 57 66 39 49 58 31
49 58 31 53 62 35 54 64 35 52 61 31 51 60 30 42 51 25 30 39 16
34 42 19 51 59 35 43 51 28 47 55 32 52 60 37 45 53 30 27 35 11
31 39 16 44 52 29 53 61 38 45 53 29 28 36 13 33 41 18 44 52 29
37 45 23 44 52 27 45 54 27 46 54 27 48 57 30 39 47 21 43 52 25
44 53 27 40 49 23 36 45 18 30 39 12 21 29 6 23 31 7 28 36 12 40 49 22
48 57 30 45 54 27 33 42 15 42 51 25 48 57 32 46 55 30 48 57 28
51 60 33 50 59 32 44 53 26 41 50 23 35 44 17 36 45 16 35 43 19
32 40 17 35 43 20 38 46 23 51 59 36 50 58 35 46 54 31 45 53 30
42 50 27 39 47 24 42 50 26 56 65 38 59 68 40 44 53 26 49 58 30
60 69 42 60 69 42 55 64 37 51 60 33 42 51 24 34 42 19 40 49 21
45 54 27 42 51 25 51 60 32 52 61 33 45 54 28 29 38 11 34 42 19
50 58 35 54 62 40 43 52 26 28 37 10 33 42 15 37 46 18 40 49 22
44 53 26 46 55 30 49 58 32 47 56 29 36 45 19 38 47 21 39 47 21
36 45 18 37 46 20 32 41 15 29 38 12 26 34 12 33 41 19 37 46 22
45 54 26 46 55 28 36 45 18 40 49 23 52 61 34 55 64 37 51 59 35
46 54 30 42 50 26 42 50 24 40 48 21 33 42 15 27 36 11 35 43 20
29 37 14 30 38 15 38 46 23 48 56 34 51 59 37 44 52 29 41 49 27
38 46 24 40 48 25 47 55 32 56 64 41 52 60 37 47 55 32 54 62 39
56 64 41 58 66 43 55 63 40 47 55 32 43 51 28 47 55 32 43 51 28
44 52 29 46 54 31 50 58 35 53 58 36 44 49 27 38 43 21 44 49 27
49 55 32 41 50 26 37 44 21 30 38 16 31 39 16 37 45 22 40 48 25
43 51 28 47 55 32 48 56 31 42 51 24 35 43 20 36 44 20 29 38 12
32 39 13 39 42 21 36 41 20 28 35 13 34 42 19 42 50 27 41 50 24
41 50 23 37 46 17 35 44 20 41 49 26 45 53 30 50 58 35 45 53 31
46 54 31 41 49 26 41 48 26 42 50 27 34 42 19 36 44 21 29 37 14
26 34 11 32 40 17 35 42 20 38 46 23 37 45 23 37 45 21 33 41 19
38 46 23 45 53 30 45 53 30 48 57 29 54 63 33 54 63 33 53 62 32
53 62 32 48 57 27 47 56 26 45 54 24 44 53 23 39 48 20 40 48 25
48 56 34 49 57 33 48 57 26 47 57 27 47 55 30 45 53 30 43 51 28
40 48 25 37 45 22 36 42 19 33 37 14 38 42 19 43 47 24 43 47 24
42 47 25 39 44 22 38 42 19 32 37 15 32 37 16 32 37 16 40 44 22
44 48 25 42 47 22 44 51 21 43 50 21 39 45 18 38 44 18 39 45 20
35 41 16 38 44 20 39 45 19 27 33 7 31 36 10 40 47 17 45 51 22
49 56 26 46 53 23 41 47 20 39 45 20 31 37 12 36 42 16 44 50 24
48 54 28 47 53 27 46 53 26 34 40 14 27 33 8 34 39 16 42 47 22
48 54 27 41 47 21 47 53 27 60 66 40 59 65 39 58 64 37 48 54 28
41 47 21 36 42 16 25 30 10 29 34 12 37 42 21 32 37 15 22 27 5
33 38 15 46 50 27 41 47 24 45 54 29 46 55 28 47 56 27 52 61 31
47 56 26 44 54 24 38 47 20 43 53 24 43 52 26 34 41 19 37 45 22
40 48 25 40 48 25 44 52 29 47 55 32 46 54 32 48 56 33 50 58 36
43 51 29 32 40 17 41 49 26 38 46 23 34 42 18 33 41 19 36 44 22
32 40 19 37 45 22 25 33 10 36 44 21 42 50 27 42 50 27 45 53 30
45 53 30 43 51 28 38 46 24 32 40 18 43 51 28 49 58 31 48 57 30
48 57 30 42 51 25 32 41 14 23 32 7 29 37 14 48 57 29 44 53 24
49 58 30 43 52 26 50 58 35 56 64 41 50 58 35 44 52 29 44 52 29
31 39 17 21 29 6 24 32 10 38 46 23 31 39 16 22 30 7 33 41 18 47 55 32
44 52 29 45 53 30 39 47 22 46 55 28 47 56 29 51 60 33 35 44 17
36 45 17 46 55 29 44 53 26 30 39 13 32 41 13 38 47 20 37 46 20
44 53 26 46 55 28 45 54 26 47 56 29 43 52 25 25 34 8 33 42 16
36 45 19 39 48 21 41 49 25 46 55 29 50 60 32 52 61 34 47 55 29
31 40 14 37 46 19 44 53 28 48 56 33 51 59 36 49 57 34 42 50 27
36 44 21 43 51 28 52 60 37 50 58 36 50 58 34 55 64 34 49 58 30
43 52 26 31 40 14 43 52 24 52 61 31 47 56 26 45 54 25 33 42 15
37 46 20 53 62 35 49 58 31 45 54 27 37 45 20 26 34 10 23 31 9
29 38 12 35 43 20 31 39 16 31 39 16 37 46 22 46 56 27 50 60 29
43 53 23 36 46 16 41 50 20 49 58 30 40 48 22 37 47 16 45 54 25
43 51 25 29 38 13 34 43 14 40 48 22 33 42 16 35 43 18 40 48 25
44 52 29 47 55 32 37 46 19 24 33 5 25 34 10 38 47 20 48 57 29
52 62 34 56 64 41 56 64 41 52 60 38 49 57 30 38 48 18 38 47 17
40 49 23 44 51 29 45 53 30 43 51 28 39 47 24 46 54 31 49 57 34
50 58 35 50 58 35 47 55 32 51 59 36 55 63 40 53 61 38 39 47 24
42 50 27 52 60 37 49 57 34 39 47 24 36 44 21 36 44 21 46 54 31
49 57 34 39 47 24 46 54 31 41 49 26 33 41 19 37 41 20 32 37 15
44 49 27 49 53 32 42 48 26 41 47 24 46 50 27 36 44 21 31 39 16
41 49 26 46 54 31 48 56 33 42 50 27 43 51 28 39 46 25 31 39 16
37 45 21 34 42 19 26 31 9 26 31 10 34 39 17 36 44 22 32 40 17
33 41 18 33 42 15 38 47 18 50 59 30 55 63 40 59 67 44 59 67 44
53 61 38 50 58 35 41 49 26 33 41 18 31 39 17 31 39 16 39 47 24
45 53 30 38 46 23 41 49 26 53 61 38 52 60 37 50 58 35 48 56 33
38 46 24 46 54 32 56 64 41 53 61 38 38 46 24 47 56 30 51 60 32
50 59 32 53 62 33 48 57 28 37 45 21 40 49 22 46 55 28 44 53 22
44 53 27 44 52 30 51 59 36 38 46 22 37 45 17 43 53 23 48 56 30
46 54 32 36 44 21 34 42 19 32 40 17 41 47 24 48 52 29 51 55 32
50 54 31 50 54 31 48 52 29 48 52 29 50 54 31 47 52 29 33 38 16
25 30 8 26 31 10 27 32 10 28 32 9 42 48 24 46 52 27 46 51 27 42 48 22
42 48 21 41 47 21 42 48 22 40 45 20 39 44 22 34 39 17 35 41 18
44 50 27 48 53 30 44 50 27 42 47 25 41 46 25 41 46 24 40 45 22
42 48 24 45 51 27 42 48 24 36 42 18 34 40 16 27 32 9 26 31 7 38 43 19
45 51 27 39 44 21 42 48 24 49 55 31 53 59 34 47 52 28 38 44 20
47 53 28 45 50 26 38 44 19 37 42 20 35 40 18 31 36 14 31 36 14
27 32 10 41 45 22 44 50 25 41 47 24 40 46 22 42 49 24 39 46 23
41 48 25 49 55 32 47 54 30 44 53 24 46 55 27 47 56 32 51 60 36
52 61 38 47 57 34 46 55 32 44 53 30 41 50 27 38 46 23 45 53 30
42 51 27 44 54 30 43 54 29 34 43 19 36 44 21 43 51 28 41 49 26
39 47 25 34 42 20 24 32 9 38 46 23 42 50 27 42 50 27 41 49 27
39 47 25 36 44 23 30 38 15 32 40 17 37 45 22 41 50 25 34 43 17
33 41 16 34 43 17 29 37 12 29 37 13 40 48 25 43 52 27 30 38 15
44 52 26 51 60 33 52 60 37 46 54 31 44 52 29 43 51 28 39 47 24
36 44 21 29 37 14 31 39 16 33 41 18 24 32 9 28 36 13 44 52 29
41 49 26 36 44 21 41 49 26 37 45 21 45 53 28 51 59 34 51 60 35
44 53 28 36 44 20 47 55 28 50 59 31 47 55 30 45 54 29 45 54 29
45 53 28 44 53 28 41 49 24 43 51 26 47 56 31 49 58 33 42 51 26
33 42 17 42 50 25 40 48 24 38 46 22 30 39 14 31 39 14 31 40 15
33 42 15 38 47 19 44 52 27 41 50 26 37 45 22 37 45 22 35 43 20
33 41 18 36 44 21 39 47 24 38 46 23 41 49 26 43 51 29 34 42 19
29 37 14 36 44 22 36 44 19 33 41 16 46 55 31 51 60 36 50 58 34
48 56 31 49 57 32 45 53 28 39 48 23 40 49 21 27 35 12 24 32 10
29 37 12 29 37 14 28 36 14 37 45 22 34 42 20 34 42 21 43 51 28
41 49 25 42 50 27 47 55 32 48 57 33 48 56 32 38 46 23 43 51 27
48 56 32 45 53 30 41 49 26 40 48 23 43 51 27 43 51 28 45 53 30
44 52 29 47 55 32 49 57 34 42 50 27 35 44 18 43 51 25 36 44 19
30 39 14 29 38 12 35 43 20 32 40 17 34 42 19 34 42 18 37 45 22
40 48 25 36 44 22 36 44 22 37 45 22 40 48 25 39 47 25 33 41 19
39 47 25 48 56 33 42 50 27 37 45 22 31 39 16 30 38 15 31 39 16
39 47 24 50 58 35 50 58 35 47 55 32 46 54 31 46 54 31 47 55 32
45 53 30 40 48 25 25 33 10 27 35 12 27 35 13 30 38 15 33 40 17
35 41 19 34 40 18 37 43 21 45 51 29 46 52 29 52 56 34 49 55 32
41 50 26 42 50 27 38 46 23 39 47 24 44 52 29 43 51 28 33 41 18
36 44 20 42 50 27 44 51 28 45 50 28 47 52 30 50 55 32 50 56 33
38 46 23 34 42 20 31 39 17 31 39 16 30 38 15 37 44 23 36 44 22
41 49 27 41 49 26 40 48 25 36 44 22 35 43 21 42 50 27 45 53 30
45 53 30 42 50 27 33 41 18 40 48 25 45 53 30 45 53 30 43 51 28
38 46 24 36 44 22 40 48 25 39 47 24 40 48 25 47 55 32 51 59 35
47 55 30 42 50 25 39 47 23 41 49 26 41 49 27 37 45 20 28 37 13
30 39 13 28 36 13 27 35 13 31 39 16 28 36 14 36 44 21 46 54 28
45 54 28 46 54 31 43 51 28 39 47 24 38 47 24 42 49 26 44 50 27
45 51 28 46 52 29 38 44 21 32 38 15 39 45 22 43 49 26 43 50 27
42 48 26 44 51 28 46 52 29 41 48 25 35 41 19 39 44 23 42 47 26
51 56 35 48 53 28 47 53 26 38 44 21 26 31 10 24 29 8 31 36 14
40 45 23 31 36 14 26 31 10 36 41 19 41 46 24 43 48 26 41 46 24
44 49 27 43 48 26 44 49 27 40 45 23 37 42 20 38 43 21 36 41 19
30 35 13 29 34 12 31 36 14 37 42 20 40 45 23 44 49 27 39 44 22
37 42 21 37 42 21 33 38 18 39 44 22 43 48 26 43 48 26 46 51 30
44 49 28 43 48 26 44 49 27 32 37 15 35 39 17 44 48 25 44 48 25
46 50 27 47 51 29 44 49 27 39 44 22 38 43 21 40 45 23 47 54 28
51 60 32 48 57 33 40 49 25 40 49 25 37 46 23 43 52 30 42 50 30
37 45 22 31 39 17 43 50 28 49 58 33 46 55 30 42 50 25 38 45 22
24 31 9 25 33 11 34 42 21 45 53 32 36 44 23 26 34 12 40 48 25
40 48 25 39 47 24 36 44 21 37 45 22 44 52 29 40 48 25 38 46 23
41 49 26 38 46 24 31 39 15 25 34 10 25 33 12 26 33 16 33 40 20
40 48 26 40 48 26 37 45 23 32 40 16 29 38 13 39 47 24 45 53 30
45 53 30 46 54 31 47 55 31 46 54 31 40 48 25 35 43 19 28 36 13
36 44 21 44 52 29 45 53 30 46 54 31 42 50 27 42 50 27 40 48 25
43 51 28 40 48 25 49 57 35 51 59 36 45 53 30 40 48 26 44 52 30
48 56 33 44 52 29 43 51 28 36 44 21 30 38 15 44 52 29 39 47 24
40 48 26 42 50 27 37 45 22 23 31 8 30 38 15 42 50 27 41 49 26
33 41 19 30 38 16 36 44 22 38 46 21 35 44 16 37 45 21 43 51 29
45 53 30 37 45 22 38 46 23 39 47 24 34 42 19 31 39 16 27 35 13
22 30 10 24 32 12 33 41 18 40 48 25 41 49 26 32 40 15 30 38 14
39 47 24 48 56 32 47 55 31 47 55 32 48 56 33 40 48 25 37 45 22
35 44 18 35 43 16 36 44 21 36 44 22 37 45 22 41 49 26 46 55 31
39 48 24 39 47 24 38 46 24 36 44 21 45 52 30 52 60 37 45 53 30
36 44 21 50 58 35 52 60 37 46 54 31 46 54 31 38 46 23 35 43 20
42 50 27 41 49 27 41 49 26 44 52 30 42 50 28 32 40 17 31 39 16
47 54 32 44 52 29 40 48 25 34 42 19 31 39 16 33 41 18 37 45 22
39 47 24 41 49 26 42 50 27 36 44 21 33 41 19 35 43 20 29 37 14
30 38 16 29 37 17 28 36 15 27 35 14 34 42 19 38 46 24 39 47 24
33 41 18 35 43 20 41 49 27 48 56 33 49 57 34 43 51 28 39 47 24
36 44 21 36 44 21 32 40 17 29 37 15 35 43 20 31 39 16 31 39 17
41 49 26 43 51 28 37 45 22 37 45 22 35 43 20 35 43 20 44 52 30
49 56 33 44 49 27 45 51 28 47 57 33 50 58 35 48 56 33 45 53 30
37 45 22 41 49 26 42 50 27 45 53 30 43 51 28 43 51 28 41 51 26
36 46 21 35 47 21 47 52 29 43 50 27 39 48 27 32 40 18 29 38 15
34 43 19 41 50 28 39 47 26 41 49 28 41 49 28 37 45 22 35 43 20
33 41 18 25 33 10 28 36 14 31 39 16 27 35 12 28 36 13 39 47 24
39 47 24 36 44 22 35 43 20 37 45 22 38 46 23 42 50 27 45 53 30
44 52 29 42 50 27 35 43 21 37 45 22 37 45 22 35 43 20 32 40 17
29 36 18 37 45 23 34 42 19 37 46 22 34 43 19 33 41 18 34 42 19
36 44 21 41 49 26 44 52 29 46 54 31 49 57 34 49 57 34 47 55 32
43 51 28 41 49 26 42 50 27 42 50 27 39 48 25 39 47 24 43 52 28
42 50 27 40 48 25 38 47 24 43 51 28 39 48 25 36 44 21 34 42 19
31 39 16 37 42 20 37 41 22 50 55 35 53 58 37 49 54 33 47 52 29
42 48 25 35 40 19 29 34 15 27 31 14 31 36 16 30 35 15 27 32 12
31 36 16 33 38 17 37 42 20 44 49 27 38 43 21 37 42 20 45 50 28
46 51 29 43 48 26 38 43 21 38 43 21 48 53 31 48 53 30 45 50 28
44 49 27 45 50 28 44 49 27 38 43 21 42 47 25 47 52 29 39 44 22
38 43 21 37 42 20 35 40 20 33 38 19 34 39 20 35 40 21 30 35 12
24 29 7 35 40 17 40 45 23 43 48 26 41 46 24 37 42 23 29 34 15
26 31 11 29 34 12 36 41 19 39 44 22 40 44 22 36 40 19 31 35 14
27 31 12 36 40 23 40 43 28 32 37 20 43 48 28 54 59 37 55 60 38
50 54 32 41 46 24 35 42 20 30 38 15 24 32 9 28 36 15 33 41 20
25 33 12 24 32 11 35 43 22 33 41 19 37 45 22 38 46 23 37 45 22
41 49 26 42 50 27 39 47 24 32 40 17 38 46 23 41 49 26 39 48 24
35 42 23 35 41 26 35 42 25 38 45 27 35 43 24 37 43 27 46 54 28
39 48 18 32 40 17 37 45 21 35 42 21 31 39 20 25 32 13 29 36 17
33 40 18 26 34 11 30 38 15 41 49 26 40 48 25 42 50 29 38 46 23
35 43 20 28 36 13 28 36 13 38 46 23 41 49 26 41 49 26 36 44 21
27 35 12 23 31 9 27 35 13 36 44 21 41 49 26 43 51 31 46 54 32
47 55 31 48 56 32 37 45 24 33 40 21 30 37 15 23 31 8 23 31 8 31 39 16
28 36 13 24 32 10 30 38 16 31 38 20 43 51 28 36 44 22 37 44 22
41 49 26 41 49 26 42 50 27 31 39 16 41 49 26 41 49 26 32 40 17
26 34 11 36 44 20 36 43 24 39 46 29 37 44 25 36 43 26 43 51 31
32 40 17 24 32 10 28 35 16 29 36 17 31 38 20 36 44 22 41 49 24
43 51 29 37 45 21 31 39 16 36 44 22 40 48 25 44 52 30 42 50 27
37 44 22 31 39 17 30 40 17 38 47 24 46 54 31 45 53 30 42 50 27
39 47 24 33 41 18 28 36 13 34 42 19 43 51 28 41 49 26 44 52 29
39 47 24 43 51 28 43 51 28 39 47 24 31 39 17 23 31 10 24 32 12
27 35 13 31 39 16 28 36 13 27 35 12 38 46 23 42 50 27 38 46 23
37 45 22 37 45 22 39 47 24 33 41 18 32 40 17 37 45 22 32 40 17
27 35 12 30 38 15 34 42 19 33 41 20 33 41 18 40 48 25 48 56 35
39 47 24 25 33 10 26 34 11 32 40 17 36 44 21 40 48 25 44 52 29
46 54 31 46 54 31 38 46 23 33 41 18 36 44 21 41 49 26 40 48 25
41 49 26 31 39 16 33 41 18 39 48 23 41 50 24 42 50 27 38 46 23
40 48 25 42 50 27 39 46 23 37 42 20 46 52 29 44 49 27 41 51 27
37 46 23 38 46 24 39 47 25 39 47 24 33 41 18 34 42 19 31 39 16
28 37 13 29 38 14 26 34 11 34 42 19 36 43 20 39 46 24 41 48 30
35 41 23 31 37 18 39 44 26 39 46 26 41 49 28 38 46 25 33 41 19
31 39 17 34 42 21 36 43 22 34 38 19 28 34 13 30 40 18 33 41 22
29 38 13 30 38 15 29 37 14 28 36 13 36 44 22 48 56 33 50 58 35
51 59 36 48 56 33 43 51 28 35 43 20 35 43 20 37 46 22 38 46 22
42 50 29 35 42 22 37 44 25 49 56 37 45 53 32 42 50 26 38 46 23
40 48 25 46 54 31 47 55 32 36 44 21 41 49 26 44 52 29 42 50 27
45 53 30 40 48 25 34 42 20 39 47 24 36 44 21 33 41 18 37 45 23
39 47 24 34 42 19 28 36 13 36 44 21 39 47 24 42 50 27 33 41 18
31 39 16 29 37 14 34 42 19 36 40 21 37 42 24 38 42 23 39 44 24
36 40 20 35 40 18 36 41 20 41 46 23 46 51 31 44 48 32 42 47 27
40 45 24 39 44 23 37 42 22 32 37 17 42 47 26 45 50 29 45 51 29
40 46 25 37 43 22 39 45 23 41 46 25 41 46 25 44 49 27 48 53 32
50 55 34 49 54 33 47 52 30 42 47 26 43 48 27 36 41 19 31 36 16
40 44 25 50 54 35 49 54 34 45 50 29 43 48 27 29 34 15 30 34 18
38 42 26 46 50 31 32 37 16 31 36 15 41 46 25 40 45 24 40 45 24
38 43 23 40 45 26 38 43 23 35 41 20 40 46 25 38 44 23 33 38 16
25 30 11 25 29 12 27 31 15 36 40 23 42 47 28 37 41 25 37 42 21
40 45 23 38 43 22 38 43 21 45 50 28 43 50 27 41 48 25 39 47 24
36 44 22 36 44 23 27 35 14 30 38 17 40 48 27 43 51 28 40 48 26
37 44 23 35 42 21 36 44 22 40 48 26 42 50 27 46 54 31 42 50 27
46 54 31 48 56 33 47 55 35 43 51 33 39 46 28 33 40 21 29 36 18
41 48 30 41 49 26 45 54 29 44 52 30 29 37 16 28 36 18 36 43 26
41 48 30 35 42 24 26 34 12 31 39 16 39 47 25 37 45 23 39 47 25
39 47 26 38 46 25 31 39 17 35 43 20 37 45 23 36 44 22 28 36 14
23 31 9 26 34 11 27 35 13 36 44 21 43 51 29 33 41 18 35 43 21
45 52 32 48 56 35 45 53 30 43 51 29 42 49 27 38 46 24 34 42 20
30 38 16 32 40 18 30 38 16 34 42 20 37 45 24 44 52 29 34 42 21
34 42 20 37 45 23 36 44 22 44 52 29 48 56 35 40 48 27 40 47 27
52 60 37 49 57 34 46 54 32 45 53 30 37 45 21 35 43 22 39 47 27
38 46 26 43 50 33 48 55 36 34 42 20 29 36 16 38 45 29 40 47 31
36 43 28 27 34 17 30 37 18 30 36 19 34 42 19 38 46 23 40 48 25
37 45 23 30 38 16 29 37 15 35 40 22 35 40 22 34 40 21 26 34 12
30 38 15 34 42 20 32 40 17 35 43 21 32 40 18 34 42 19 46 54 31
49 57 34 47 55 32 45 53 31 44 52 30 38 46 24 34 42 20 31 39 16
27 35 14 28 36 15 29 37 15 34 42 21 41 49 27 32 40 18 33 41 19
34 42 20 34 42 19 49 57 35 52 60 37 41 49 27 42 50 28 44 52 30
47 55 32 43 51 29 39 47 24 38 46 24 35 43 20 38 46 24 41 49 29
45 53 30 45 53 32 38 46 25 35 43 21 37 45 22 37 45 23 30 38 15
27 35 13 28 36 14 31 39 17 35 43 21 37 45 22 36 44 22 33 41 19
32 40 19 32 40 19 29 37 15 35 42 21 29 37 16 27 35 14 33 40 20
37 45 25 36 44 23 34 41 20 29 37 15 33 41 19 42 50 28 45 51 30
44 50 28 40 46 25 40 49 27 41 49 26 36 44 21 36 42 20 27 36 13
28 36 14 27 34 13 30 38 16 32 40 18 31 38 16 30 38 14 35 43 20
40 50 26 46 56 33 48 55 35 46 51 33 43 47 30 43 48 31 41 47 28
41 49 28 39 47 26 36 44 24 35 42 22 40 47 28 39 46 26 43 49 30
45 50 30 41 47 32 39 46 29 34 42 21 35 43 21 28 36 13 27 35 12
29 37 14 33 41 18 35 43 20 37 45 22 33 41 18 33 41 18 32 40 18
34 42 20 39 46 25 35 43 21 31 39 19 34 41 24 38 45 28 38 45 27
34 41 23 31 39 15 33 41 18 34 42 20 40 48 25 39 47 24 45 53 30
45 53 30 43 51 28 36 44 21 33 41 19 29 37 15 32 40 19 29 37 16
27 34 15 29 37 17 28 36 14 26 34 12 31 39 17 37 45 23 43 51 29
43 51 29 43 51 28 40 48 26 42 50 28 39 47 25 38 46 24 45 49 32
43 47 29 41 45 30 42 46 29 40 44 27 38 43 22 43 48 26 42 47 25
42 47 28 39 43 27 34 39 19 38 43 21 37 42 20 38 43 23 32 37 17
30 35 15 38 43 23 41 48 27 42 51 30 38 46 26 33 40 20 31 36 16
29 34 14 37 42 22 46 51 31 42 47 27 38 43 23 30 35 15 26 31 11
35 40 20 40 45 24 36 40 24 88 92 78 106 110 95 61 65 50 47 52 32
41 46 25 36 41 21 30 35 15 25 31 10 34 39 19 33 38 18 26 31 12
31 36 16 37 42 22 39 44 24 37 42 22 40 45 25 44 49 29 42 50 29
38 46 25 37 45 24 38 43 24 41 45 27 38 42 25 34 38 21 37 41 24
41 45 29 41 45 30 39 44 24 45 50 27 41 46 24 34 39 18 33 38 16
34 39 20 33 37 21 32 39 23 34 42 23 35 43 22 25 33 12 35 43 22
38 46 25 41 49 28 43 50 30 35 41 24 31 38 20 28 35 17 35 43 22
40 48 26 47 55 32 45 53 30 31 39 17 24 32 10 29 37 15 37 45 25
36 43 25 38 46 26 43 51 30 49 57 36 47 55 33 39 47 24 38 46 25
25 33 13 20 28 8 32 40 19 33 41 19 25 33 10 30 38 15 38 46 24
40 48 27 36 44 23 39 47 26 43 51 30 44 52 31 35 43 22 35 43 22
38 46 25 32 40 19 29 37 16 28 36 16 34 42 21 43 51 30 41 49 28
38 46 25 43 51 30 32 40 19 26 34 14 33 41 20 32 40 19 35 43 22
40 48 27 39 47 26 36 44 23 30 38 17 35 43 22 40 48 27 44 52 32
46 54 33 42 50 29 35 43 22 31 39 18 40 48 27 44 52 31 46 54 33
43 51 31 34 41 24 29 36 19 31 39 18 41 49 28 41 49 27 40 48 25
38 46 23 47 55 33 46 54 33 35 42 24 33 40 22 26 33 15 24 31 11
29 37 17 28 35 17 28 35 17 32 39 20 34 41 23 39 46 28 36 42 26
37 44 24 37 45 22 42 50 28 34 42 21 39 47 26 40 48 27 29 37 16
31 40 19 32 40 19 32 40 19 33 41 20 36 44 23 42 50 30 36 44 23
28 36 15 32 40 18 35 43 20 38 46 23 43 51 28 46 54 34 46 54 33
38 46 26 31 39 18 36 44 23 43 51 30 46 54 33 41 49 28 36 44 23
40 48 27 37 45 24 44 52 31 42 50 27 43 51 29 46 54 33 40 48 27
34 42 21 47 55 34 45 53 32 43 51 30 39 47 26 39 47 26 44 52 32
40 48 27 31 39 18 31 39 18 29 37 17 30 38 17 30 38 17 31 39 18
39 47 26 36 44 23 38 46 25 36 44 23 31 39 18 37 45 24 42 50 29
36 44 23 39 47 26 34 42 21 28 35 17 32 39 21 31 38 20 29 36 18
29 36 19 30 37 19 34 41 24 32 39 21 27 34 17 31 38 19 35 43 22
47 55 34 53 61 40 52 60 39 46 54 33 38 46 25 31 38 18 35 43 21
39 46 23 43 47 26 39 47 23 35 42 23 41 48 32 42 48 31 39 46 30
44 51 31 40 47 27 45 53 30 46 54 31 39 47 24 40 49 25 45 53 30
42 51 28 38 46 23 39 47 25 39 47 26 37 45 23 34 42 22 33 40 22
35 42 24 35 42 24 33 40 22 35 42 24 37 44 26 39 46 28 36 43 25
30 37 19 30 38 15 35 43 20 38 46 23 39 47 24 37 45 22 34 42 19
29 37 15 33 41 20 31 39 18 23 31 12 27 34 16 29 36 18 25 33 13
33 41 19 36 44 22 39 47 28 40 47 30 44 52 29 49 57 34 50 58 35
44 52 29 34 42 19 34 42 19 33 41 17 36 44 21 39 47 25 35 43 22
37 45 25 45 52 35 40 46 30 36 43 26 36 43 26 39 46 27 40 48 27
37 45 24 44 52 31 48 56 35 47 55 34 47 55 34 45 53 32 40 48 28
43 51 30 42 50 29 50 54 35 49 53 34 50 54 37 42 46 29 44 48 31
41 46 25 34 39 17 40 45 23 41 46 27 49 53 36 44 49 29 41 46 26
33 38 18 31 35 17 36 41 20 40 45 24 31 36 16 33 39 19 40 48 27
37 45 24 38 46 25 34 42 21 39 44 24 38 43 23 40 45 25 36 41 21
32 37 17 31 36 17 27 32 12 27 32 12 38 43 23 39 44 25 101 105 91
107 110 98 50 55 35 40 45 23 43 48 27 44 49 29 44 49 29 44 49 29
38 43 23 36 41 21 33 38 18 29 34 14 40 45 25 45 50 30 42 47 27
42 47 27 38 44 23 39 48 27 46 54 33 43 51 31 46 53 32 49 54 36
51 55 38 50 54 37 46 50 33 44 48 31 41 45 29 34 39 20 40 45 24
44 48 28 45 50 29 42 47 25 34 39 22 29 33 19 36 43 27 38 45 28
31 39 17 24 32 10 35 43 22 39 47 26 38 46 25 36 44 24 32 39 22
30 37 19 30 37 19 35 43 24 34 42 22 28 36 16 26 34 12 24 32 11
26 34 12 38 46 25 39 46 27 28 35 18 39 47 27 47 55 34 45 53 32
41 49 28 41 49 28 39 47 26 36 44 21 31 39 16 31 39 18 27 35 13
31 39 15 42 50 27 43 51 29 36 44 23 37 45 24 37 44 24 40 47 28
44 52 30 47 55 34 39 47 26 46 54 33 51 59 38 48 56 35 40 48 27
38 46 25 37 45 24 38 46 25 38 46 25 43 51 30 43 51 30 34 42 21
30 38 17 37 45 24 39 47 26 32 40 19 28 36 15 29 37 16 36 44 23
41 49 28 37 45 24 38 46 25 33 41 20 30 38 17 33 41 20 35 43 22
33 41 20 31 39 18 33 41 19 27 34 16 33 40 22 36 43 25 28 36 16
40 48 27 47 55 33 47 55 32 45 53 30 45 53 30 38 45 23 33 40 24
29 37 18 28 35 14 30 37 19 31 38 20 29 36 19 38 45 28 30 37 19
36 43 25 35 42 24 34 41 24 48 55 35 45 53 30 36 44 21 43 51 28
49 57 35 47 55 33 41 49 28 35 43 22 38 46 25 38 46 25 43 51 30
45 53 32 46 54 33 35 43 22 34 42 21 40 48 26 34 42 18 25 33 10
27 35 12 31 39 18 33 41 20 33 41 20 40 48 27 39 47 26 32 40 20
33 41 20 32 40 19 34 42 21 28 36 15 31 39 18 35 43 23 36 44 21
35 43 21 29 37 16 31 39 18 37 45 24 46 54 33 46 54 33 46 54 33
46 54 33 42 50 29 36 44 23 35 43 22 25 33 12 24 32 11 28 36 15
31 39 18 29 37 17 29 37 16 34 42 21 36 44 23 40 48 27 48 56 35
41 49 28 40 48 27 42 50 28 41 49 28 44 52 31 40 48 27 34 42 23
35 42 23 38 45 27 41 48 30 40 48 27 38 45 27 37 44 27 31 38 20
34 41 23 29 36 17 25 33 12 31 39 18 33 41 20 36 44 23 38 46 25
38 46 25 34 42 21 33 42 21 35 43 21 38 44 22 33 42 19 26 34 12
34 42 19 40 47 24 42 48 26 35 43 23 33 41 20 35 43 21 37 45 23
42 50 27 45 53 30 42 50 27 40 48 25 35 43 20 35 43 21 34 42 21
27 35 14 28 36 16 25 32 14 23 29 12 30 37 19 32 39 21 33 40 22
41 48 30 45 52 34 44 51 33 37 45 26 39 47 25 39 47 25 39 47 26
41 49 26 36 44 22 31 39 16 36 44 22 37 45 24 39 47 26 37 44 25
39 46 28 38 45 27 34 42 22 31 39 18 30 38 17 30 38 19 33 40 23
38 46 23 40 48 25 39 47 24 38 46 23 33 41 19 38 46 25 43 51 30
38 46 25 33 41 20 34 42 20 39 47 24 41 49 26 36 44 21 35 43 20
34 42 22 39 47 27 42 50 29 48 56 35 47 55 34 45 53 32 39 47 26
35 43 22 31 39 19 32 40 19 35 43 21 31 39 19 36 41 20 39 43 25
38 42 24 30 34 16 26 30 12 31 36 15 39 44 23 41 46 24 36 41 22
46 50 33 49 53 34 45 49 30 36 40 20 30 35 16 27 32 12 30 35 15
31 36 16 27 33 13 28 36 15 32 40 19 35 44 22 35 43 22 35 41 21
40 45 25 38 43 23 40 45 25 40 45 25 37 42 21 35 40 19 36 41 20
36 41 22 38 43 24 105 109 94 103 107 97 43 48 28 40 45 23 36 41 20
36 41 21 37 42 22 38 43 23 38 43 23 37 42 22 34 39 19 28 33 13
34 39 19 40 45 25 44 49 29 43 48 28 36 42 22 32 40 19 30 38 17
38 46 25 42 50 29 41 47 28 36 41 23 27 32 14 28 33 15 36 41 23
37 42 23 36 41 22 42 47 27 49 54 34 41 47 26 36 42 23 33 37 21
23 28 13 26 33 16 31 38 22 24 32 11 23 31 10 36 44 23 35 43 22
33 41 20 31 39 19 37 45 25 42 49 30 36 44 24 31 38 19 38 45 25
32 40 20 30 38 17 29 37 17 33 41 20 40 48 27 37 45 25 34 42 23
34 42 22 30 38 16 33 41 20 37 45 24 38 46 25 36 44 23 36 44 22
35 43 20 29 37 16 33 41 19 42 50 27 40 48 25 39 47 24 36 44 23
29 37 16 33 40 20 38 45 26 38 46 24 44 52 31 37 45 25 29 37 16
33 41 19 40 48 27 38 46 24 37 45 23 34 42 21 45 53 32 39 47 26
35 43 22 30 38 17 24 32 11 25 33 12 33 41 20 31 39 18 28 36 15
33 41 20 35 43 22 35 43 22 34 42 21 39 47 25 44 52 31 35 43 22
34 42 21 37 45 23 28 36 14 29 37 16 29 37 15 31 39 17 33 40 22
35 42 24 38 45 27 32 39 21 30 38 17 34 42 20 37 45 23 37 45 23
38 46 23 37 44 22 34 41 21 30 38 16 32 40 17 38 46 23 41 49 27
40 47 29 37 44 26 35 42 24 36 43 25 38 45 27 38 45 28 41 48 28
38 46 24 34 42 20 41 49 26 43 51 29 42 50 29 38 46 25 34 42 21
40 48 27 36 43 23 34 42 23 33 41 22 29 37 17 25 33 13 30 38 18
34 42 22 33 40 19 34 41 20 34 42 21 35 43 21 38 46 24 39 47 26
35 43 22 36 44 23 35 43 22 30 38 18 28 36 15 32 40 18 28 36 15
28 36 15 33 41 20 36 44 22 33 41 19 27 35 14 34 42 21 36 44 23
43 51 30 43 51 29 40 48 27 36 44 23 31 39 18 29 37 16 34 42 21
40 48 29 39 47 27 37 45 24 42 50 29 37 45 24 39 47 25 36 44 22
35 43 22 43 51 30 37 45 24 38 46 24 45 53 32 45 53 32 41 49 28
34 42 21 34 42 20 37 45 22 35 42 20 35 43 20 36 44 21 30 38 17
26 33 16 34 40 23 36 44 25 32 40 21 30 38 18 28 36 15 36 44 23
39 47 26 36 44 22 39 47 25 36 44 22 31 39 18 33 41 20 30 36 15
28 32 11 27 34 12 29 36 14 30 38 15 33 40 17 34 40 18 33 41 20
38 46 25 42 50 29 46 54 31 40 48 25 38 46 23 32 40 18 31 39 16
34 42 20 33 40 19 32 39 19 31 40 18 40 47 27 37 44 25 34 42 22
38 46 26 37 45 25 35 42 23 39 46 27 39 46 27 40 48 28 41 48 29
46 54 33 41 49 28 38 46 25 34 42 19 36 44 22 33 41 19 36 44 22
35 43 22 33 41 20 35 42 24 40 47 29 35 43 23 29 37 16 29 37 15
34 42 21 35 43 23 36 42 25 36 44 21 34 42 18 32 40 17 31 39 16
25 33 10 25 33 12 30 38 16 27 35 13 29 37 16 37 45 23 34 42 19
36 44 22 39 47 25 38 46 23 40 48 27 39 47 26 37 45 25 36 44 23
33 41 20 33 41 20 33 41 20 32 40 19 36 44 23 39 47 26 36 44 23
33 41 21 41 46 25 37 42 20 36 41 21 33 38 18 27 32 12 25 30 10
24 29 10 31 36 16 35 40 20 34 39 18 31 36 16 34 39 17 37 42 20
39 44 24 39 46 25 36 45 24 32 40 19 32 40 19 29 37 16 24 32 11
30 39 18 36 44 23 38 43 23 39 44 24 36 41 21 40 45 25 36 41 21
41 46 25 45 50 28 41 46 24 38 43 25 46 50 36 108 112 99 104 108 98
38 42 23 28 33 14 42 47 27 42 47 27 39 44 24 35 40 20 24 29 9
30 35 15 41 46 26 34 39 18 25 30 10 31 36 16 35 40 20 36 41 21
31 37 17 33 42 21 32 40 19 36 44 22 35 43 22 30 38 17 21 29 8 20 29 7
21 29 8 29 37 16 33 42 19 33 41 18 32 40 17 36 44 21 38 46 23
37 45 22 38 46 23 34 42 21 28 36 13 28 35 17 23 31 12 25 33 11
32 40 18 38 46 23 36 44 21 35 43 20 36 44 21 36 44 21 36 44 21
38 46 23 35 43 20 41 49 27 44 52 31 39 47 26 39 47 26 31 39 18
26 34 13 38 46 25 38 46 25 41 49 28 38 46 25 26 34 13 30 38 17
39 47 26 34 42 21 23 31 10 27 35 14 34 42 21 34 42 21 29 37 15
32 40 17 27 35 12 31 39 16 33 41 18 27 35 14 24 32 11 24 32 11
22 29 13 28 35 13 35 43 20 28 36 13 33 41 18 40 48 25 39 47 25
35 43 22 33 41 20 30 38 17 26 34 13 24 32 11 26 34 13 25 33 12
27 35 14 37 45 24 31 39 18 31 39 18 30 38 18 33 41 20 41 49 26
42 50 27 35 43 20 40 48 25 44 52 29 40 48 24 35 43 20 31 39 16
30 38 17 33 40 21 33 40 22 40 47 29 35 42 25 25 33 11 33 41 20
36 44 23 27 35 14 23 31 10 24 32 11 31 39 18 37 45 23 35 43 20
32 40 17 30 38 16 28 36 15 27 34 15 32 39 21 30 36 19 26 33 15
27 34 16 28 35 17 30 37 18 29 37 15 34 42 19 42 50 28 42 50 29
38 46 25 34 42 21 33 41 20 29 36 18 25 32 16 22 29 13 24 30 14
26 32 16 36 42 27 33 40 23 27 34 18 27 34 18 33 40 21 41 49 26
39 47 24 36 44 21 40 48 25 42 50 27 40 48 24 32 40 19 29 37 14
31 39 16 37 45 24 36 44 23 41 49 28 37 45 22 28 36 14 33 41 20
32 40 19 26 34 13 25 33 12 26 34 12 31 39 15 36 44 21 33 41 18
28 36 13 27 35 14 27 35 17 29 37 16 31 39 17 26 34 12 30 38 15
31 39 16 30 38 15 28 36 15 31 39 16 35 43 19 42 50 26 39 47 24
36 44 21 35 43 20 35 43 20 30 38 15 25 32 12 23 31 13 24 31 14
28 36 15 27 35 15 24 31 14 25 32 13 29 37 16 35 43 22 38 46 24
38 46 23 34 42 19 35 43 20 35 43 20 33 41 17 33 40 17 32 36 14
35 40 18 37 42 20 40 45 23 41 46 24 37 42 20 31 39 16 29 35 13
28 32 10 24 32 11 27 35 14 29 37 16 30 38 16 32 40 17 30 38 15
30 38 15 29 37 16 34 41 18 36 40 16 29 34 16 29 38 15 35 43 20
33 41 18 29 37 14 29 37 14 32 40 17 33 41 18 37 45 22 39 47 24
36 44 21 34 42 20 32 40 19 29 37 16 26 34 12 25 33 10 24 32 9
25 33 10 22 29 10 23 31 12 31 38 19 34 41 24 37 45 25 42 50 27
34 42 18 34 42 19 32 40 17 31 39 15 33 40 21 30 37 19 30 38 15
31 39 16 38 46 23 35 43 20 34 42 19 32 40 17 30 38 15 24 32 11
24 32 11 26 34 13 31 39 16 32 40 17 32 40 17 36 44 22 29 37 16
29 37 16 37 45 24 38 46 25 32 40 19 28 36 15 31 39 18 33 41 20
37 45 24 28 36 15 30 38 18 34 39 19 37 41 22 37 42 22 40 45 25
38 43 23 37 42 22 38 43 22 40 45 25 39 44 24 39 44 24 38 43 23
35 40 20 36 41 20 35 40 20 36 42 22 34 42 21 31 39 18 31 39 18
30 38 18 33 41 20 26 36 15 29 37 16 36 41 21 37 42 22 37 42 22
33 38 18 32 37 17 33 38 16 38 43 21 34 39 17 39 43 27 92 96 84
123 126 118 98 101 91 43 48 27 33 38 16 41 46 26 44 49 29 43 48 28
36 41 21 31 36 16 27 31 12 29 34 16 30 34 18 25 29 10 32 37 17
35 40 20 34 39 19 30 35 15 38 46 25 39 47 26 37 45 24 35 43 22
32 40 19 32 40 19 37 45 24 33 41 20 32 40 19 35 43 20 33 41 18
32 40 17 34 42 20 32 40 17 33 41 18 29 37 15 32 40 19 34 42 22
32 40 19 25 33 12 29 37 15 33 41 18 35 43 20 36 44 21 32 40 17
26 34 11 32 40 17 37 45 22 36 44 21 33 41 18 27 35 13 27 35 14
36 44 23 33 41 20 33 41 20 37 45 24 44 52 31 39 47 26 32 40 19
31 39 18 21 29 7 21 29 8 28 36 15 28 36 15 28 36 15 32 40 19 30 38 17
29 37 16 35 43 20 41 49 26 36 44 21 31 39 16 38 46 24 34 42 21
30 38 17 32 40 20 30 37 21 34 42 19 33 41 18 33 41 18 31 39 16
28 36 13 30 38 16 33 41 20 32 40 19 32 40 19 31 39 18 29 37 17
32 40 19 33 41 20 35 43 22 34 42 21 33 41 20 30 38 17 34 42 21
37 45 24 40 48 26 37 45 23 29 37 14 28 36 13 33 41 18 37 45 22
36 44 21 33 41 19 38 46 23 37 44 23 31 39 19 28 36 17 21 27 11
22 30 8 28 36 14 32 40 19 28 36 15 31 39 18 31 39 18 32 40 19
36 44 22 38 46 23 30 38 15 35 43 20 38 46 24 29 37 16 28 36 16
29 37 17 29 37 17 30 38 18 36 43 23 37 45 24 26 34 13 33 41 18
34 42 20 34 42 21 33 41 20 33 41 20 34 42 21 29 37 14 27 35 12
32 40 17 34 42 20 34 42 21 36 44 21 35 43 20 38 46 23 37 45 22
38 46 22 36 44 21 32 40 17 32 40 17 39 47 24 37 45 22 36 44 21
31 38 19 34 42 20 35 43 20 29 37 16 28 36 15 28 36 14 23 31 8
29 37 15 33 41 20 32 40 19 30 38 17 31 39 18 33 41 19 34 42 19
33 41 18 36 44 21 40 48 25 30 38 15 27 35 12 31 39 17 27 35 14
28 36 15 33 41 19 32 40 18 29 37 16 30 38 17 33 40 19 38 46 25
38 46 24 34 43 19 33 41 18 29 37 14 27 35 12 31 39 16 34 43 20
32 40 17 30 38 15 38 46 25 41 49 28 37 44 26 33 40 21 36 44 23
38 46 25 32 40 18 37 45 22 39 47 24 38 46 23 37 45 22 35 43 20
34 41 19 33 37 16 32 37 15 33 38 16 31 36 15 27 31 10 33 37 15
35 43 20 31 41 18 27 36 13 27 35 13 32 40 18 34 42 21 37 45 22
32 40 17 28 36 13 32 40 19 26 33 18 26 31 15 31 35 13 31 36 19
28 36 15 33 41 18 31 39 16 32 40 17 38 46 23 38 46 23 37 45 22
33 41 18 30 38 15 30 38 15 31 39 16 32 40 19 27 35 14 29 37 16
41 49 26 38 46 23 35 43 20 34 42 19 35 43 21 35 43 21 34 41 23
39 46 27 38 46 23 37 45 22 40 48 26 31 39 17 31 39 16 32 39 18
30 38 16 32 40 17 30 38 15 32 40 17 34 42 19 34 42 19 30 38 15
27 35 12 30 38 17 30 38 17 33 41 20 31 39 16 29 37 14 32 40 17
33 41 20 26 34 13 26 34 13 30 38 17 27 35 14 28 36 15 32 40 19
30 38 17 34 42 21 38 46 25 35 43 22 34 42 21 32 36 16 34 39 20
38 43 24 37 42 22 33 38 17 35 40 20 39 44 24 40 45 25 38 43 23
34 39 19 29 34 14 31 36 16 33 38 18 31 36 17 40 47 26 43 51 29
40 48 27 32 41 19 27 35 15 26 34 13 28 38 16 26 33 13 27 32 12
32 37 18 34 39 19 33 39 18 37 43 22 35 40 18 35 40 18 27 33 11
91 95 83 136 139 131 110 112 106 94 97 87 41 45 25 34 39 16 36 41 20
35 40 20 35 40 20 35 40 20 36 42 21 36 41 21 35 40 19 31 37 15
32 38 17 28 34 13 31 37 16 35 40 20 38 44 23 35 43 22 36 44 22
33 41 20 36 44 22 41 49 28 38 46 24 36 44 23 33 41 20 34 42 21
36 44 21 31 39 16 33 41 18 41 49 27 37 45 22 34 42 19 27 35 13
24 32 11 34 42 21 32 40 19 24 32 11 30 38 17 33 41 19 33 41 18
33 41 18 39 47 24 30 38 15 30 38 15 30 38 15 27 35 12 23 31 9
24 32 10 30 38 17 37 45 24 34 42 21 31 39 18 30 38 17 33 41 20
37 45 24 34 42 21 35 43 22 34 42 21 31 39 18 28 36 15 32 40 19
33 41 20 38 46 24 36 44 23 32 40 19 33 41 19 35 43 20 43 51 28
37 45 22 34 42 20 35 43 22 38 46 25 39 47 26 29 36 19 31 39 17
38 46 23 32 40 18 37 45 23 27 35 12 23 31 10 32 40 19 33 41 20
27 35 14 29 37 16 34 42 21 31 39 18 35 43 22 38 46 25 30 38 17
31 39 18 30 38 17 27 35 14 26 34 13 26 34 13 28 36 14 30 38 15
31 39 16 26 34 11 32 40 17 40 48 26 41 49 26 38 46 23 36 44 22
34 42 21 25 32 13 25 32 15 28 36 14 34 42 20 35 43 22 32 40 19
33 41 20 36 44 23 36 44 23 43 51 29 37 45 23 31 39 17 43 51 28
41 49 26 38 46 25 31 39 18 35 43 22 34 42 21 32 40 19 35 43 22
32 39 19 28 35 14 35 42 20 34 41 19 28 35 14 28 36 15 28 36 15
30 38 17 36 44 22 33 41 18 31 39 16 31 39 18 29 36 16 27 35 12
24 32 10 25 33 11 29 37 14 30 38 15 28 37 13 26 34 11 33 41 17
42 50 27 42 50 26 37 45 22 34 42 21 29 37 17 28 35 15 28 36 15
27 35 14 27 35 14 35 43 20 35 43 21 34 42 21 30 38 17 35 43 22
46 54 33 39 47 24 37 45 22 38 46 23 38 46 23 36 44 21 32 40 17
36 44 22 33 41 20 38 46 25 35 43 22 31 39 18 32 40 19 36 44 23
30 38 17 28 36 16 27 34 14 27 35 13 33 41 17 37 45 22 32 40 17
27 35 12 27 35 13 27 35 14 28 35 16 25 32 13 28 35 14 32 40 20
32 40 21 30 38 17 31 39 18 36 44 23 41 49 27 41 49 26 35 43 20
32 40 17 28 36 13 31 39 16 28 36 13 26 33 10 33 39 17 33 38 16
32 37 17 29 34 14 35 39 17 38 42 20 36 43 20 38 46 23 39 47 23
39 48 25 35 43 23 36 44 21 37 45 22 33 41 19 37 45 22 36 44 22
33 40 17 38 41 19 38 44 23 30 39 18 28 36 14 27 35 12 29 37 14
31 39 16 33 41 18 32 40 17 28 36 13 30 38 15 28 36 13 31 39 17
28 36 15 26 34 13 32 40 19 36 44 21 33 41 18 31 39 16 34 42 19
36 44 22 34 42 22 31 38 21 33 40 21 32 39 17 29 37 15 30 38 15
27 35 13 30 38 16 30 38 15 30 38 15 27 35 13 30 38 15 30 38 15
35 43 20 39 47 24 38 46 22 39 47 25 35 43 23 35 43 22 38 46 25
32 40 17 34 42 19 34 42 19 33 41 20 35 43 22 38 46 25 31 39 18
26 34 13 27 35 14 29 37 16 30 38 17 33 41 20 35 43 22 33 41 20
29 37 16 28 32 17 31 35 21 45 49 33 32 37 16 30 35 13 33 38 18
34 39 19 35 40 20 33 38 18 34 39 19 25 30 10 22 28 10 27 34 17
30 37 19 31 39 18 39 47 24 37 45 22 33 41 20 34 42 21 32 40 19
30 38 17 28 36 15 26 34 13 30 37 16 39 47 25 39 47 24 28 36 13
36 44 21 32 39 16 43 50 29 104 107 98 135 137 132 102 103 99 91 94 83
45 50 30 38 43 21 36 43 20 31 39 16 35 43 20 37 45 22 36 44 21
32 40 17 27 35 12 26 34 10 30 38 15 26 34 11 26 34 11 32 40 17
34 42 19 30 38 15 30 38 14 28 36 13 32 40 17 32 40 17 29 37 15
23 31 10 21 29 8 29 37 16 32 40 18 31 39 16 40 48 25 43 51 29
36 44 24 36 44 24 33 41 20 28 36 15 28 36 15 26 34 13 25 33 12
29 37 17 32 39 20 30 37 19 32 40 20 39 47 25 38 46 23 37 45 22
34 42 19 37 46 22 39 47 24 36 44 20 33 41 18 31 39 16 31 39 16
35 43 22 36 44 23 33 41 20 27 35 14 27 35 14 31 39 18 30 38 17
28 36 15 29 37 16 35 43 22 35 43 22 34 42 21 31 39 18 29 37 16
29 37 15 31 39 17 29 37 16 31 39 18 22 30 10 28 36 15 33 41 20
32 40 19 37 45 24 42 50 29 41 49 28 35 43 22 33 41 20 27 35 14
26 34 13 25 33 12 27 35 14 31 39 18 31 39 18 31 39 18 32 40 19
37 45 24 43 51 30 35 43 22 37 45 24 45 53 32 36 44 23 34 42 21
30 38 17 35 43 22 34 42 20 37 45 23 35 43 20 25 33 11 31 39 17
32 40 19 29 37 16 30 38 17 33 41 20 32 40 19 34 42 21 34 42 21
31 39 18 31 39 18 30 38 17 30 38 16 34 42 20 36 44 21 33 41 19
29 36 15 25 33 11 32 40 18 42 50 29 41 49 28 37 45 24 37 45 24
30 38 17 28 35 14 22 27 7 25 30 11 29 34 14 32 37 17 32 37 17
32 37 17 35 42 21 33 41 20 38 46 25 38 46 25 34 42 21 42 47 27
40 46 29 28 35 16 31 39 16 31 39 16 34 42 19 36 44 21 36 43 23
29 35 18 25 32 15 28 35 17 31 37 20 31 38 20 31 38 20 31 39 19
32 40 18 29 37 15 32 40 19 35 43 22 33 41 20 31 39 18 31 39 19
40 48 27 53 60 42 44 51 33 33 42 19 33 41 19 39 47 25 40 48 25
35 43 21 31 39 16 33 41 18 32 40 17 22 30 9 25 33 12 25 33 12
28 36 15 28 36 15 30 38 17 33 41 21 36 44 24 34 42 20 33 41 18
37 45 22 38 46 23 35 43 20 29 37 13 29 37 14 32 39 17 29 37 15
32 40 17 35 43 20 30 38 15 28 36 13 31 39 16 33 40 20 48 56 37
40 48 27 36 43 22 30 38 16 26 34 12 30 38 15 34 42 20 32 40 18
27 35 12 38 45 22 44 50 28 36 43 23 32 40 18 37 45 22 40 48 25
36 44 21 40 48 25 35 42 22 31 39 19 29 36 19 30 38 18 33 41 20
33 41 20 29 37 15 25 34 11 25 35 11 38 41 20 41 45 23 33 42 19
32 40 17 32 40 17 35 43 20 35 43 20 33 41 18 30 38 16 35 43 20
33 41 18 29 37 15 30 38 16 32 40 19 29 37 16 30 38 17 27 35 12
27 35 12 37 45 21 37 45 22 35 43 20 31 40 16 28 35 16 27 34 17
33 40 22 32 39 20 29 37 16 40 48 27 38 46 24 34 42 19 36 44 21
36 44 21 33 41 18 34 42 19 35 43 20 37 45 22 34 42 19 34 42 19
30 36 20 29 36 14 30 38 16 31 39 18 31 39 18 29 37 16 34 42 21
37 45 24 38 46 25 30 38 17 29 37 16 29 37 16 32 40 19 31 39 18
28 36 15 31 39 18 35 43 22 28 36 15 38 42 29 83 86 75 80 85 68
26 31 8 30 35 13 34 39 18 35 40 20 33 38 18 32 37 17 36 41 21
35 40 20 32 39 20 36 43 25 37 44 26 38 46 25 36 44 20 30 38 15
29 37 16 34 42 20 34 42 21 31 39 18 30 38 17 30 38 18 25 32 13
69 75 63 99 105 91 41 49 29 41 48 28 68 76 56 107 113 97 132 135 128
120 122 116 93 95 90 83 86 76 36 40 21 26 31 10 31 38 19 31 39 17
33 41 17 42 50 27 39 47 25 34 42 19 29 37 13 26 34 11 27 36 12
28 36 13 24 32 9 30 39 15 34 42 19 30 38 15 32 40 16 38 46 22
35 43 20 35 43 20 34 42 19 34 42 21 35 43 22 32 40 19 33 41 19
32 40 17 33 41 18 35 43 21 34 42 21 34 42 21 33 41 20 29 37 16
30 38 17 28 36 15 25 33 12 29 37 14 34 42 21 31 38 20 31 38 19
28 35 15 33 41 18 35 43 19 35 43 20 30 38 16 29 36 15 33 41 19
30 38 16 32 39 18 35 43 22 38 46 25 35 43 22 33 40 21 24 32 11
23 31 10 28 36 15 27 35 14 28 36 15 32 40 19 31 39 18 32 40 19
36 44 23 39 47 26 31 39 18 34 42 19 33 41 18 29 37 16 28 36 15
31 39 18 33 41 20 35 43 22 36 44 23 32 40 19 33 41 19 32 40 18
32 40 18 31 39 17 31 39 17 27 35 13 30 38 17 34 42 20 35 43 22
33 41 20 31 39 18 35 43 22 32 40 19 35 43 22 34 42 21 29 37 16
32 39 19 34 42 20 36 44 22 34 42 20 37 45 23 34 42 21 32 41 17
28 36 15 22 31 11 27 36 16 27 37 17 27 35 15 28 35 16 31 38 19
35 43 24 36 43 24 31 38 19 27 35 15 34 41 22 28 36 16 27 34 16
24 31 14 24 31 14 31 38 21 37 44 27 30 37 20 26 33 15 34 41 22
30 37 18 33 40 21 34 42 21 31 39 18 30 38 17 32 38 18 32 37 17
34 39 19 35 40 21 34 39 19 38 43 22 36 44 23 34 42 21 34 42 21
31 39 18 38 46 24 40 47 25 35 42 24 33 41 21 34 42 19 34 42 19
30 38 15 28 36 13 27 34 13 24 31 14 31 38 21 31 37 20 31 37 20
29 35 18 32 39 21 33 41 20 31 38 20 33 40 23 34 42 21 30 38 17
31 39 17 28 36 14 29 37 14 37 45 22 98 104 94 86 91 82 24 31 15
31 38 22 35 42 25 37 45 24 34 42 19 30 38 14 26 34 10 29 36 15
30 37 18 27 35 15 33 40 20 36 44 22 37 45 24 34 42 21 34 42 20
36 44 23 36 43 25 42 50 28 39 47 25 37 45 23 33 41 20 33 41 19
30 38 15 30 38 16 29 37 15 28 36 13 29 38 14 33 41 19 33 41 18
29 37 15 47 55 36 102 108 97 42 48 34 31 38 22 31 37 22 26 33 18
28 35 19 26 33 16 26 33 16 27 35 11 30 36 13 30 36 15 28 36 15
29 38 16 33 41 18 42 50 27 40 47 24 34 42 19 27 35 14 29 37 17
31 38 20 30 38 17 32 40 19 38 46 25 35 43 22 30 39 17 29 39 15
40 44 22 40 43 22 38 46 23 38 46 23 37 45 22 32 40 17 34 42 19
31 39 16 27 35 12 31 39 17 32 40 17 34 43 20 35 43 20 33 41 19
30 38 16 29 37 16 30 38 16 31 39 17 32 40 18 32 40 18 29 37 15
29 37 15 24 31 12 22 29 12 29 36 18 27 35 15 30 38 16 32 40 18
31 39 17 34 42 19 37 45 22 38 46 23 32 40 17 34 42 19 30 38 15
30 38 15 28 36 13 29 38 15 32 39 23 30 38 16 26 34 11 33 41 19
32 40 19 34 42 21 37 45 23 38 46 24 37 45 23 35 43 21 32 41 19
29 38 15 32 40 19 34 42 22 31 39 17 28 37 15 33 43 21 32 41 20
79 82 73 123 126 117 78 81 68 28 33 12 29 34 12 25 30 11 30 34 15
32 40 20 29 38 19 29 38 19 23 35 14 24 37 18 27 41 22 30 44 27
22 37 16 16 32 9 22 37 14 24 39 17 27 40 19 37 49 28 39 47 26
31 39 18 23 31 10 24 32 12 76 82 70 124 129 123 78 83 74 76 81 72
142 148 138 139 144 137 127 129 125 108 110 105 79 81 76 64 67 57
31 36 17 27 32 12 29 35 18 29 36 18 27 34 15 27 34 16 32 40 23
27 35 16 33 40 21 29 37 18 26 33 15 28 35 16 26 33 15 25 33 13
30 38 19 32 39 20 29 37 17 25 33 13 25 32 13 33 41 22 34 42 23
33 41 20 33 41 20 29 37 16 28 36 14 30 38 16 31 39 16 35 43 22
33 41 20 29 37 16 23 31 10 23 31 10 26 34 13 22 30 9 26 34 13
30 38 16 29 36 16 27 34 16 32 39 21 30 37 19 28 36 17 28 36 16
23 30 12 22 28 13 24 30 14 30 36 21 26 33 16 29 36 19 28 35 19
27 34 19 29 37 18 33 40 22 36 43 23 30 38 17 24 32 12 30 38 17
32 40 19 33 41 20 27 35 14 25 32 12 29 38 17 35 43 22 39 47 26
34 42 20 31 39 17 31 39 18 31 39 18 28 36 15 35 43 22 38 46 25
32 40 19 27 35 15 20 27 7 24 32 12 28 35 16 24 32 12 28 35 15
29 37 17 27 34 15 28 36 16 26 34 13 27 35 14 29 37 16 27 35 14
22 30 9 24 32 11 28 36 15 37 45 24 28 36 15 23 31 10 30 38 18
35 42 22 35 43 23 35 43 21 29 38 16 25 32 14 23 29 12 30 36 19
29 36 18 29 36 18 24 31 13 30 37 19 33 40 22 38 45 27 34 41 22
31 38 21 42 49 31 34 41 24 31 38 20 27 34 16 29 36 19 32 39 23
32 39 24 22 29 11 23 30 12 29 36 18 24 31 13 24 31 13 25 33 12
28 36 16 33 40 20 37 42 22 30 35 15 32 37 17 27 32 12 24 28 9 23 27 9
22 30 10 25 33 12 26 34 13 25 32 13 29 37 17 36 44 24 36 43 25
32 39 20 29 37 14 25 33 10 24 32 9 24 32 10 24 31 11 31 38 20
28 35 17 28 35 17 28 35 17 33 40 22 33 40 22 28 35 19 38 45 29
38 45 27 32 40 20 28 36 15 30 38 17 29 37 17 32 40 19 32 39 20
95 100 91 95 101 91 29 35 20 28 34 19 25 32 17 26 34 14 27 35 12
30 38 15 27 35 14 26 33 16 24 31 13 23 30 13 22 29 10 25 33 12
31 39 18 28 36 16 29 37 17 32 39 19 39 47 26 41 49 28 33 41 20
30 38 17 26 33 13 23 31 10 25 32 12 29 37 17 33 40 21 27 35 15
24 32 12 27 34 15 35 42 22 32 39 20 52 59 43 106 112 100 41 47 33
27 33 20 28 34 21 25 31 16 30 37 21 32 38 23 27 34 20 27 35 15
31 36 18 28 32 18 25 33 12 25 33 12 29 37 15 29 37 15 30 38 16
26 34 12 26 34 13 24 32 12 25 32 14 23 31 11 24 32 11 31 39 18
32 36 20 30 33 16 38 41 20 39 43 21 32 37 14 31 39 16 30 38 15
27 35 12 26 34 11 25 32 10 27 35 16 27 34 14 25 32 12 27 34 14
29 36 16 34 41 21 35 43 20 37 45 23 38 46 25 37 45 24 32 40 20
28 36 15 30 38 17 28 36 14 25 33 11 29 36 17 30 37 19 28 35 17
25 32 13 24 32 12 24 31 12 30 38 17 33 41 18 30 38 16 25 33 12
25 32 10 26 34 11 28 36 13 24 33 10 28 35 13 28 35 13 28 34 19
29 37 15 30 39 16 35 43 22 33 41 20 30 38 18 30 37 17 27 34 15
25 32 12 24 31 11 24 31 12 23 30 11 25 33 13 25 33 12 27 34 15
28 36 16 33 41 22 30 38 17 136 139 134 115 117 113 77 80 73 33 44 30
17 31 12 19 34 17 11 33 13 51 29 16 82 19 16 85 22 17 97 17 15
104 17 17 107 19 18 120 23 21 106 21 19 98 18 16 103 19 17 87 22 16
82 22 13 74 24 18 26 37 17 22 38 20 35 51 33 67 79 65 91 96 88
106 110 110 132 137 131 148 153 148 137 142 137 123 127 123
106 109 106 87 89 85 71 73 68 45 49 37 34 38 20 39 44 21 34 38 22
31 35 21 30 37 21 28 36 18 27 36 17 36 45 26 35 44 26 29 36 21
23 30 14 24 31 15 25 32 16 25 32 16 29 35 19 29 36 18 28 35 17
26 33 15 25 32 14 32 39 21 29 36 19 26 33 14 22 30 11 23 31 12
26 33 15 29 36 17 30 37 19 30 37 19 28 36 17 30 38 17 29 37 15
26 34 11 26 34 13 23 30 12 27 34 16 30 37 19 30 37 19 25 32 14
27 34 16 33 40 22 33 40 22 35 42 24 33 40 23 32 39 21 31 38 20
27 33 16 28 35 19 35 41 26 30 37 21 27 33 16 22 29 10 24 31 13
28 35 17 23 30 12 25 32 13 28 35 17 28 35 16 30 37 19 28 35 17
24 31 13 28 35 16 25 32 14 23 30 12 22 29 11 26 33 14 30 38 17
29 37 16 33 40 23 35 42 23 32 39 20 31 38 20 26 32 15 23 30 13
25 32 14 27 34 18 30 37 22 30 37 21 28 35 19 26 32 17 31 38 22
39 46 28 30 37 18 32 40 18 33 40 20 30 37 19 26 33 15 32 40 20
32 40 18 32 40 17 26 33 16 20 26 12 25 32 17 27 33 19 28 35 15
29 38 22 15 18 12 19 19 16 17 18 12 22 23 13 26 28 16 28 31 17
27 29 16 26 30 16 26 30 18 29 32 18 29 33 19 26 32 18 36 45 29
34 44 28 32 41 25 31 40 24 27 35 19 23 29 16 24 32 11 31 37 19
32 37 21 26 33 15 29 36 18 31 38 19 34 41 22 31 39 20 29 36 18
37 43 26 32 39 22 29 35 21 25 31 17 29 34 21 27 34 17 31 39 19
30 38 17 25 32 14 28 34 17 27 34 17 26 34 13 25 33 10 31 39 17
31 39 19 24 34 15 26 37 16 26 35 14 27 35 14 25 32 12 26 33 15
27 34 17 28 35 19 23 30 14 28 35 20 35 42 25 36 43 25 31 38 20
26 34 13 26 34 13 27 34 19 24 31 15 27 34 18 95 98 90 101 102 94
28 33 22 32 40 25 36 43 28 30 37 19 34 42 23 32 39 21 32 39 21
27 34 16 27 34 15 25 32 14 27 34 16 28 35 19 27 34 18 25 32 16
25 32 15 24 31 12 28 36 15 30 38 17 30 38 16 29 36 16 26 33 18
24 31 15 25 32 17 25 32 16 25 32 16 28 35 20 27 34 19 31 38 23
32 39 23 28 34 21 60 65 54 105 110 102 43 49 35 29 36 16 28 35 16
24 30 13 26 33 17 26 32 18 23 30 15 25 32 14 33 38 20 35 40 22
33 40 22 34 41 22 33 40 19 30 37 21 31 38 22 26 33 16 28 35 17
31 38 20 27 34 16 28 35 17 28 36 17 24 32 13 25 31 13 29 35 18
31 39 20 34 41 22 30 35 17 25 32 13 24 31 14 28 35 19 27 34 16
25 32 14 33 40 23 34 41 23 29 35 18 32 39 22 34 41 24 32 39 21
33 41 19 34 42 20 31 39 18 29 36 18 25 32 15 25 33 16 26 34 14
28 36 14 27 35 13 28 35 16 31 38 20 29 36 18 29 36 19 28 35 19
30 37 21 32 39 23 29 36 19 29 36 19 28 34 18 30 33 17 31 35 20
29 34 17 23 29 8 25 32 11 24 32 12 31 39 19 35 42 21 31 37 18
27 33 17 27 33 17 28 34 18 29 32 18 26 29 15 27 30 16 29 33 19
26 29 17 28 30 16 28 31 17 20 23 11 26 28 15 24 25 15 23 23 16
25 26 14 160 162 160 164 167 165 151 161 152 106 79 70 93 20 13
112 25 16 108 24 14 129 13 12 150 1 3 152 3 4 193 4 10 204 1 7
204 2 4 231 4 6 213 3 5 206 2 5 219 2 7 170 4 5 145 4 3 133 6 5
82 22 11 106 20 11 105 27 17 121 85 79 147 154 148 165 169 169
159 163 158 151 156 153 124 128 126 104 109 106 88 91 89 77 80 77
74 76 73 43 46 38 30 34 21 33 38 21 28 32 17 19 23 8 22 28 14
29 37 19 27 37 18 33 41 24 31 39 21 27 34 18 27 34 18 25 32 16
25 32 16 24 31 16 23 30 13 28 35 17 30 37 20 29 36 19 24 31 14
26 33 16 29 36 19 33 40 23 35 42 25 30 37 20 30 37 20 27 34 17
27 34 17 36 43 26 31 38 20 25 33 13 21 29 8 23 31 8 24 32 10 18 25 8
29 35 18 30 37 19 28 35 17 28 35 17 26 33 15 28 35 17 25 32 14
22 29 11 21 28 10 25 32 14 24 31 13 27 34 16 33 40 23 32 39 22
28 35 18 29 36 18 26 33 15 22 29 12 22 29 12 26 33 15 27 34 16
26 33 15 26 33 17 28 35 20 35 42 25 34 41 23 29 36 19 31 38 20
30 37 19 29 36 18 28 35 17 34 42 22 32 39 21 27 33 18 21 28 11
24 31 13 25 32 14 22 29 11 26 33 15 28 35 17 28 35 19 29 35 20
25 32 16 26 33 17 26 34 17 23 30 14 25 32 16 27 35 17 30 37 20
26 35 16 27 37 18 34 43 24 36 44 25 34 41 21 27 35 14 21 28 11
19 27 11 29 37 21 46 54 37 57 64 42 50 59 40 18 22 15 20 20 17
12 13 8 16 17 11 21 22 15 27 29 18 24 25 14 29 31 21 23 25 17
24 25 19 23 25 14 22 24 13 29 32 22 35 38 28 32 35 25 22 25 15
12 15 8 25 30 20 23 28 16 23 28 16 20 24 13 24 28 15 24 29 13
26 31 16 24 29 16 26 31 17 22 27 11 31 36 21 34 39 26 34 42 27
29 37 22 26 33 19 25 31 16 26 32 15 25 32 14 23 30 12 27 34 17
28 33 16 30 36 20 37 42 26 32 39 23 32 37 21 36 39 24 33 36 21
30 33 19 29 33 19 23 30 14 24 32 15 27 33 18 22 29 14 22 29 13
24 31 15 26 33 17 25 32 14 27 34 18 29 36 17 27 34 15 26 33 18
23 30 15 28 35 23 88 89 83 120 120 116 81 81 75 31 35 25 29 36 23
31 38 21 37 43 27 45 50 34 31 38 21 25 32 15 26 33 15 24 31 14
23 30 14 25 32 16 25 32 17 26 33 16 28 35 18 33 40 20 31 39 18
36 44 23 30 39 16 27 36 15 25 32 16 24 32 15 27 36 19 29 35 21
39 44 32 28 33 17 23 31 14 23 29 15 28 34 18 70 75 64 120 123 118
95 100 95 34 40 27 25 33 12 24 31 13 23 31 13 25 32 16 28 34 20
28 34 19 27 34 16 33 38 22 35 39 23 31 37 20 34 41 23 32 39 19
28 34 19 29 36 21 27 33 18 26 33 15 25 32 14 24 31 13 29 36 18
32 39 21 28 34 16 28 36 18 27 37 19 29 38 20 25 32 16 27 32 17
29 35 20 24 30 15 24 31 15 30 37 20 28 35 18 23 30 13 23 30 13
26 33 16 32 39 22 33 40 23 26 33 17 27 34 18 26 33 15 26 34 14
25 32 14 29 36 19 31 38 22 25 33 15 26 35 16 32 41 23 31 38 20
34 41 23 31 38 20 29 37 20 27 36 20 24 33 16 23 32 15 23 32 16
26 34 18 33 38 23 34 35 24 34 36 22 33 35 20 28 29 14 29 31 16
29 30 15 27 27 13 27 28 15 25 26 14 25 26 14 22 24 11 22 23 10
27 29 15 23 24 11 27 27 14 27 27 14 26 26 13 24 24 11 26 25 12
27 25 13 25 25 11 25 26 15 23 24 16 23 25 12 154 156 153 180 183 179
209 219 212 183 135 133 175 26 26 213 1 2 221 2 3 165 2 3 142 2 0
142 3 1 182 5 6 191 1 2 185 2 0 202 2 2 191 1 1 192 1 0 202 2 5
159 4 4 143 2 1 146 0 2 169 3 6 216 4 7 179 11 10 182 116 110
209 217 210 191 195 195 155 160 155 138 143 139 108 113 109 93 99 94
78 83 78 71 75 71 64 66 63 41 43 39 29 32 22 34 38 23 30 34 21
69 72 62 59 64 55 29 36 23 36 38 24 34 30 16 33 35 20 31 39 23
27 34 18 24 31 15 21 28 12 22 29 13 17 24 8 24 31 13 29 35 20
30 36 22 25 32 16 21 28 12 25 32 16 25 32 16 23 30 14 19 26 10
28 35 19 26 33 18 30 37 21 36 43 27 32 39 23 28 35 17 26 33 16
22 29 9 22 30 8 17 24 7 28 36 18 30 37 19 25 32 14 30 37 19 36 43 25
35 42 24 35 42 24 32 39 21 29 36 18 28 35 17 25 32 14 30 37 20
31 38 20 27 34 16 20 27 8 28 35 17 26 33 15 19 26 8 26 33 15 30 37 19
25 32 14 25 31 18 20 26 19 27 32 21 22 29 12 21 28 10 19 26 10
20 27 11 20 27 9 27 34 17 35 42 24 32 38 21 28 35 17 26 34 16
19 26 11 21 28 11 20 27 9 25 32 14 25 31 14 25 32 14 26 32 17
29 35 21 27 33 19 28 34 19 34 41 25 28 35 19 27 34 18 32 40 23
27 34 17 31 38 20 22 28 11 23 29 12 23 29 12 18 25 8 21 28 12
27 34 20 55 63 43 61 70 48 70 79 56 59 66 43 46 56 35 18 23 12
34 34 32 28 29 24 17 18 10 16 17 11 35 36 30 34 35 29 22 23 17
31 32 26 26 27 21 21 23 16 28 30 24 30 32 25 32 34 27 35 38 32
24 27 21 4 5 4 40 43 35 16 19 12 16 19 11 19 22 15 24 26 21 28 31 23
37 39 33 33 36 28 33 35 27 25 28 19 27 29 21 30 33 25 24 30 17
16 22 11 17 25 11 23 31 16 21 28 13 23 30 12 21 27 12 20 27 11
23 29 14 25 31 16 27 32 17 20 28 12 29 32 18 36 38 25 33 35 22
38 40 27 32 33 21 21 28 13 19 26 12 19 25 11 20 26 11 23 30 14
29 36 20 29 36 20 30 37 21 28 35 19 28 35 18 29 36 18 24 30 16
20 27 12 29 37 22 86 87 79 110 110 109 135 135 132 40 43 34 20 28 13
18 26 9 38 42 30 80 81 74 31 37 22 24 32 16 25 33 17 26 33 17
24 31 15 26 33 17 32 40 24 25 32 15 27 34 16 26 34 14 36 44 24
38 46 25 29 38 18 25 33 17 28 35 19 21 28 12 22 28 13 26 30 16
81 84 74 47 50 39 27 34 20 26 32 18 34 37 28 128 130 123 123 125 120
88 93 87 31 37 26 25 31 16 27 34 19 26 33 17 26 33 17 22 28 14
19 25 11 22 29 13 32 37 22 32 36 21 30 37 19 24 31 13 26 33 14
28 34 20 25 30 17 22 28 14 26 33 16 25 33 14 29 36 19 31 38 20
30 37 20 29 36 18 30 37 20 26 33 17 33 39 24 25 32 16 25 32 16
23 30 14 22 29 14 27 33 22 26 33 18 32 39 23 28 35 19 25 32 17
28 35 19 27 34 18 26 33 17 23 30 15 21 28 13 21 28 11 23 30 12
18 25 8 19 26 10 24 31 15 28 36 21 30 38 23 32 39 24 23 31 13
24 31 13 26 33 15 25 32 14 24 30 14 32 39 23 25 32 16 25 31 15
29 34 22 30 33 21 25 25 15 20 21 9 27 27 14 26 20 12 27 23 14
27 23 14 27 23 14 27 24 14 28 24 13 27 23 12 27 23 12 29 25 14
29 25 14 28 25 14 31 28 17 28 26 14 30 28 15 31 28 16 30 28 15
35 33 20 28 26 13 29 25 16 28 24 17 28 27 16 126 128 125 151 153 150
181 184 180 194 201 200 183 97 97 213 0 0 226 4 3 170 3 2 153 2 1
142 1 1 157 4 2 191 3 3 205 3 3 188 5 2 203 4 4 198 3 2 174 3 3
148 3 2 151 2 2 166 2 1 196 4 3 219 1 3 173 44 41 191 194 186
183 190 184 155 159 162 129 133 131 111 115 113 102 107 101 96 101 94
77 83 73 52 57 48 32 37 28 30 33 22 21 23 11 21 24 14 89 92 83
136 140 131 107 113 104 26 32 22 27 29 19 34 34 23 29 32 21 34 40 26
29 36 20 29 36 20 24 31 15 23 30 14 23 30 14 21 28 11 27 34 18
27 34 18 25 32 16 26 33 17 28 35 19 31 38 22 31 38 22 28 35 19
29 35 21 28 34 20 22 28 14 32 38 26 33 40 24 27 34 16 20 27 11
22 29 12 19 26 8 19 27 10 23 32 15 28 34 19 26 32 18 24 30 15
27 33 19 29 35 20 22 28 13 20 26 11 25 31 16 28 34 19 28 34 19
28 34 19 30 37 21 28 35 19 25 32 15 23 30 14 19 26 10 28 35 19
32 39 22 27 34 17 25 32 16 30 36 24 28 34 24 30 36 22 32 39 24
26 33 17 27 34 18 27 34 18 31 38 22 30 37 20 24 31 15 21 28 12
26 33 16 23 30 14 23 30 14 28 35 19 29 36 20 27 34 17 25 31 16
24 30 16 24 30 19 23 29 18 25 31 20 24 30 16 25 31 16 28 35 19
31 37 22 31 37 23 27 36 19 26 29 14 22 24 10 24 25 12 29 33 17
42 52 34 49 59 38 48 53 35 76 78 56 61 64 43 70 74 51 61 67 45
35 39 25 25 28 20 28 28 28 27 27 24 28 29 24 10 11 6 23 24 19
38 39 34 27 28 23 31 32 27 26 27 23 15 16 11 15 17 11 18 20 15
17 18 14 25 26 21 21 22 18 9 10 6 41 42 37 28 29 23 25 27 21 26 28 25
19 21 18 28 30 26 33 35 31 40 42 37 36 39 29 46 48 38 43 45 34
40 42 33 37 38 29 19 20 16 12 12 7 14 16 6 16 18 9 13 15 6 19 21 13
27 29 21 28 29 23 26 28 18 36 38 24 30 34 22 29 31 24 34 36 27
30 32 19 21 22 13 30 32 19 26 28 15 26 31 17 24 32 17 22 29 14
19 28 13 27 33 19 27 33 19 26 33 19 27 33 22 33 40 27 33 40 24
30 36 22 25 31 17 27 33 22 81 83 78 103 104 103 129 130 128 88 90 84
37 41 30 32 35 23 71 72 64 108 108 99 40 43 33 27 29 20 24 28 19
23 27 17 24 29 19 30 39 20 29 39 22 23 33 16 26 32 16 20 29 13
27 35 20 29 38 23 26 29 16 25 27 15 25 32 16 24 29 11 25 28 11
30 33 20 102 106 96 93 96 87 35 39 29 35 38 29 80 82 77 127 129 125
115 117 112 87 91 86 30 38 27 20 26 15 26 34 18 24 31 16 26 32 17
28 34 23 29 36 24 29 35 20 33 38 23 28 32 17 28 35 19 26 32 17
24 30 16 22 28 17 23 29 19 23 29 18 23 29 15 18 24 9 23 30 14
30 36 21 29 36 21 24 31 15 23 30 14 25 31 17 26 32 17 23 29 14
27 33 18 29 36 20 29 35 20 29 35 21 32 38 23 33 39 24 32 38 23
28 35 19 26 32 16 24 28 12 27 33 15 28 34 17 33 38 22 38 43 27
42 47 30 45 50 33 43 52 37 45 53 35 16 17 9 14 15 7 17 18 10 19 21 12
20 23 13 24 27 16 24 26 16 25 25 16 25 25 16 23 23 15 25 25 13
24 25 13 25 26 15 24 25 12 25 27 13 22 24 11 25 25 13 23 23 10
21 21 8 27 25 13 27 23 12 27 22 12 26 22 14 29 25 18 32 29 21
31 27 20 28 25 17 29 27 19 29 26 18 28 26 18 28 25 18 33 30 22
33 30 22 29 26 19 32 28 21 32 28 21 30 26 19 109 110 107 114 115 113
135 137 136 151 162 160 167 83 83 215 0 0 223 4 3 175 3 2 177 2 4
170 3 5 169 4 3 176 2 2 196 3 4 210 5 7 200 3 6 181 2 4 174 5 2
168 3 1 174 1 1 175 1 1 195 4 2 218 0 1 170 40 42 150 158 151
133 139 134 115 118 122 105 109 109 105 110 107 104 110 103 87 97 89
99 57 50 48 30 21 11 23 9 23 24 12 61 62 52 91 93 86 134 136 128
108 111 103 66 71 61 29 34 24 23 28 18 23 29 20 25 30 20 23 28 16
29 35 20 31 37 21 25 32 16 21 28 13 21 28 12 19 25 10 22 29 14
26 33 17 28 34 19 26 33 17 26 32 17 27 34 18 28 35 19 23 30 14
22 28 14 25 30 17 24 30 16 27 33 21 24 31 16 26 33 16 24 31 15
24 31 15 16 22 6 24 29 13 32 36 22 28 34 20 25 31 17 25 31 17
26 32 18 25 31 18 21 27 13 25 31 17 25 31 17 27 34 20 28 34 20
24 30 16 23 29 14 23 30 15 25 32 17 19 25 10 25 32 16 30 37 21
27 34 18 25 32 17 24 31 15 22 28 15 21 27 16 23 29 17 24 31 16
25 32 17 26 32 17 28 35 19 30 37 22 25 32 18 21 28 13 21 28 13
23 30 15 24 31 16 28 35 19 25 32 16 26 33 17 30 37 22 27 33 18
23 30 15 26 31 21 27 33 23 26 32 22 24 30 18 24 32 18 26 33 18
19 26 11 19 26 11 19 28 12 27 29 16 26 27 15 30 32 18 53 56 37
65 77 51 64 75 50 47 51 33 69 73 47 60 64 39 66 70 47 57 61 40
27 30 18 29 31 23 27 28 24 22 23 18 31 32 27 21 22 17 24 25 20
32 33 28 34 35 30 24 25 21 21 22 17 25 26 21 19 20 15 20 22 21
23 24 22 28 29 24 14 15 10 13 14 10 44 45 40 30 30 27 27 28 25
27 29 26 26 28 25 25 27 24 27 29 28 36 39 37 33 35 31 44 46 33
41 42 35 36 37 32 31 32 25 19 20 14 8 9 4 16 17 12 17 17 13 16 17 12
20 21 17 28 29 26 28 29 23 39 40 30 38 40 29 45 48 36 43 44 41
37 38 32 32 34 24 14 16 9 40 42 30 42 44 30 44 49 32 37 43 28
27 31 20 36 40 28 31 37 24 29 34 22 31 36 24 25 30 21 23 28 20
19 23 14 12 17 4 10 15 5 23 28 18 67 69 64 85 87 85 120 122 120
137 139 135 124 126 120 111 111 110 110 110 107 122 122 116 40 47 39
20 28 18 22 30 21 22 31 20 25 28 19 36 31 19 32 28 16 33 31 18
41 33 21 34 32 19 38 35 23 36 35 22 35 32 18 28 31 13 24 30 14
26 30 14 21 26 13 27 33 27 111 120 115 115 119 112 104 106 101
121 123 118 137 139 134 123 125 119 99 101 96 69 74 68 27 35 23
21 26 16 26 33 18 27 33 19 24 30 18 27 33 22 30 36 26 29 35 21
28 33 18 28 33 17 24 31 15 26 32 17 24 30 17 24 30 19 23 29 19
26 32 22 28 34 21 26 32 19 24 31 16 27 34 19 23 30 15 23 31 15
25 31 17 20 26 14 21 27 15 22 28 15 19 25 12 22 27 13 22 27 13
25 27 16 25 28 17 24 26 16 21 23 11 25 30 16 46 50 36 54 58 40
59 58 42 63 59 44 67 71 47 74 79 55 71 75 53 75 78 58 59 64 48
59 69 50 24 24 17 24 24 17 13 14 8 22 23 20 24 26 20 25 25 20
28 28 23 26 26 22 12 12 8 19 18 14 27 26 18 24 26 13 25 27 13
24 26 13 26 28 15 23 24 12 24 24 12 26 27 15 25 24 13 26 23 12
26 22 11 28 24 13 26 22 15 25 22 15 25 22 15 27 24 17 24 21 15
26 22 16 28 25 18 23 20 13 26 23 17 28 25 18 27 24 17 26 23 17
27 24 17 25 22 15 25 22 15 106 109 106 107 108 109 105 113 118
136 96 97 182 31 34 208 1 1 194 4 2 181 3 2 206 1 6 205 1 5 195 0 2
170 2 1 156 1 2 185 3 7 155 1 3 166 1 2 186 2 2 194 2 1 202 2 4
175 2 1 183 3 1 207 2 1 188 18 20 139 90 87 106 116 112 102 107 109
103 109 109 96 103 100 86 97 92 98 57 61 145 15 10 142 10 9 79 54 48
74 76 71 131 132 126 144 145 140 109 110 105 103 104 99 40 43 34
22 25 16 25 28 19 23 26 17 29 32 23 29 32 23 27 30 19 31 35 22
29 35 21 21 27 13 20 26 12 22 28 14 21 27 13 27 33 19 25 31 17
23 29 15 25 31 17 27 33 19 25 32 17 25 32 16 25 31 20 28 33 23
27 33 22 29 34 24 27 33 22 25 31 17 21 27 13 21 27 13 18 25 10
24 29 16 29 33 24 28 33 23 26 32 22 25 31 20 28 34 23 25 31 20
21 26 16 25 31 20 24 30 19 28 34 24 27 32 22 25 31 20 24 31 16
23 29 16 18 24 10 23 29 15 30 36 22 28 34 20 24 29 15 25 31 17
27 33 19 25 31 17 23 29 15 25 32 18 25 32 16 28 34 20 29 35 21
24 30 16 21 27 13 20 26 12 18 24 10 23 29 15 27 33 19 25 31 17
25 31 17 21 27 13 22 28 15 22 28 14 22 28 13 24 31 17 27 33 23
26 32 21 27 33 23 27 34 24 26 33 22 23 26 13 18 24 11 21 27 13
40 50 34 55 58 44 36 38 29 32 34 21 44 47 30 64 76 51 54 65 39
41 45 29 73 77 53 64 68 42 64 68 44 52 55 35 37 39 27 36 37 30
29 31 26 24 25 20 32 33 28 42 43 38 35 36 31 35 36 31 41 42 37
35 36 32 34 35 30 46 47 40 33 34 27 26 29 23 33 34 29 26 27 22
15 16 11 11 12 8 38 39 34 33 34 29 27 29 24 26 28 25 29 31 28
27 29 26 25 27 24 27 30 27 38 39 37 43 44 36 37 38 33 27 28 23
27 28 23 14 14 10 12 13 8 12 13 8 16 17 12 17 17 12 18 20 15 25 27 22
26 27 22 35 36 31 37 38 32 43 43 35 39 40 34 34 37 28 26 30 19
11 14 8 40 43 34 47 49 37 48 50 36 40 44 31 28 31 22 39 42 34
38 41 32 43 46 37 31 34 25 25 28 21 27 29 23 15 17 13 14 17 9 11 13 7
17 20 12 32 35 28 72 74 70 99 101 97 122 124 121 135 137 135
139 141 138 116 120 115 92 97 94 87 59 59 54 20 18 50 18 16 48 20 18
94 17 16 195 8 11 196 6 14 192 5 11 216 20 25 222 29 33 190 8 10
153 8 8 151 8 6 111 21 7 45 26 7 48 27 12 53 24 14 76 42 34 98 96 90
105 109 103 136 138 131 136 138 133 126 127 122 104 106 99 84 86 82
45 47 43 24 27 19 26 29 20 26 32 22 22 28 16 22 28 18 26 32 22
28 34 23 26 33 18 23 28 13 26 31 16 23 30 14 23 30 15 25 31 17
22 28 18 23 29 19 27 33 23 29 35 25 27 33 22 23 29 15 27 32 17
26 30 15 38 42 28 38 44 28 38 45 29 45 52 36 48 53 35 50 55 32
52 55 37 27 27 18 23 20 12 25 23 14 37 35 27 37 37 29 34 35 24
51 53 41 55 59 39 61 64 44 72 73 54 65 69 39 73 77 51 72 76 53
67 71 50 60 64 46 53 60 41 24 23 16 27 27 20 16 17 10 20 21 17
30 31 26 27 28 23 27 28 23 29 30 26 19 20 16 18 18 12 27 27 19
22 24 12 25 27 14 27 29 16 26 26 14 26 26 14 26 26 14 29 29 16
26 26 14 25 25 13 25 22 11 30 26 15 33 30 22 27 24 17 25 22 15
27 24 17 26 23 16 27 24 17 29 26 19 27 23 17 25 22 15 27 24 17
26 23 16 26 23 16 27 24 17 26 23 16 25 22 15 94 87 78 97 95 88
121 73 77 166 22 24 188 0 1 184 2 4 170 2 1 176 2 1 198 3 2 205 3 5
197 1 4 163 3 3 140 1 2 128 3 2 131 3 1 161 3 3 196 2 5 201 1 3
192 1 4 187 2 2 186 2 3 185 2 2 183 2 3 164 20 24 127 70 67 95 95 90
89 90 87 102 68 62 138 37 28 146 15 15 178 0 4 169 34 37 132 105 106
136 133 133 147 143 142 120 119 116 98 98 94 61 62 57 30 32 26
25 28 20 26 29 20 24 27 18 22 25 16 26 29 20 27 30 21 28 31 21
28 32 21 24 28 17 23 26 16 21 24 17 20 23 15 23 27 19 23 31 19
22 30 18 24 32 20 23 29 18 22 28 17 22 28 17 22 28 18 27 33 23
24 30 20 27 32 24 25 30 22 21 27 15 21 27 15 20 26 15 18 24 13
23 29 18 24 31 22 24 32 22 21 28 19 27 33 24 27 33 24 24 30 21
23 29 19 22 28 18 23 29 20 29 34 25 25 31 21 22 28 19 20 26 16
20 25 15 22 28 17 26 32 21 25 31 20 25 31 20 25 31 20 24 30 19
23 29 18 23 29 18 20 26 15 25 31 21 25 31 20 23 29 17 21 27 16
21 27 16 19 25 14 19 25 16 20 26 17 24 30 19 21 27 16 26 32 21
24 30 19 21 27 15 22 27 16 24 30 19 24 30 19 25 30 21 26 31 24
23 29 22 18 24 17 23 23 13 25 27 15 41 42 29 36 39 28 36 41 25
60 66 45 66 70 50 30 32 22 28 29 19 42 45 31 65 75 52 49 59 31
34 39 23 71 76 53 50 55 33 53 57 35 49 53 32 49 52 35 39 40 33
35 36 31 32 33 28 35 36 30 35 36 32 34 35 31 35 36 31 39 40 35
38 39 34 38 39 34 52 54 43 53 56 41 39 42 30 35 36 30 39 40 35
30 31 26 17 18 13 35 36 31 28 29 23 26 27 22 32 33 29 38 39 34
30 31 26 28 31 25 23 25 23 37 39 36 43 44 39 37 38 32 33 33 30
24 25 21 15 16 11 14 15 10 13 14 10 15 16 10 15 16 11 17 18 14
25 26 21 29 30 25 29 31 26 35 36 31 41 42 35 35 36 30 27 29 22
20 22 13 13 15 8 27 30 21 47 49 37 42 45 31 35 37 23 27 29 17
35 37 26 38 39 31 36 38 33 28 31 25 27 29 25 24 25 22 12 12 11
22 23 19 18 19 14 11 13 6 28 29 24 69 70 68 80 80 83 96 96 97
118 120 116 137 139 135 151 153 156 155 151 153 170 76 77 168 8 12
197 2 2 202 1 2 191 3 2 199 3 3 214 4 6 205 5 3 205 4 4 215 3 6
187 1 3 173 1 2 159 1 2 145 2 1 148 4 3 169 5 7 169 2 5 168 42 38
167 144 143 151 156 153 142 145 138 123 123 120 104 104 100 80 81 81
70 75 76 39 41 38 22 25 19 27 30 21 28 30 25 28 31 25 26 29 22
26 30 22 26 30 21 21 26 15 20 24 11 25 30 15 25 32 16 27 34 20
36 42 29 36 40 28 28 31 23 20 24 16 48 53 39 23 28 13 36 40 23
35 40 25 50 54 39 61 68 49 64 68 48 59 64 41 72 77 56 66 73 50
58 66 42 54 62 42 28 31 19 16 18 9 29 29 20 29 28 19 27 27 19
33 33 24 46 47 34 52 54 36 55 60 41 62 71 50 63 66 44 69 73 50
68 73 50 55 60 38 45 49 32 34 36 25 20 19 14 23 22 17 23 24 18
17 18 13 26 27 22 30 31 26 26 27 21 32 33 27 24 25 21 13 13 6
25 21 12 23 22 10 24 24 12 24 24 15 24 25 13 26 27 14 24 24 15
25 25 16 23 23 14 21 21 12 24 23 14 23 21 13 28 21 15 30 23 18
30 23 18 30 25 16 27 23 12 26 25 15 27 26 19 28 27 19 27 26 19
26 27 17 26 26 15 24 25 14 25 24 15 25 22 15 25 22 15 168 19 15
165 22 17 173 12 15 178 1 1 173 1 1 173 1 2 176 1 2 187 2 3 184 2 3
178 1 1 175 2 1 144 1 1 120 1 2 109 3 2 116 1 1 141 1 1 171 2 2
181 1 2 193 3 3 224 4 6 216 4 4 174 1 1 167 2 2 176 0 4 177 10 7
169 21 18 166 21 18 169 15 11 169 2 1 142 3 1 190 1 3 156 64 59
115 127 120 127 133 129 105 110 106 91 94 91 81 83 79 24 25 20
20 22 18 25 28 20 26 29 19 23 26 17 27 30 21 25 28 19 23 26 17
24 26 18 25 27 21 27 29 23 24 27 21 22 23 18 22 24 19 18 20 15
23 26 20 24 27 21 24 27 21 25 29 21 23 28 19 20 26 15 20 26 16
22 27 18 22 28 18 27 32 24 24 29 21 19 24 17 18 23 16 18 23 16
19 23 17 26 30 21 26 30 20 23 26 17 26 30 20 23 29 19 20 25 15
22 28 18 24 30 20 23 29 19 25 30 21 23 28 18 18 23 14 21 26 17
19 24 16 22 27 19 23 28 19 24 29 20 23 29 19 24 30 20 24 29 19
19 24 15 20 26 16 24 30 20 23 29 19 21 26 19 23 29 21 23 29 22
19 25 17 18 23 16 22 28 21 21 27 18 19 25 17 27 32 24 23 29 21
23 28 21 22 27 20 20 26 19 24 29 23 27 31 25 21 26 20 17 22 15
17 22 16 20 26 17 28 35 23 25 26 16 34 36 24 43 45 30 37 40 28
41 45 27 54 59 36 59 63 42 27 28 17 28 30 19 47 49 35 62 71 50
58 68 38 42 49 31 71 77 54 62 67 45 59 64 43 53 56 39 45 47 31
31 32 26 23 23 20 19 20 16 17 17 14 26 27 21 28 29 23 28 29 24
24 25 21 26 27 22 30 30 26 43 44 33 53 56 40 44 47 34 31 33 23
37 39 29 31 32 27 19 20 15 38 39 34 27 28 23 24 25 20 31 32 27
32 33 28 29 30 23 31 34 28 29 31 28 36 38 35 42 44 38 37 38 31
32 32 28 35 36 31 23 24 19 13 14 9 11 12 8 14 15 9 14 15 9 17 18 14
21 22 16 26 27 22 25 27 21 40 42 37 41 42 36 35 36 30 28 29 23
20 22 14 14 16 10 25 28 19 47 49 37 43 46 32 34 36 22 35 37 24
46 48 35 35 36 27 28 29 26 27 29 27 22 24 22 12 13 10 85 86 82
89 90 86 21 21 18 18 18 14 14 16 11 45 45 45 71 72 77 82 86 86
97 99 94 115 117 112 148 150 150 187 190 191 203 217 213 172 88 89
204 0 0 206 3 2 189 3 2 172 3 2 159 3 2 186 3 2 189 4 1 185 2 2
197 1 2 172 3 1 146 4 2 151 1 2 177 4 4 207 2 3 169 39 36 195 179 170
199 202 199 163 166 163 124 128 121 105 104 103 89 91 86 67 74 72
56 64 66 27 30 27 22 24 20 16 18 15 77 79 77 104 106 104 31 33 29
23 25 20 31 35 25 31 37 23 39 44 30 33 37 22 33 40 24 46 53 37
46 52 35 55 59 42 40 44 29 18 21 13 55 60 40 33 36 18 44 48 27
40 46 25 45 52 32 47 55 34 63 68 44 59 64 38 69 73 52 58 65 42
48 56 34 43 53 35 18 21 12 21 22 13 23 23 15 28 28 20 28 28 20
32 32 23 38 39 26 55 57 39 53 58 41 46 53 32 68 72 48 70 75 50
64 70 43 65 70 49 53 57 39 46 49 35 31 31 24 23 23 18 33 34 28
31 32 27 30 31 26 31 33 28 38 35 28 58 51 43 12 13 9 15 13 9 28 21 16
24 18 10 25 21 13 24 24 16 22 23 12 27 29 18 23 22 14 22 21 14
24 23 15 27 26 18 24 22 14 23 22 15 26 22 15 30 27 19 36 33 25
33 32 20 29 29 17 25 25 18 14 14 9 15 15 7 15 16 7 22 23 13 30 32 21
27 30 22 33 33 25 63 60 52 26 22 16 168 0 2 161 0 0 160 2 2 158 1 2
169 1 2 186 1 5 200 1 4 217 2 10 214 5 9 198 4 4 186 3 3 154 3 5
126 2 2 111 2 3 128 1 2 148 1 2 174 0 3 195 0 4 223 3 5 233 4 6
228 2 4 188 2 1 176 0 1 165 2 1 158 2 1 166 2 1 170 2 2 173 0 1
147 1 1 138 2 2 189 3 3 194 28 29 124 95 84 100 101 97 90 87 84
76 70 68 45 43 43 24 25 22 19 21 16 22 24 19 24 26 17 22 25 15
25 28 19 24 27 18 24 27 18 25 28 19 25 28 19 26 29 20 29 32 23
24 25 20 23 24 19 21 22 17 21 23 19 24 26 22 25 27 24 24 26 21
24 26 18 26 30 15 25 28 21 27 30 23 28 31 23 25 27 23 22 24 21
23 25 22 21 24 20 20 22 18 21 24 18 25 27 20 25 26 19 26 28 20
30 32 24 28 31 22 24 27 18 22 25 16 22 25 16 24 27 18 23 26 17
23 26 17 21 24 15 21 24 15 23 26 17 27 30 21 27 30 21 25 28 19
24 27 18 22 25 16 23 26 17 25 28 19 25 28 19 25 30 20 24 30 20
16 23 13 15 22 11 16 25 14 18 27 16 23 31 20 19 27 17 21 29 19
25 33 22 23 29 20 21 27 17 21 27 17 25 31 21 25 30 22 19 25 17
21 27 19 20 26 20 22 27 21 39 46 27 48 58 35 45 52 30 31 33 20
40 43 27 27 30 14 36 40 23 49 54 32 52 57 35 56 60 38 26 28 16
25 27 16 36 39 24 62 73 51 59 68 40 39 45 29 50 54 39 43 47 34
41 44 31 46 50 34 54 56 45 42 43 32 39 40 30 39 40 31 32 34 24
26 28 16 37 39 27 35 37 26 34 36 27 34 35 26 28 29 20 24 26 17
28 30 21 30 31 20 25 27 15 31 33 21 25 26 20 25 26 20 28 29 23
24 25 21 19 20 16 26 27 22 22 23 18 21 23 17 23 25 22 23 24 22
27 29 26 32 33 28 30 32 24 26 26 22 32 33 28 24 25 20 12 13 8 11 12 7
11 12 7 14 15 10 19 20 16 15 16 10 14 15 10 28 29 22 41 42 38
45 46 41 38 39 34 31 32 27 33 34 30 17 19 12 33 37 27 45 49 37
47 51 37 36 40 25 31 33 22 35 36 26 27 28 20 29 30 27 27 29 26
17 17 15 23 23 20 88 89 84 127 127 124 92 92 89 32 33 28 26 25 19
66 26 21 90 54 49 79 90 84 101 103 101 106 108 105 118 121 117
145 147 143 166 177 174 170 102 101 217 0 2 210 1 5 172 3 1 154 4 1
158 2 2 191 3 4 204 4 3 201 2 4 207 2 4 168 4 2 147 5 3 160 3 2
191 3 5 221 0 4 183 48 49 171 175 174 151 153 148 126 131 127
106 109 105 104 106 104 83 94 87 68 62 57 41 31 29 26 28 23 32 34 30
50 52 49 116 118 115 102 104 100 46 49 42 18 20 13 25 29 19 43 51 34
32 37 22 40 45 30 21 28 13 23 30 15 19 26 10 36 40 23 29 33 18
29 32 20 60 65 45 43 46 32 43 47 26 48 52 30 48 53 31 45 53 30
55 62 38 70 76 51 67 72 50 57 63 41 45 53 33 28 38 21 21 24 14
22 22 14 21 21 13 23 23 15 25 25 17 26 27 16 35 34 22 43 37 25
47 50 35 54 60 40 73 76 52 74 79 52 72 79 46 62 67 46 64 69 45
65 70 48 35 35 27 28 28 21 29 30 24 28 29 24 30 31 26 35 36 32
52 49 43 51 44 37 7 9 4 18 17 13 30 26 23 62 60 54 38 37 31 24 21 15
43 42 34 59 58 51 65 63 56 54 54 47 41 42 36 30 30 25 53 53 46
57 57 48 59 61 48 62 63 51 53 55 44 43 45 34 37 39 29 22 23 16
41 42 34 14 15 7 9 10 1 22 21 14 21 20 14 35 35 28 55 54 46 91 88 80
66 61 56 142 1 0 151 2 3 170 3 5 172 2 2 178 3 4 198 2 4 215 1 6
228 1 6 234 2 3 225 1 4 201 2 3 172 2 3 145 2 1 117 3 1 145 2 2
174 1 5 197 1 4 218 2 3 235 7 8 245 20 22 237 2 6 214 2 3 184 2 1
157 2 1 125 3 1 119 9 3 126 9 4 132 2 1 139 3 2 172 5 5 190 3 2
208 2 4 190 17 17 163 21 19 150 18 17 146 16 16 51 25 22 26 29 24
20 25 22 11 13 10 31 33 28 29 32 25 31 34 27 30 32 26 22 25 18
24 27 20 16 19 13 9 11 6 12 12 8 13 12 8 14 14 9 12 12 9 11 12 12
12 14 13 13 15 13 14 16 13 14 16 12 14 16 9 14 16 12 16 18 14
19 21 17 21 23 21 19 20 19 20 22 20 19 21 19 19 21 19 22 24 21
21 22 19 21 21 17 23 23 19 25 26 20 22 24 17 22 25 17 23 26 18
26 28 19 24 26 17 22 24 14 21 23 14 22 24 14 23 25 16 25 28 18
24 26 16 22 24 15 25 28 18 23 26 17 23 26 17 27 30 21 27 30 21
26 29 20 22 26 17 17 24 14 18 21 13 22 23 16 22 24 17 24 26 18
25 27 18 21 23 14 21 24 15 24 27 19 23 27 19 24 29 20 22 26 17
19 23 14 21 26 13 24 29 15 25 29 15 43 47 33 44 50 35 58 64 43
52 59 35 36 44 20 31 36 19 42 45 28 44 47 30 35 39 22 47 52 31
53 58 37 62 66 43 31 33 20 23 25 13 28 31 16 45 52 35 44 52 30
45 52 35 40 44 30 31 35 22 44 49 30 64 69 46 61 64 44 44 45 35
46 49 38 50 54 39 35 38 26 29 31 21 50 54 36 49 53 36 51 55 35
48 51 37 37 39 26 28 30 20 31 32 25 36 38 29 47 49 38 50 52 39
36 36 31 41 43 36 41 44 36 41 43 35 30 32 26 26 27 22 34 35 30
34 35 31 32 34 32 35 37 35 26 28 24 26 27 22 30 31 25 30 31 26
25 26 21 25 26 21 26 27 22 24 25 22 16 17 14 14 15 13 24 25 22
21 22 16 18 19 14 20 22 17 23 25 22 29 31 27 27 28 24 25 26 21
25 26 21 16 17 12 31 33 27 33 35 28 38 40 32 37 39 27 32 33 26
34 35 30 30 31 26 33 35 30 27 29 24 23 25 19 27 29 23 35 36 32
102 103 101 121 123 120 111 114 112 69 62 53 152 27 23 159 8 6
102 52 45 86 95 87 99 106 102 103 107 102 108 110 105 118 129 124
155 81 78 205 1 1 193 5 2 184 3 1 193 2 1 191 2 1 171 4 3 187 3 5
197 4 4 174 2 4 178 4 3 195 3 3 188 2 3 184 2 2 203 1 2 179 40 43
129 133 130 111 112 107 108 109 104 105 104 103 90 101 99 91 68 57
149 11 10 141 11 13 56 54 51 103 107 104 130 132 129 108 110 107
50 53 44 36 41 23 28 33 18 13 17 6 40 46 29 40 44 29 31 35 20
35 40 24 27 32 16 36 41 25 38 42 26 22 26 14 31 35 21 47 53 34
41 47 28 43 50 29 53 59 37 50 58 35 46 54 31 51 57 34 66 71 48
63 68 45 57 63 40 54 60 38 53 64 43 34 38 23 20 20 11 23 23 15
21 20 16 21 20 16 35 35 24 31 30 19 32 25 18 35 35 26 50 58 41
55 58 40 55 58 41 50 54 37 41 45 32 52 56 39 48 52 36 32 34 25
20 21 15 17 18 14 21 23 17 28 29 24 41 42 36 36 34 30 26 22 17
11 12 8 21 21 16 46 45 37 49 50 42 38 39 30 44 43 35 55 53 43
80 73 65 83 76 67 80 77 66 74 70 60 63 57 51 67 67 60 63 64 57
65 66 58 74 75 68 48 49 45 26 27 23 29 29 22 17 17 11 51 52 41
33 34 29 9 10 4 10 12 5 44 40 32 78 68 57 37 30 23 43 41 35 87 81 75
130 4 2 144 1 3 157 1 2 166 1 1 175 2 2 203 1 4 227 10 15 241 11 14
236 1 3 225 0 3 205 4 3 182 2 2 163 1 1 133 4 2 160 2 1 181 1 3
214 6 7 236 2 3 245 7 7 249 25 23 234 2 4 206 1 1 175 1 2 150 6 4
116 13 7 111 14 8 119 10 7 128 10 7 144 14 10 181 6 8 192 3 3 187 2 0
177 0 0 160 1 0 158 0 0 182 4 4 160 15 11 51 26 22 18 24 22 9 12 10
31 33 28 32 34 29 35 37 32 34 36 31 23 25 20 23 25 20 19 21 16 9 10 5
13 13 8 14 13 9 12 11 7 14 14 9 14 14 10 12 13 9 11 12 9 10 12 9
10 12 9 12 13 11 12 13 10 9 11 8 14 16 13 11 13 9 10 12 9 16 18 14
18 20 17 18 20 17 17 19 16 17 18 14 17 18 13 22 23 18 24 25 20
23 24 19 12 14 9 19 21 14 19 20 14 19 20 15 22 23 17 23 24 18
21 22 16 22 23 17 24 25 20 25 26 20 26 27 22 18 21 13 19 22 14
21 23 15 24 26 18 24 27 19 22 24 16 20 24 15 19 26 16 22 23 18
26 26 21 24 25 19 23 25 17 22 25 16 20 22 14 24 27 18 24 27 19
21 24 15 23 26 18 21 24 16 22 25 16 36 39 25 52 56 41 30 34 19
49 53 37 45 49 33 57 61 41 52 58 35 30 37 17 44 50 29 51 56 36
57 59 42 47 52 33 45 50 30 48 53 34 51 55 33 31 34 19 32 34 22
43 46 30 58 62 43 62 70 45 65 72 49 56 60 40 29 34 17 46 51 31
58 63 40 60 63 43 36 38 28 40 43 34 45 49 35 32 35 25 27 30 21
50 55 36 50 55 34 44 48 28 41 42 32 34 37 24 29 31 22 34 35 30
33 34 28 52 54 44 50 52 39 34 35 30 38 40 32 41 44 35 43 46 37
26 29 22 22 23 18 36 37 32 33 34 29 34 37 33 34 37 33 34 36 32
33 34 29 33 35 30 30 31 26 26 27 22 34 35 30 45 46 41 41 41 38
33 34 31 17 19 17 33 33 30 38 39 33 36 37 32 37 38 35 30 32 29
30 32 29 31 33 28 26 27 22 24 25 19 28 29 25 26 27 23 23 24 19
15 16 11 18 18 14 16 17 12 19 20 15 24 25 20 28 30 24 25 28 21
22 25 18 22 24 18 26 27 23 80 82 79 108 109 107 140 142 140
128 138 134 124 92 89 176 12 13 161 4 5 117 44 46 107 77 76 88 98 89
93 100 95 97 107 104 157 54 49 189 0 0 173 2 1 188 2 1 204 0 0
195 2 2 169 2 2 144 4 3 147 3 3 155 2 2 192 2 3 201 1 3 182 2 2
174 1 2 185 1 0 181 25 28 118 95 90 93 101 95 93 101 97 104 81 82
113 52 54 147 14 9 183 7 5 158 51 50 126 125 125 140 145 142
119 122 118 85 88 84 49 52 41 32 37 15 47 51 31 42 46 29 44 49 26
55 59 43 45 49 33 64 69 46 56 61 39 49 54 33 49 53 34 39 44 28
38 42 26 46 54 33 38 46 25 43 51 30 47 55 32 47 55 32 50 58 36
51 57 35 56 62 39 60 66 41 53 59 35 46 51 29 46 56 33 32 36 21
20 22 11 21 21 13 24 24 18 26 24 17 43 43 31 45 45 35 41 40 31
43 45 34 42 51 35 39 43 29 44 48 34 47 52 36 49 54 38 61 66 47
53 58 37 55 57 43 41 43 36 27 30 25 32 33 28 35 36 30 44 45 40
28 28 25 10 10 6 19 19 15 30 30 27 43 42 36 46 48 40 54 57 45
61 61 48 78 76 63 92 86 76 89 85 73 71 66 54 83 73 63 92 84 73
80 80 72 60 61 55 63 65 59 70 71 66 46 47 42 26 28 22 41 42 32
47 42 30 51 52 41 23 24 21 9 9 6 11 11 8 20 20 14 36 33 26 43 43 31
61 63 48 70 70 59 116 11 8 121 16 12 128 11 8 142 3 3 145 4 2 172 4 3
206 5 5 241 18 22 249 24 27 225 12 11 192 1 1 184 1 1 180 2 2 150 2 4
178 2 2 186 1 1 206 4 5 245 20 22 249 22 23 233 9 6 211 5 3 171 5 1
142 6 1 120 13 9 113 20 18 117 19 16 114 14 11 117 17 17 136 30 25
146 13 14 159 3 3 170 3 5 157 3 3 173 3 6 179 4 6 170 2 3 184 5 4
150 9 6 49 15 10 8 11 8 17 20 14 28 30 25 32 34 29 28 30 25 21 23 18
25 27 22 18 20 15 10 11 6 10 11 6 10 9 5 13 12 8 13 13 8 10 9 4
12 12 7 12 13 8 11 12 7 10 11 7 14 15 10 15 16 11 12 13 8 21 22 17
20 21 16 14 15 10 13 14 9 26 27 22 22 23 18 24 25 20 17 18 13
14 15 10 19 20 15 21 22 17 20 21 16 10 10 6 24 25 18 15 16 11
16 17 12 19 20 15 23 24 19 26 27 22 26 27 22 32 34 28 30 31 26
28 29 24 21 21 18 7 7 3 46 47 42 44 45 41 12 13 8 22 23 18 21 23 18
24 26 21 28 30 25 29 31 26 25 27 22 18 20 16 12 14 10 27 29 24
28 30 24 26 28 23 19 21 16 22 24 19 35 37 32 37 40 32 38 42 29
49 53 38 23 27 12 46 50 35 39 43 29 56 61 41 50 55 33 42 47 26
49 54 31 47 51 30 52 55 36 42 47 27 37 42 26 45 49 33 48 52 35
59 63 45 62 65 47 61 65 43 65 68 46 59 64 42 63 68 45 55 59 41
33 37 21 40 45 27 59 64 42 60 64 44 36 37 27 38 41 31 39 42 33
34 37 28 33 36 25 49 53 38 50 55 34 45 50 31 44 47 35 39 42 31
35 38 28 40 42 32 42 44 32 51 53 40 47 49 36 33 34 27 36 38 30
37 40 31 43 46 37 30 32 25 24 25 20 33 34 29 30 31 27 31 33 30
30 32 29 31 33 30 30 32 29 31 33 29 31 32 27 26 27 22 29 30 25
32 33 28 34 35 28 31 32 30 15 17 14 26 28 23 27 29 24 33 35 30
31 33 28 31 33 28 31 33 28 33 34 29 30 31 26 27 28 23 36 37 32
40 41 36 36 37 32 18 20 13 21 22 16 16 16 7 20 20 14 26 27 22
31 32 27 34 35 30 32 33 28 31 32 27 28 29 24 48 49 45 84 85 83
102 104 102 123 128 128 115 119 115 168 36 37 158 0 1 158 1 2
170 13 15 149 27 24 156 28 27 167 30 29 182 5 10 176 0 3 176 1 1
193 1 1 195 1 3 183 3 3 150 1 1 119 3 0 116 2 1 134 3 1 166 5 2
186 4 2 201 4 4 208 2 6 187 1 2 181 1 1 179 17 16 161 33 31 155 27 27
165 17 18 170 2 4 153 0 0 182 24 22 110 105 94 123 131 124
105 111 105 91 93 89 45 48 44 40 43 33 46 51 29 50 55 35 51 55 39
48 53 30 51 55 39 51 55 39 58 63 42 71 76 54 52 58 35 50 55 32
46 51 33 39 43 29 41 47 35 24 31 19 29 35 22 39 45 29 35 42 25
39 46 32 38 46 27 39 46 27 41 46 28 43 47 31 48 53 36 44 49 34
50 55 38 58 63 42 58 60 45 55 57 42 32 32 21 52 53 35 66 68 50
64 67 47 66 71 47 62 68 42 61 70 42 59 69 41 61 70 43 57 65 41
56 63 40 52 57 34 53 55 40 39 40 34 28 31 24 36 39 33 44 47 40
44 46 42 29 30 28 10 10 8 11 12 8 44 45 42 75 76 73 72 71 64 82 81 69
74 68 57 82 75 64 89 84 72 96 94 82 83 80 70 78 71 59 77 70 60
60 61 49 59 61 56 64 66 59 67 69 62 45 46 43 41 38 29 75 69 55
81 73 57 41 40 32 10 11 5 11 12 6 17 17 14 16 17 13 24 26 20 61 62 52
66 68 55 59 61 47 124 22 22 135 33 35 141 35 37 138 29 30 128 25 19
143 10 7 168 3 3 196 6 5 206 7 7 199 4 6 194 0 1 201 1 1 205 3 5
151 3 5 193 3 7 199 3 1 185 3 3 200 6 7 214 5 5 210 0 3 184 2 4
141 8 2 117 16 9 128 30 30 139 40 41 136 36 37 123 24 23 113 16 13
127 26 22 147 18 19 181 4 7 221 4 9 214 2 3 192 2 4 169 5 2 141 3 4
132 4 4 168 5 3 177 7 7 28 13 9 26 31 26 30 32 27 33 35 30 29 31 26
23 25 20 28 30 25 20 22 17 13 14 10 15 16 11 15 16 11 17 17 13
17 17 12 17 17 14 12 13 9 11 13 8 15 16 12 12 13 9 15 16 11 14 16 11
13 14 9 17 18 13 19 20 15 25 26 21 20 21 16 24 25 20 28 29 24
21 22 17 21 22 17 31 32 27 20 21 16 20 21 16 15 16 11 11 11 9
25 25 20 23 24 19 22 23 18 22 23 19 23 24 23 25 26 24 29 30 27
30 31 29 30 30 27 23 24 19 16 16 12 4 5 1 74 75 70 48 49 44 16 17 12
19 20 15 21 23 18 27 29 24 28 30 25 28 30 25 25 27 22 21 23 18
11 13 8 27 29 24 32 34 29 30 32 27 23 25 20 25 27 21 31 34 26
27 30 22 41 45 30 51 55 37 18 21 9 43 47 31 48 53 35 55 60 41
46 51 30 38 43 21 33 38 16 41 45 27 47 51 32 59 64 42 46 51 32
58 63 39 54 59 35 55 60 39 58 62 41 54 58 37 63 67 47 60 64 43
60 65 44 57 63 41 39 43 25 32 36 21 62 67 44 66 71 49 40 42 33
43 45 37 43 46 36 35 37 30 35 37 28 50 53 40 48 51 38 47 53 33
44 50 30 43 49 32 46 50 33 49 53 36 47 50 35 39 42 29 37 39 28
38 40 33 41 43 37 43 45 38 45 47 36 32 34 25 26 27 22 31 32 27
27 28 23 29 30 26 32 34 30 38 40 36 34 36 32 33 34 30 33 34 29
26 28 24 28 30 26 33 34 30 35 36 30 32 33 30 16 18 14 26 28 23
28 29 24 31 32 27 34 35 30 35 37 32 34 35 30 30 31 26 30 31 26
28 29 24 30 31 26 33 34 29 33 34 30 21 22 16 23 24 16 18 17 7
19 18 10 25 26 20 29 30 26 29 31 27 32 33 30 32 34 29 29 32 28
40 34 30 64 45 42 83 71 71 97 91 92 130 76 74 197 10 10 160 3 2
135 5 1 152 2 4 152 2 2 154 1 0 158 1 1 165 2 5 187 1 2 206 1 2
218 0 3 208 2 3 188 1 3 162 2 2 128 2 1 126 2 2 152 3 3 176 2 2
207 2 2 225 4 7 221 3 7 203 2 3 186 2 4 161 1 2 147 2 0 147 1 1
155 3 0 148 2 3 156 1 3 205 6 9 185 39 39 112 87 84 85 75 71 69 56 56
29 26 23 34 39 29 35 40 21 24 27 15 30 34 21 38 42 26 36 41 25
40 45 28 39 43 24 34 42 23 53 55 38 60 64 43 46 51 30 57 62 43
56 62 44 39 45 31 25 29 20 49 55 40 54 62 43 57 65 40 54 62 40
54 62 40 51 57 36 54 60 39 46 52 31 39 46 25 52 59 38 54 61 38
60 64 43 57 61 41 32 34 22 49 52 32 56 60 39 62 67 44 62 68 42
63 69 41 62 70 43 57 64 37 58 66 39 54 63 40 54 61 39 55 58 36
52 55 38 36 37 32 26 27 28 39 41 35 45 48 41 44 47 43 19 21 19
10 11 9 5 6 2 45 46 43 77 77 76 54 54 47 67 67 56 44 43 32 26 25 17
47 47 35 53 49 38 44 43 33 55 53 41 56 48 40 42 40 32 59 61 54
67 70 62 67 70 63 48 50 47 46 43 38 40 35 28 26 26 18 21 21 16
21 23 17 10 12 7 36 36 31 35 35 30 41 42 36 60 62 51 61 63 51
68 69 59 142 39 42 154 49 54 154 54 56 162 61 65 141 40 42 125 17 16
139 10 6 173 2 0 212 19 18 228 29 26 211 12 8 206 5 1 173 35 7
151 64 15 161 48 17 202 12 4 206 6 1 207 4 2 202 3 3 185 3 4 149 5 1
128 13 7 126 27 25 154 54 56 155 55 55 147 47 47 143 44 43 132 32 27
138 38 34 135 32 25 161 14 13 219 3 9 223 1 4 192 2 1 159 2 1 185 4 8
181 3 8 163 4 4 177 5 6 29 14 10 25 30 25 26 28 23 27 29 24 23 25 20
21 23 18 20 22 17 19 21 16 14 16 12 20 22 17 21 22 17 19 20 15
25 26 21 29 30 25 21 23 18 17 19 15 30 32 27 21 23 18 18 20 15
19 21 16 19 21 16 21 23 18 21 23 18 27 28 23 28 29 24 26 27 22
29 30 25 25 26 21 26 27 22 66 67 62 69 70 65 20 21 16 23 24 19
13 14 12 22 23 19 30 31 25 52 53 47 28 30 26 63 65 64 28 31 30
27 30 29 28 28 30 26 26 27 25 24 23 13 14 10 45 46 41 112 113 108
42 43 38 52 53 48 34 35 30 27 29 24 56 58 53 25 27 22 25 27 22
23 25 20 17 18 13 10 11 7 26 28 23 32 34 29 28 30 25 23 25 21
33 35 27 43 46 36 36 39 28 46 50 33 51 56 37 19 23 12 33 37 22
45 50 29 38 42 25 36 41 22 49 54 33 54 59 37 55 60 37 47 51 30
55 60 37 44 48 28 52 56 33 55 60 37 53 58 36 58 63 41 55 60 38
65 70 48 61 67 41 65 70 44 61 67 43 44 49 29 33 37 20 61 67 43
62 68 46 38 41 31 42 43 36 42 43 36 36 36 31 27 28 21 44 45 34
44 45 37 40 46 33 40 46 34 40 47 33 45 50 32 49 54 35 50 53 34
42 45 33 31 34 25 42 45 36 39 41 36 44 45 39 44 45 33 33 35 24
26 27 21 28 29 24 26 27 22 35 36 31 39 40 35 40 41 36 37 38 32
32 33 28 36 37 33 26 28 25 35 37 34 36 38 35 35 37 32 33 35 30
16 18 13 25 27 22 26 28 23 27 28 23 34 35 30 39 40 35 38 39 34
31 32 27 30 31 26 31 32 27 34 35 30 35 36 31 35 36 31 23 23 17
24 24 16 22 19 12 19 16 9 21 22 14 27 28 25 30 32 29 34 35 33
30 36 32 25 32 28 109 22 20 191 11 11 158 12 11 154 14 19 179 12 18
198 0 2 193 1 5 157 3 3 135 4 2 144 2 1 158 2 2 167 0 3 166 1 3
179 1 2 202 0 2 211 1 2 212 1 2 197 2 1 174 3 3 139 3 1 140 2 1
175 3 1 199 1 2 222 0 5 237 13 17 224 14 16 198 1 2 178 1 1 149 3 4
116 7 5 122 9 10 135 4 7 150 3 4 190 2 5 194 1 3 199 4 5 163 13 13
151 12 11 183 10 12 123 15 12 51 47 27 53 64 34 40 44 30 35 39 25
62 67 45 66 70 50 59 63 43 40 43 21 37 50 24 60 67 40 75 79 54
49 54 32 56 61 40 60 66 42 48 53 36 24 30 17 41 48 30 49 57 34
49 57 33 48 56 33 54 62 39 50 58 35 50 58 34 45 53 30 39 47 24
46 54 31 52 60 37 53 64 39 56 66 41 37 42 24 46 55 32 52 62 39
55 60 36 59 66 38 65 71 41 67 72 46 64 69 43 60 66 43 57 65 43
51 60 36 58 65 41 60 63 47 38 39 36 30 31 33 37 39 33 38 41 34
42 45 41 18 20 18 22 24 21 18 19 15 63 64 60 83 84 78 43 45 36
47 49 37 40 42 30 31 35 24 36 39 27 44 46 32 38 40 30 22 23 17
21 17 11 29 29 21 31 33 28 52 55 48 65 68 61 54 56 51 39 42 33
20 22 14 9 10 4 13 14 10 22 24 20 12 14 9 35 38 31 39 41 34 27 28 23
63 64 55 33 34 29 25 26 19 134 32 32 138 35 36 136 36 36 139 40 39
134 35 35 128 30 28 118 18 13 134 25 19 138 47 16 145 62 12 150 69 11
162 81 15 156 92 18 156 99 18 154 96 20 158 85 19 151 63 11 147 59 11
130 45 12 138 34 23 116 10 5 131 25 23 134 33 33 138 38 38 136 36 34
136 37 35 135 35 33 142 40 38 162 60 58 152 53 50 134 40 32 153 13 15
173 3 2 169 5 4 150 2 2 190 6 9 180 6 7 147 2 3 126 6 10 35 30 24
27 30 25 23 25 20 14 16 11 15 17 12 15 17 12 13 15 10 23 25 21
14 16 12 15 17 12 14 16 11 13 15 10 20 22 17 19 20 15 16 17 12
17 18 13 27 29 24 25 27 22 15 16 11 20 22 17 21 23 18 20 22 17
18 20 16 17 18 14 22 23 18 22 23 18 20 21 16 21 22 17 18 19 14
59 60 55 105 106 102 31 32 27 21 22 17 15 16 12 18 19 15 25 26 20
65 66 61 53 56 51 93 98 92 34 39 38 17 22 22 20 25 26 23 22 23
27 21 20 31 30 28 104 103 100 105 105 100 25 25 21 65 67 62 65 66 62
42 44 39 77 79 74 34 36 31 22 24 19 24 26 21 21 23 18 12 14 9
28 30 25 31 33 28 29 31 26 24 26 22 41 44 36 49 52 42 44 48 33
36 40 25 40 44 29 40 44 31 48 52 38 54 59 37 46 51 30 37 42 22
57 63 40 52 57 34 60 64 41 57 61 38 56 60 37 48 52 29 56 60 37
58 62 39 59 63 41 59 64 42 56 61 39 68 74 52 64 70 42 63 69 44
58 63 42 48 52 36 37 39 25 48 52 36 47 49 36 24 25 19 22 23 19
23 24 19 26 27 21 23 24 18 26 27 18 34 36 27 31 34 26 27 30 25
28 31 24 30 34 19 33 37 21 39 40 27 35 37 26 26 29 20 31 34 25
31 32 27 34 35 30 36 37 31 28 29 23 23 24 19 27 28 23 30 31 26
33 34 29 35 36 31 33 34 29 32 33 28 33 34 29 34 35 30 28 28 26
33 34 32 35 35 33 35 36 31 32 34 29 15 17 13 24 26 21 27 28 23
35 36 31 40 41 36 35 36 32 37 38 33 35 36 31 34 35 30 37 38 33
37 38 33 36 37 33 37 38 34 26 27 20 35 37 28 21 18 7 25 21 12
18 18 10 26 26 22 33 34 31 36 39 36 37 36 31 110 19 20 185 7 6
190 3 4 175 2 4 167 2 4 162 2 3 172 1 2 162 3 6 149 22 18 134 23 18
118 12 6 126 12 7 142 3 3 153 1 2 161 4 2 176 2 1 193 2 1 203 2 1
204 1 3 197 1 2 173 4 2 164 4 5 201 2 3 213 1 3 213 1 2 213 3 2
199 2 2 181 2 2 154 6 3 125 13 7 114 19 15 114 17 15 124 19 17
138 27 23 154 8 8 165 4 5 167 4 2 163 3 2 172 3 3 182 2 5 188 5 5
146 27 14 81 58 38 40 47 31 38 41 26 66 70 47 61 65 44 56 59 38
45 51 29 52 58 32 58 63 37 67 74 47 49 55 29 53 58 36 59 64 42
52 57 35 30 35 17 44 49 27 45 51 28 50 55 32 58 62 39 61 66 43
60 65 42 56 60 37 50 55 32 49 53 30 58 63 40 59 64 42 59 64 41
60 65 41 39 44 24 47 54 31 53 61 38 56 63 40 65 72 46 70 76 48
67 74 44 67 73 44 62 69 41 64 73 43 60 71 40 65 75 44 62 65 49
37 38 34 30 31 33 32 35 28 35 38 31 41 43 39 19 21 19 25 27 23
24 26 21 53 54 50 96 98 93 43 45 43 39 41 39 41 43 35 30 33 24
40 42 33 52 53 40 47 48 38 13 14 9 8 9 3 29 32 24 30 32 27 37 40 32
51 55 45 53 57 40 33 37 23 17 20 11 15 17 12 11 13 9 9 11 7 9 11 6
30 33 26 46 49 42 52 53 48 59 60 53 45 46 40 23 25 16 138 39 39
127 28 28 150 50 50 180 80 80 181 80 80 152 51 46 123 21 15 129 31 20
144 73 22 161 109 31 188 144 48 210 180 63 205 181 61 205 177 63
211 180 65 207 177 64 192 152 52 172 124 38 150 86 27 134 43 27
113 12 9 149 44 42 178 78 78 180 80 80 153 53 52 131 31 29 137 37 35
154 52 50 175 73 71 168 67 65 157 59 54 152 37 38 136 9 11 138 5 6
126 2 3 152 4 8 149 2 5 127 0 1 109 6 7 38 27 19 25 31 22 30 32 26
17 19 14 17 19 14 16 18 13 13 16 10 30 32 26 18 20 16 24 26 21
23 25 20 16 17 13 25 26 21 29 29 23 12 13 7 15 16 9 21 22 17 17 19 14
17 19 14 27 29 24 25 27 22 27 29 24 26 28 23 18 20 15 26 27 22
32 33 28 31 32 27 31 32 27 20 21 16 45 46 41 113 114 109 72 74 69
19 21 16 24 26 21 24 27 22 26 33 27 69 77 70 87 83 80 141 48 55
161 45 40 139 26 25 128 4 6 129 5 4 57 17 10 98 102 99 121 121 119
74 74 70 20 25 20 92 96 90 86 87 82 82 83 79 98 99 95 35 37 33
16 18 14 22 24 20 18 20 15 16 18 14 18 20 16 14 16 12 19 21 17
19 21 16 32 35 26 36 40 28 48 52 37 51 55 40 51 55 40 54 58 43
54 58 40 54 59 36 46 51 31 34 39 18 58 63 41 55 60 37 65 69 46
66 70 47 59 63 40 47 52 29 58 62 39 56 61 38 54 61 37 56 61 41
53 58 37 50 55 34 45 51 27 42 46 30 39 43 26 51 56 38 63 67 49
64 69 49 48 49 36 7 7 6 7 8 5 10 12 7 19 21 15 32 33 27 18 19 13
28 28 24 32 34 28 30 33 27 26 29 22 21 24 15 17 20 10 37 40 29
36 39 30 37 40 32 33 35 28 16 17 12 21 21 16 22 22 16 31 32 26
30 31 25 24 25 20 24 25 20 25 26 21 22 23 18 22 23 18 22 23 18
20 21 16 19 20 15 23 23 20 21 21 18 18 17 14 21 22 17 23 24 19
14 15 11 21 23 18 28 29 23 29 31 25 27 28 22 24 25 19 24 25 19
29 30 25 29 30 25 30 31 26 29 30 25 30 31 26 30 31 26 28 29 22
39 41 33 23 24 12 22 22 12 20 19 13 25 25 19 33 33 26 37 38 34
50 32 26 168 11 14 160 4 3 139 3 3 165 4 5 186 3 4 202 3 8 201 2 7
157 6 9 133 29 23 114 20 14 113 20 14 122 22 20 136 30 29 132 23 22
153 12 9 178 1 2 183 2 2 192 2 2 196 2 3 201 1 3 168 3 2 155 4 5
189 3 3 195 1 4 194 0 2 187 2 2 183 3 1 157 6 1 121 17 14 129 30 30
125 24 23 116 21 17 113 20 16 128 33 26 150 12 12 198 5 5 217 5 8
186 4 2 172 5 3 140 3 3 147 7 3 195 2 7 166 16 16 54 40 26 40 49 30
66 70 47 63 67 46 62 68 45 61 67 43 69 69 44 63 71 42 54 61 36
57 62 37 60 65 41 62 68 46 54 60 37 32 36 17 46 51 28 51 56 33
60 64 40 65 69 47 60 64 42 60 64 41 58 62 39 53 57 35 48 53 30
59 63 42 58 63 42 58 62 40 55 60 37 36 41 22 47 54 31 53 61 39
58 66 42 62 69 48 56 62 42 55 60 40 56 61 38 54 61 38 51 59 38
46 55 34 48 58 34 44 46 32 27 28 25 23 23 24 22 24 18 32 34 28
38 41 37 22 24 22 28 30 27 24 25 21 51 53 49 96 98 92 52 54 51
45 47 44 47 50 40 41 42 36 41 42 36 56 58 45 58 59 50 15 16 11
10 11 5 14 16 10 43 46 40 54 56 49 52 54 48 40 43 34 17 20 12
15 17 12 14 16 11 38 40 35 24 26 22 6 8 5 38 40 35 41 44 37 46 48 39
51 50 42 64 62 53 37 37 30 164 64 64 134 34 34 133 33 33 140 40 40
155 55 55 159 55 55 143 38 41 132 44 16 162 98 25 187 142 46
225 192 79 250 243 118 234 222 91 210 188 60 233 213 87 247 239 115
235 210 88 199 159 55 172 112 36 134 59 16 127 32 28 155 54 52
159 60 59 144 44 44 134 34 34 133 33 32 160 60 58 187 85 83 187 85 82
177 74 72 162 55 55 160 57 55 146 42 40 128 27 25 110 9 6 129 1 7
124 2 4 98 2 0 94 3 1 88 8 5 53 25 18 30 32 26 18 21 17 17 19 14
18 20 15 14 17 11 31 34 27 15 17 13 26 28 24 27 29 24 16 18 13
26 27 22 32 32 24 28 28 20 19 19 12 28 29 24 22 23 18 16 18 13
29 31 26 23 25 20 23 25 20 25 27 22 18 19 14 26 27 22 34 35 30
32 33 28 30 31 26 26 27 22 32 32 28 79 80 75 108 110 105 48 51 46
24 26 19 46 26 21 74 20 21 117 27 27 164 41 43 179 43 42 182 8 6
164 7 7 178 1 6 161 16 16 136 105 95 141 150 145 88 97 93 69 42 44
78 19 23 106 89 82 96 94 91 103 107 103 65 68 65 25 27 24 23 25 22
25 27 24 22 24 21 24 26 23 25 27 24 18 20 17 15 17 13 11 14 9
40 44 28 53 58 37 45 50 30 49 54 34 52 57 37 50 54 39 51 56 34
55 60 38 51 56 36 33 39 19 59 64 43 55 60 38 59 64 41 62 66 43
49 54 32 43 48 26 45 50 26 47 53 31 32 44 22 47 51 33 58 64 43
58 64 36 57 63 35 56 61 39 43 48 29 64 69 47 69 73 51 64 69 46
35 37 22 5 5 2 14 16 13 15 18 13 28 31 24 29 30 24 34 34 31 24 25 20
34 35 30 29 31 25 32 35 28 23 25 20 26 28 23 26 28 25 36 38 33
41 44 37 33 34 28 8 8 4 18 17 10 22 22 14 35 35 27 38 39 33 33 34 29
33 34 29 35 36 31 37 38 33 34 35 30 32 33 28 34 35 30 28 29 24
41 41 33 30 29 22 11 11 4 19 20 14 23 24 19 33 34 29 30 32 26
40 43 35 41 44 35 39 41 34 36 36 31 30 31 24 29 30 25 33 34 29
34 35 31 31 32 25 36 38 31 22 23 18 21 22 13 30 31 25 35 37 25
36 37 25 32 32 22 27 26 20 28 27 23 30 27 22 93 18 11 167 6 8 164 4 6
191 5 8 171 5 4 182 1 1 207 2 5 194 5 6 153 21 20 142 35 34 135 39 33
132 37 31 139 42 40 165 65 62 147 49 46 137 25 24 152 8 4 191 17 14
213 33 28 190 17 19 166 4 5 107 9 3 85 11 5 150 3 4 187 23 24
199 27 24 183 10 8 165 7 5 135 21 11 142 42 40 160 56 57 144 45 44
134 37 34 133 38 32 139 41 36 143 25 20 186 7 6 217 4 7 191 4 3
167 3 3 190 4 5 170 2 4 168 2 2 158 10 4 53 43 25 36 45 28 63 68 46
62 67 45 59 64 42 60 63 39 63 68 44 62 68 44 42 47 25 48 53 31
54 59 36 55 62 39 47 53 32 28 31 15 42 47 25 49 54 32 48 52 29
46 51 29 47 51 30 50 54 31 48 52 31 43 48 27 43 48 26 40 44 27
33 36 20 34 39 17 40 46 24 38 43 25 39 46 26 55 63 44 56 62 48
55 61 46 51 58 41 54 59 39 58 64 45 49 57 38 55 63 42 54 63 42
61 70 50 33 34 23 6 5 6 18 18 15 19 19 15 25 26 22 36 38 35 29 31 28
21 23 20 7 8 6 43 44 41 92 93 84 50 54 44 46 49 40 52 54 45 52 53 46
19 19 14 23 24 18 37 38 32 12 13 9 10 11 6 11 12 8 47 49 44 74 76 71
53 55 51 24 26 23 18 20 16 13 15 11 28 30 28 41 43 38 43 45 41
27 29 26 10 11 7 9 11 7 33 34 26 65 58 48 81 71 62 37 36 29 170 70 70
156 56 56 139 39 40 147 47 47 164 64 65 178 77 80 177 74 78 150 56 36
161 94 23 184 136 39 206 171 60 238 226 105 225 208 81 196 171 48
222 199 77 237 227 105 213 186 67 194 149 45 169 105 29 145 63 24
163 62 55 181 78 75 165 69 63 147 51 47 137 41 38 152 53 51 169 69 67
180 80 78 198 97 95 197 96 93 186 84 82 169 67 65 165 64 62 154 54 50
125 30 25 109 8 7 98 1 1 88 0 1 110 3 4 159 2 7 162 8 13 36 28 24
18 21 17 24 26 21 23 25 20 15 17 12 32 35 27 18 20 15 26 27 25
29 30 25 16 17 12 24 25 20 22 22 16 22 21 15 18 19 14 25 26 21
27 29 24 17 18 13 24 26 21 23 25 20 25 27 22 27 29 24 20 21 17
27 28 23 32 33 28 32 33 28 33 34 29 30 31 26 30 31 26 52 53 48
90 92 87 113 101 96 119 33 33 162 4 12 161 1 5 166 0 2 182 5 6
173 8 8 153 1 1 159 1 3 166 1 2 141 81 74 137 147 141 100 106 102
55 66 60 77 27 28 115 0 4 89 31 28 116 109 103 78 82 76 30 34 32
44 47 44 49 51 48 24 26 23 25 26 24 26 26 24 26 28 25 21 23 20
16 18 15 14 16 11 35 38 25 58 63 40 57 62 40 48 53 30 58 63 41
51 56 37 50 55 35 54 59 37 51 56 36 35 40 21 43 48 29 38 42 22
41 46 26 36 41 21 32 37 19 42 47 25 56 61 39 51 56 35 32 41 23
44 49 28 67 71 50 70 75 52 53 58 36 52 57 39 49 54 32 57 62 40
66 70 48 60 65 42 27 29 14 13 14 9 22 23 21 23 25 21 31 32 27
33 33 29 37 38 34 36 37 32 36 38 33 35 37 32 41 43 38 41 43 37
34 37 30 24 27 19 36 39 31 37 40 32 23 24 19 10 10 6 15 15 8 22 22 15
29 29 22 34 35 29 30 31 26 31 32 27 30 31 26 38 39 34 37 38 33
30 31 26 31 32 27 35 36 30 34 34 27 23 22 16 16 16 9 22 23 17
21 22 17 28 28 25 28 29 24 43 44 35 42 45 32 44 45 37 46 47 41
41 41 36 28 29 24 39 40 34 30 31 26 29 30 25 40 41 35 26 26 21
21 22 16 25 26 20 41 43 31 48 50 37 38 38 27 38 38 29 42 42 35
30 28 17 85 10 4 127 2 1 139 3 3 169 5 4 148 4 4 153 2 3 158 5 7
151 33 33 155 52 50 167 63 65 148 53 46 125 39 21 139 40 33 167 67 63
168 70 64 135 36 37 113 12 12 143 44 28 85 43 15 28 27 10 95 40 15
143 82 25 142 93 30 117 45 11 56 29 11 69 40 14 146 52 24 128 19 21
130 29 30 162 60 63 172 71 71 138 38 38 132 33 25 145 45 38 166 65 63
155 56 53 147 37 33 153 12 10 161 2 5 141 2 4 177 5 4 150 2 3 123 2 1
115 6 2 67 31 14 29 35 24 42 47 29 44 51 30 39 46 25 36 42 22
35 41 21 42 47 27 50 55 35 51 55 36 27 30 12 34 33 15 38 40 21
50 53 35 45 50 29 49 53 31 53 57 34 49 53 31 49 53 31 49 54 32
47 53 31 51 55 34 69 73 51 37 39 25 17 17 6 31 34 15 33 37 16
48 55 29 56 63 39 65 74 50 68 79 52 70 80 52 79 88 61 74 83 52
67 75 51 48 57 33 60 69 42 60 70 42 57 66 40 25 27 16 11 11 11
21 22 18 27 28 23 27 28 23 33 34 30 22 24 20 8 11 7 2 4 1 36 37 33
84 85 78 46 51 42 46 50 43 43 46 37 34 36 29 27 27 22 15 16 11
12 13 8 19 20 15 10 11 6 6 8 3 10 12 8 56 58 53 68 70 64 43 46 40
20 22 17 28 30 25 39 41 37 39 42 36 32 35 28 21 23 18 7 9 5 21 23 17
53 53 44 88 78 68 64 56 45 24 19 10 195 95 95 178 77 77 159 59 58
169 69 69 190 90 89 204 106 106 205 106 107 176 79 71 159 79 42
166 104 38 183 133 44 203 165 60 222 194 77 220 188 69 227 198 79
201 174 60 185 145 48 172 117 35 161 88 29 167 77 56 196 102 94
205 108 105 190 95 93 168 73 71 154 59 55 172 74 71 193 93 91
208 109 106 201 100 98 186 85 83 201 100 97 185 84 82 159 57 56
149 46 41 139 28 25 111 10 8 101 0 0 103 1 2 141 4 8 184 2 6 177 4 7
25 24 16 11 18 12 19 21 16 22 24 19 23 25 20 23 26 19 18 20 15
24 26 23 28 28 23 16 17 12 31 31 26 24 23 17 11 12 6 14 14 8 26 27 21
32 32 27 17 18 12 22 24 19 23 24 19 20 22 16 23 25 19 19 21 16
20 21 16 23 24 19 23 24 20 56 57 52 66 67 66 39 39 41 35 36 31
67 65 57 98 38 36 137 3 4 155 2 3 141 2 0 151 0 2 162 0 1 165 0 2
158 0 2 152 1 1 167 1 1 114 54 48 77 84 79 57 68 63 50 48 45 93 9 14
107 15 15 110 96 85 92 98 88 71 45 43 69 40 41 77 80 74 37 40 38
24 26 22 29 29 26 28 28 25 27 29 26 23 25 22 21 23 20 17 19 15
37 40 29 58 63 45 53 57 41 44 48 32 47 51 35 39 44 26 45 50 29
39 44 24 35 40 20 49 54 34 36 40 25 23 27 15 39 44 23 40 45 23
34 38 23 42 47 27 56 61 38 57 61 39 37 41 23 42 47 26 66 71 49
68 73 51 50 55 33 52 57 39 46 51 30 57 62 40 66 70 49 52 57 35
34 36 20 18 19 14 27 27 24 29 30 26 33 35 29 35 36 30 35 36 30
34 35 29 37 39 34 40 42 38 42 44 38 52 56 40 41 44 31 31 33 26
34 36 30 40 43 35 28 29 24 13 13 9 18 18 11 20 20 13 24 24 17
30 31 25 30 31 26 27 28 23 31 32 27 40 41 35 38 39 34 33 35 30
31 32 28 36 37 32 35 36 29 24 24 17 22 22 15 25 25 20 25 25 21
25 26 20 24 25 20 35 38 28 44 46 34 46 47 38 47 48 40 35 37 29
27 28 21 42 43 38 25 26 21 27 28 23 40 41 35 29 30 24 23 24 18
25 26 20 33 35 25 46 47 37 34 34 27 39 39 32 37 40 32 58 21 14 89 6 4
104 1 1 120 2 3 137 3 2 125 4 5 129 9 7 137 26 20 155 52 51 165 59 59
179 75 76 171 70 71 141 50 37 132 33 28 152 51 52 158 58 57 141 42 43
117 23 22 139 57 25 73 58 13 25 67 26 115 126 53 215 189 78
228 203 81 146 139 47 54 88 31 62 55 19 144 68 20 124 31 23 138 36 38
159 57 58 159 59 59 130 32 28 139 40 29 169 68 64 178 77 76 166 64 65
153 54 53 150 44 40 132 12 10 114 3 2 140 4 3 116 2 3 99 3 2 104 2 2
98 21 11 35 45 28 25 34 20 44 54 34 39 49 28 31 36 18 26 31 13
40 45 26 57 62 42 48 52 34 16 17 7 34 30 14 43 44 25 51 54 34
48 53 31 53 58 35 56 61 38 62 66 43 56 60 37 52 57 34 48 53 31
53 58 36 53 58 37 29 31 20 26 26 16 37 40 21 33 37 17 41 48 20
48 56 32 58 65 41 77 83 57 71 79 52 76 84 56 73 81 52 63 71 47
46 53 31 52 59 37 64 73 47 55 63 37 28 30 17 19 19 17 28 29 25
31 32 27 30 31 27 30 31 27 13 14 11 6 8 5 14 16 14 52 54 50 84 85 78
49 53 43 28 32 25 40 43 36 36 37 31 24 25 19 34 35 31 47 47 43
34 35 30 26 28 23 24 26 21 16 19 14 65 67 62 69 71 66 53 55 50
42 44 39 40 42 37 25 28 22 19 22 15 9 12 5 6 8 3 7 9 4 22 24 19
37 41 34 50 46 37 62 56 45 39 36 27 174 71 72 167 65 65 189 88 88
211 112 112 228 131 130 227 131 132 221 126 126 203 109 108
193 101 96 191 100 98 191 99 97 173 96 58 169 112 36 176 119 47
173 112 36 168 99 50 188 103 89 188 100 92 191 105 95 195 106 100
213 123 122 221 131 131 225 134 134 209 117 116 188 93 89 169 71 68
169 69 67 189 92 88 188 90 88 162 62 60 145 48 43 137 44 36 128 35 25
114 12 10 146 4 4 163 7 7 150 3 4 154 2 2 183 6 10 173 4 5 156 5 1
64 20 14 20 19 18 20 22 17 24 26 21 33 35 30 20 22 18 19 20 15
24 25 20 19 19 15 16 14 11 27 25 21 25 24 16 17 17 9 18 18 10
25 24 16 29 23 17 21 19 12 24 25 19 14 16 11 3 5 1 8 10 5 19 20 15
19 20 15 17 18 12 22 23 18 28 29 25 75 76 79 103 107 110 73 64 61
81 12 9 131 4 4 154 2 2 152 2 3 140 3 1 141 2 0 149 1 1 168 2 2
141 3 2 127 3 2 172 1 0 151 5 7 99 34 27 82 33 26 85 8 7 128 1 2
105 32 31 80 76 67 70 71 59 88 17 15 131 17 19 88 31 31 17 25 17
19 27 19 26 24 20 24 21 19 23 23 21 18 20 17 23 25 22 24 26 23
26 29 18 34 38 23 33 36 23 40 44 29 45 48 34 32 36 21 56 61 40
46 50 33 44 49 25 53 58 33 28 32 17 30 34 18 52 57 36 51 56 34
33 37 22 40 45 23 54 59 34 56 61 39 41 47 25 48 53 31 64 69 46
63 67 44 50 55 32 52 56 38 60 67 37 62 69 40 63 69 43 61 66 44
50 54 35 24 25 18 29 28 24 27 27 22 35 36 31 36 37 31 37 38 33
43 44 38 42 44 39 38 40 35 38 41 32 53 56 37 46 48 35 35 35 31
35 37 32 46 49 40 26 27 20 15 15 10 20 20 13 21 21 13 19 19 12
24 25 19 29 30 25 28 29 24 37 38 32 41 42 33 37 38 33 33 35 32
28 30 27 34 36 33 37 38 33 21 22 17 28 29 24 25 25 16 25 24 21
25 26 21 27 28 23 28 30 24 32 35 26 47 49 38 43 45 32 30 32 19
26 28 19 40 41 35 27 28 23 24 25 20 38 39 33 30 31 24 26 27 21
29 30 24 37 38 32 44 46 39 33 34 26 34 35 30 22 27 22 103 14 13
154 3 4 113 2 2 105 2 1 109 2 1 117 15 11 144 42 39 162 59 57
168 65 64 183 79 80 195 90 92 182 80 81 157 58 56 140 37 36 124 21 22
135 33 34 162 63 63 142 44 41 165 90 29 101 96 32 34 85 31 92 145 56
206 193 77 220 204 86 116 153 60 41 109 35 88 89 33 174 108 39
141 53 25 162 58 63 150 44 46 129 26 25 134 34 29 153 50 51 176 75 76
193 95 94 185 83 83 167 64 63 162 59 58 147 50 46 119 21 17 114 2 2
104 1 1 104 2 2 136 4 2 119 23 13 35 52 26 47 55 32 53 60 37 53 60 38
60 64 45 43 48 28 43 48 29 59 64 44 40 44 26 23 22 11 31 29 12
38 38 19 44 47 26 49 53 32 47 52 30 50 57 33 66 70 47 57 61 38
57 61 38 49 53 31 54 59 37 55 59 38 41 44 28 40 43 25 36 41 19
38 43 21 42 49 20 50 60 34 53 58 35 58 61 36 69 74 48 74 79 52
70 75 50 48 53 32 38 43 22 57 62 40 68 73 46 59 63 39 33 33 21
21 20 20 29 29 26 29 31 27 26 29 26 29 31 28 13 15 12 13 15 12
27 29 26 60 62 59 74 76 68 70 72 60 40 41 35 70 70 66 34 35 29
20 21 15 25 27 22 55 56 51 57 57 54 44 46 41 40 42 35 52 48 38
48 45 39 85 85 77 66 67 62 22 24 19 10 12 7 9 12 5 10 13 6 12 15 8
16 18 13 24 26 22 17 19 15 19 21 16 43 46 37 59 61 49 56 58 51
163 62 63 172 77 77 215 118 120 228 132 134 217 122 123 198 103 105
190 95 95 184 89 90 191 95 96 216 121 122 228 135 138 205 115 108
169 88 53 139 49 28 159 81 32 195 114 95 225 136 135 221 129 130
194 102 99 184 90 85 187 94 89 198 104 102 217 118 119 229 131 130
217 123 117 183 85 80 162 61 57 172 63 63 163 60 56 134 36 32
120 21 19 122 26 18 118 49 22 109 19 12 137 2 2 207 5 9 198 2 5
156 1 2 158 2 3 141 1 1 135 2 3 131 13 17 31 19 25 22 26 20 21 23 18
27 29 24 26 28 23 15 17 12 27 27 22 23 22 18 17 15 11 18 16 12
20 18 11 18 17 9 18 18 10 20 16 10 23 16 10 23 19 13 14 15 10 8 10 4
8 10 4 18 20 14 26 27 22 25 26 21 25 26 21 27 28 23 25 25 20 34 35 31
72 78 73 116 64 61 131 3 3 149 2 5 170 1 6 164 0 5 132 3 1 131 4 1
139 3 0 129 3 3 153 3 3 151 3 5 156 1 1 172 2 2 153 3 2 125 1 1
110 2 2 126 3 1 151 4 3 135 11 10 120 9 10 105 3 5 93 2 2 96 4 5
49 14 12 27 29 26 25 23 19 24 23 20 24 25 23 17 19 16 22 24 21
28 30 25 21 23 18 40 44 27 36 40 21 44 48 29 48 53 33 39 44 23
57 62 40 46 51 32 44 49 29 49 54 32 30 34 19 38 42 28 62 67 45
54 59 37 32 36 19 36 41 21 58 63 40 55 60 36 40 44 25 53 58 36
57 62 40 62 67 44 61 67 44 56 61 40 71 77 47 70 77 47 71 77 49
68 73 46 58 61 43 29 30 24 31 30 26 27 27 22 34 33 29 37 38 33
36 38 33 39 41 35 40 42 37 37 39 34 37 40 30 52 55 36 52 55 38
43 44 35 40 42 36 44 46 39 28 29 28 13 13 9 23 22 14 25 25 17
20 20 13 18 19 13 29 30 25 30 31 26 44 45 39 44 46 37 38 39 34
38 40 37 33 35 32 36 38 35 42 43 38 22 23 18 24 25 20 25 25 17
31 31 25 31 32 27 28 30 24 24 26 22 30 33 24 48 52 35 35 38 23
35 37 24 35 36 27 45 46 41 31 32 27 27 28 22 42 43 37 42 43 35
37 38 30 33 34 28 38 39 33 42 43 36 40 41 33 34 36 31 25 32 26
106 17 13 189 3 3 150 3 3 110 3 2 101 3 2 130 17 16 147 33 32
154 53 52 181 82 81 187 87 88 193 90 91 200 98 97 186 88 86 165 66 65
156 57 57 156 59 58 156 56 56 153 51 50 148 66 31 164 110 49 96 92 41
61 89 23 59 91 29 52 88 28 65 97 32 76 87 31 155 109 50 150 70 32
147 51 43 160 56 58 157 54 58 159 57 60 160 59 58 182 80 79 198 96 95
191 88 88 186 84 84 185 83 84 164 60 61 158 46 46 136 26 25 106 5 4
105 3 3 137 4 3 173 2 2 133 25 16 44 60 31 51 59 35 56 64 41 54 62 39
65 73 51 59 65 44 48 54 34 58 60 40 44 45 27 28 25 13 34 32 13
32 32 12 37 40 19 46 50 29 50 55 33 58 64 41 67 71 48 60 64 41
57 61 38 50 55 32 57 63 40 55 59 37 31 34 15 37 41 23 33 38 21
44 49 29 48 54 24 48 59 32 53 62 38 44 49 27 69 75 48 74 80 51
65 71 46 59 65 41 56 62 39 69 75 51 73 78 53 60 63 38 33 34 21
23 22 21 25 25 22 31 33 29 30 32 29 29 31 28 17 19 16 31 33 30
42 44 41 60 61 57 58 59 52 33 34 26 23 23 18 47 48 43 21 23 16
41 39 32 31 29 24 31 32 28 52 53 48 30 32 27 35 36 29 34 36 28
17 18 14 64 65 59 42 44 39 4 6 0 14 16 11 21 24 17 18 21 14 27 29 24
33 36 26 59 62 51 56 59 50 47 50 38 49 53 38 54 58 39 35 37 27
146 62 62 165 66 69 186 88 89 197 101 102 187 91 92 172 74 75
179 80 81 183 84 85 193 97 98 203 107 107 219 119 120 220 121 119
175 75 70 165 62 63 159 42 106 204 107 119 219 128 124 205 107 110
198 103 99 183 85 81 186 85 82 171 73 69 178 79 75 200 101 98
198 101 100 183 80 80 151 61 59 151 83 78 161 72 68 125 45 40
117 59 54 125 67 64 103 84 73 103 30 25 123 1 1 177 6 6 172 2 2
136 1 1 122 2 2 108 1 1 102 5 4 111 23 18 35 24 26 24 28 22 24 26 21
29 31 26 21 23 18 14 16 11 14 14 10 14 13 9 17 17 12 15 14 10 17 15 8
15 15 7 17 16 8 17 15 7 18 14 8 19 17 10 16 17 11 11 12 7 13 15 10
20 21 17 25 26 21 26 28 23 27 29 24 27 28 24 29 30 25 28 34 28
55 32 26 134 10 16 147 4 9 129 3 2 157 1 3 166 3 6 123 2 2 94 3 2
102 3 1 125 2 2 166 3 2 171 3 5 174 11 12 174 3 6 141 1 0 103 2 2
103 2 3 121 2 2 133 3 2 138 3 2 136 1 1 105 1 3 87 3 1 93 3 1 91 4 9
47 23 24 22 23 18 22 22 19 26 26 24 21 23 20 24 26 23 24 26 21
25 27 20 51 55 37 36 41 20 42 47 26 54 59 37 39 44 23 49 54 32
48 53 33 54 58 38 57 62 39 44 49 28 41 46 26 60 65 43 63 68 46
38 42 22 33 38 16 63 68 46 60 66 42 37 41 23 50 55 33 65 70 48
69 74 52 55 60 36 57 62 41 72 78 51 71 77 52 71 77 50 68 74 45
57 61 44 28 28 23 34 33 29 27 26 23 27 25 26 38 39 35 36 38 33
28 30 25 30 32 27 32 34 29 34 37 29 44 47 31 50 53 38 46 48 38
37 39 33 38 40 34 29 31 29 13 13 9 24 24 17 26 26 19 21 21 14
17 18 12 27 28 22 29 30 25 41 42 37 45 46 39 38 39 35 37 39 35
37 39 35 34 36 33 37 38 33 26 27 22 24 25 20 24 24 18 27 27 21
31 34 29 31 33 27 30 32 29 36 39 34 49 52 39 40 43 31 34 35 24
31 32 24 36 37 32 33 34 29 29 30 25 43 44 38 41 42 37 45 46 40
42 43 37 40 41 35 43 44 37 45 46 38 40 43 37 40 36 32 117 14 11
173 3 3 186 5 7 164 4 3 162 4 7 164 5 4 161 6 5 101 25 23 128 29 28
146 45 43 177 76 75 187 90 87 174 79 76 186 91 89 217 118 118
224 126 126 192 89 90 179 79 80 171 76 75 160 64 58 159 78 43
144 88 40 63 53 18 51 49 12 132 85 40 163 88 46 154 62 50 169 69 72
180 76 76 189 87 88 218 121 122 224 130 129 193 97 97 179 78 77
186 83 84 168 62 65 151 47 48 134 28 30 116 29 32 151 17 17 165 4 5
159 6 9 157 5 5 184 5 11 183 3 6 136 16 10 71 41 27 53 62 40 55 63 39
54 62 38 64 72 49 66 71 50 55 60 40 64 70 47 46 50 29 22 24 7
36 39 18 33 35 15 26 29 9 45 49 28 53 58 36 66 71 49 70 74 51
61 65 42 62 66 43 57 62 39 60 66 43 61 66 43 37 42 23 34 38 20
34 38 23 53 57 38 54 60 33 59 65 40 59 65 41 54 58 36 70 75 51
75 81 55 71 78 51 53 59 34 57 64 41 61 69 42 67 73 47 64 68 44
40 41 29 26 25 23 25 26 23 31 33 30 29 31 28 34 36 33 24 26 23
32 34 31 51 53 50 44 45 42 25 26 23 21 22 18 44 45 39 36 36 32
57 58 52 47 44 32 42 35 30 35 34 32 25 26 21 31 32 28 50 52 48
24 26 22 24 25 20 23 25 19 9 12 4 10 11 6 30 32 26 27 30 24 32 34 28
46 50 37 51 54 41 60 63 52 66 68 65 63 66 59 56 59 50 36 39 31
23 25 20 119 71 70 124 30 35 127 52 50 152 52 52 163 61 62 164 63 63
177 77 77 195 95 95 215 119 116 202 106 106 183 58 129 174 42 126
156 43 69 168 49 107 162 5 77 166 35 113 205 108 116 200 106 98
220 127 119 198 100 101 193 89 93 162 58 58 152 51 51 175 71 72
160 79 79 135 53 55 119 59 58 131 132 134 134 102 99 91 67 58
100 105 102 95 100 99 64 70 69 93 20 21 113 0 1 144 4 5 135 1 1
118 0 1 103 1 1 96 1 1 105 0 0 111 6 5 41 33 29 31 35 31 30 32 26
29 31 26 20 22 17 13 16 11 20 22 17 20 21 16 14 15 10 17 17 12
22 16 12 16 13 7 19 20 12 19 19 11 15 15 8 15 15 7 18 19 13 13 14 9
19 21 16 20 22 18 24 26 23 27 29 26 26 29 25 26 28 25 26 28 26
39 29 27 117 10 13 139 1 4 132 7 6 126 16 15 128 13 11 153 4 7
151 5 5 112 5 6 120 4 4 159 3 6 178 3 7 178 4 8 154 8 10 125 5 3
102 8 4 84 5 5 93 8 4 120 3 1 148 4 7 139 3 7 148 2 3 120 1 1 112 4 4
122 5 4 119 8 11 82 22 20 20 26 17 23 22 20 30 31 29 28 30 27
26 28 24 26 28 23 25 27 21 56 61 41 41 46 27 39 43 27 55 60 39
43 48 25 56 61 38 50 54 35 60 65 44 62 67 44 51 56 34 40 45 24
52 56 35 63 68 46 38 42 24 31 36 15 49 54 32 48 53 32 32 36 22
37 40 25 49 53 35 48 53 35 39 44 24 45 48 35 55 58 43 51 54 37
45 49 33 46 50 33 46 48 35 24 26 17 28 29 24 21 22 18 22 22 18
28 29 25 32 32 29 27 29 24 25 27 22 25 27 22 22 25 20 22 24 20
26 28 24 25 27 22 24 26 21 24 27 20 21 24 16 15 16 12 26 27 22
20 21 16 18 19 12 17 18 12 17 18 13 21 22 17 25 27 20 23 24 18
23 24 18 27 28 23 28 29 25 24 26 24 24 26 21 19 20 15 21 22 17
24 25 20 18 20 14 17 19 14 22 23 19 20 22 17 22 24 19 29 31 24
25 27 20 25 26 22 23 24 21 23 24 18 24 25 20 24 25 20 33 34 28
30 31 23 36 37 29 35 36 30 32 33 27 32 33 26 33 34 24 26 29 26
54 30 24 124 17 10 125 2 2 141 3 3 163 2 3 204 3 9 171 1 3 169 11 14
88 68 62 95 20 22 113 15 16 130 35 35 158 52 56 168 70 70 199 104 102
214 121 120 171 73 73 161 59 59 178 77 77 188 90 89 184 89 85
172 77 73 201 105 99 158 73 58 138 51 27 210 112 97 174 83 80
176 82 81 187 90 89 182 83 83 162 63 67 159 63 64 199 101 101
210 113 115 157 54 54 143 42 40 129 30 26 129 23 23 100 17 19
73 48 43 147 30 31 162 1 3 196 4 12 168 1 6 147 2 3 134 2 4 128 10 4
104 41 18 42 54 32 43 51 28 46 54 31 57 62 40 70 74 53 62 65 44
56 62 40 49 54 38 27 31 17 35 38 22 29 32 14 21 23 7 34 39 18
48 53 29 54 58 35 51 55 32 46 50 27 54 59 38 55 60 37 52 56 38
50 55 36 34 38 25 37 41 28 33 36 18 30 33 16 38 41 24 53 56 39
50 53 36 53 55 38 59 62 45 58 61 45 49 53 34 50 53 37 55 59 38
41 48 27 43 50 27 42 46 31 26 28 19 19 20 14 15 17 14 22 25 22
29 31 28 38 40 37 27 29 26 31 33 30 50 52 49 21 23 20 26 26 24
15 15 13 32 32 26 38 37 34 51 52 44 23 24 15 39 39 35 44 45 41
23 25 22 34 35 31 18 20 15 40 44 35 18 19 15 28 30 24 60 61 53
36 38 29 29 30 22 18 19 15 52 54 48 63 67 56 58 61 52 45 48 41
52 55 47 57 59 54 72 74 69 47 49 45 28 30 26 113 92 94 112 75 76
124 98 95 111 33 32 131 27 28 133 33 32 134 34 35 162 62 62 188 88 87
176 60 108 140 9 85 127 2 90 146 21 98 173 14 92 202 25 37 165 9 74
169 39 108 172 51 119 191 83 99 174 74 66 143 41 42 136 32 33
138 35 35 139 54 54 135 109 109 118 96 93 116 83 87 132 128 131
68 68 82 32 37 59 70 70 80 70 74 69 73 55 39 111 29 21 112 13 11
115 6 4 112 1 1 104 1 1 98 2 2 118 3 4 148 5 2 160 8 6 80 24 22
23 31 28 25 28 23 25 27 22 22 24 19 16 18 13 26 27 22 26 27 22
15 17 13 26 25 19 30 26 19 19 17 12 26 26 20 28 28 20 15 15 7
20 20 13 27 27 22 20 21 17 18 20 15 18 20 16 15 17 14 23 25 22
23 25 22 19 21 18 18 21 19 50 13 13 137 5 9 118 4 4 125 26 20
127 33 25 130 37 31 113 10 8 122 3 4 101 6 4 124 4 3 146 0 2 142 4 4
124 3 4 114 7 6 112 20 14 112 29 17 111 26 18 114 22 17 116 13 10
141 6 4 144 5 6 162 3 8 123 2 3 106 1 0 114 1 0 136 28 33 134 55 60
40 27 22 19 19 16 24 26 22 26 28 25 24 26 22 25 27 22 24 27 19
48 53 34 41 46 28 29 34 17 42 46 26 37 42 24 48 52 34 39 43 25
48 52 34 49 54 34 44 49 28 36 40 23 39 43 26 42 46 28 39 44 26
37 42 22 40 44 26 33 37 21 39 48 29 44 54 35 48 54 34 45 49 31
47 51 33 63 69 50 63 71 50 48 57 34 64 73 49 44 49 34 60 65 47
40 42 31 35 37 31 39 41 33 41 44 34 43 45 35 43 46 37 36 39 31
34 34 29 27 29 24 21 21 17 22 22 17 28 29 26 20 21 18 38 40 33
39 42 34 44 46 41 38 40 36 31 33 28 37 39 34 40 42 36 39 41 35
35 36 33 33 34 30 41 43 35 35 37 26 39 41 30 34 35 29 20 21 16
31 32 28 37 39 34 37 39 34 32 33 28 35 37 31 34 36 31 27 29 25
23 25 21 25 27 22 28 30 26 26 28 23 28 29 21 23 24 17 21 21 18
26 27 22 30 31 26 29 30 24 25 26 20 33 34 30 28 29 24 21 22 16
23 24 18 32 33 26 33 33 23 26 36 24 46 25 19 105 10 7 98 2 1 112 1 2
132 1 3 166 3 3 140 2 4 147 6 8 120 52 49 99 83 76 100 62 53
110 39 37 136 99 97 126 55 54 143 46 46 158 58 63 152 52 55 170 69 70
186 86 86 196 97 96 201 103 100 207 109 106 212 114 113 169 74 75
177 86 83 204 110 109 211 120 116 199 104 101 198 99 99 186 86 86
172 73 75 150 55 56 153 56 56 144 50 51 118 29 30 116 77 72 111 41 41
93 37 38 102 80 78 99 74 72 145 17 21 136 0 1 164 2 4 136 3 3 114 1 2
100 2 2 106 9 4 87 30 15 35 45 28 34 38 23 31 35 18 33 35 17 39 41 24
43 45 28 43 46 31 43 45 32 32 36 24 36 40 24 38 43 24 36 39 24
33 37 18 41 45 23 40 45 22 39 43 21 40 44 24 39 45 22 34 39 21
42 46 30 43 47 32 40 44 30 40 43 28 35 38 23 40 42 28 52 54 39
46 49 33 46 49 33 53 55 40 50 52 37 46 48 33 47 51 33 46 51 34
35 43 23 39 45 29 43 50 31 47 54 34 44 46 34 23 23 20 24 26 23
24 26 24 30 32 29 38 40 37 23 25 22 29 31 29 52 54 51 31 33 30
12 13 11 9 10 6 13 14 8 23 23 16 28 29 21 23 25 18 20 20 18 53 54 50
49 50 48 80 81 75 47 48 43 40 40 33 30 29 23 31 32 27 81 83 73
32 34 21 28 30 19 19 20 15 61 62 54 65 68 57 57 60 50 42 45 34
41 43 32 35 37 31 61 63 58 67 69 64 41 43 38 91 94 94 103 103 100
135 140 132 121 71 67 136 30 29 135 33 33 129 26 26 131 32 28
149 32 91 153 10 139 125 0 30 140 5 2 145 4 67 199 23 59 248 78 79
211 33 38 165 2 119 142 0 112 154 17 96 145 23 87 131 22 48 134 30 27
141 33 33 123 64 60 134 138 137 122 123 120 88 91 89 95 97 96
31 35 56 0 0 58 23 25 47 60 37 31 104 43 7 135 52 32 127 33 24
108 6 6 94 0 1 93 1 1 117 2 2 163 3 5 200 4 8 236 3 11 144 16 19
8 29 21 17 22 17 25 26 21 35 37 32 15 17 12 24 25 20 30 31 26
19 19 18 27 24 16 25 22 12 16 13 10 19 18 14 24 24 16 19 19 11
19 19 11 25 26 20 23 25 20 22 24 19 24 26 22 24 26 23 24 26 23
23 25 22 19 21 18 16 15 14 81 3 8 101 2 3 111 17 15 150 49 45
141 44 38 130 30 31 115 25 21 50 28 6 66 97 48 62 63 28 65 64 25
81 29 8 122 23 17 128 31 28 128 32 28 123 30 23 148 56 48 144 46 46
124 28 31 112 14 12 100 3 3 115 4 4 102 2 3 123 3 5 121 1 3 142 31 36
175 79 84 83 42 43 20 22 17 23 25 21 23 25 22 16 18 15 16 18 14
32 35 25 37 42 23 44 49 28 47 52 32 44 48 29 47 53 32 50 54 35
48 52 34 52 58 36 53 58 37 59 64 42 56 61 40 42 47 25 43 48 27
55 60 39 51 55 35 59 63 42 43 48 28 54 65 40 58 65 43 64 69 44
58 64 37 59 65 36 66 73 45 66 74 51 51 59 37 67 75 53 47 54 38
58 66 41 34 36 25 33 36 29 38 41 33 38 40 34 36 39 33 36 38 31
30 33 24 29 31 25 27 27 23 17 16 12 21 21 15 29 29 26 22 23 19
37 39 31 43 46 38 41 43 38 36 38 33 29 31 26 33 35 30 33 35 30
37 39 34 37 39 35 31 33 29 35 36 30 31 32 27 30 31 25 25 26 20
18 19 13 33 34 29 36 38 33 35 37 32 27 29 24 24 26 21 28 30 26
33 35 33 32 34 30 31 33 29 33 35 32 33 34 30 31 33 23 28 29 21
24 25 22 35 35 30 39 40 35 34 35 30 32 33 26 46 47 39 33 35 27
27 28 22 27 28 22 39 40 33 47 49 35 50 53 33 87 24 21 137 3 7 117 2 3
108 1 2 109 1 1 127 2 4 119 7 6 125 18 17 97 23 20 82 89 82 68 63 76
85 39 63 123 129 126 109 68 71 108 66 60 104 35 37 108 21 24
137 38 39 159 54 60 188 86 89 189 89 87 191 91 89 197 97 95 158 60 60
173 78 79 189 94 95 202 109 104 186 88 85 193 94 94 169 67 67
141 41 41 123 25 27 108 26 28 111 76 70 110 58 56 121 124 116
69 57 71 50 47 66 79 88 83 87 54 52 126 14 17 121 10 12 127 3 3
112 2 2 102 2 2 108 3 2 139 3 3 127 20 13 56 53 28 41 47 26 30 34 12
25 26 8 33 34 17 42 43 28 61 63 46 63 66 46 52 57 34 47 53 32
54 59 39 55 61 39 50 56 34 58 64 41 60 66 42 59 63 40 58 62 38
45 51 25 31 35 20 60 65 45 62 67 45 63 67 45 49 53 32 48 52 31
57 60 39 59 62 39 60 64 41 64 68 45 65 69 45 65 69 45 64 68 45
59 65 42 51 59 35 35 41 26 54 62 36 66 78 44 66 76 42 58 61 44
30 31 27 32 34 30 31 33 30 34 36 33 42 44 41 23 25 22 29 31 28
33 35 32 15 17 14 16 18 15 12 13 9 12 12 7 19 18 14 15 15 11 22 23 20
32 33 28 50 51 47 38 38 37 54 54 51 29 30 26 40 38 32 56 53 46
50 51 43 60 61 52 28 30 21 17 18 13 32 34 26 54 56 43 53 55 41
44 46 33 32 34 22 22 24 12 27 28 21 52 53 45 52 54 46 33 35 30
71 71 65 83 82 78 110 114 109 101 76 57 78 27 29 88 28 27 112 47 41
145 21 103 127 4 61 135 5 55 193 69 27 211 13 6 207 0 0 235 101 82
246 82 78 246 72 77 202 9 49 196 87 100 192 50 94 181 0 60 166 10 78
98 22 62 68 17 46 103 64 60 114 108 115 93 93 89 68 69 62 67 68 61
23 23 22 0 0 53 0 1 38 34 3 26 102 19 20 127 38 18 123 28 21 103 7 7
90 0 0 89 1 1 118 4 3 173 2 3 205 0 5 235 1 8 193 9 9 75 23 12
20 29 24 27 28 26 34 37 31 16 18 13 23 25 20 32 35 30 18 17 16
35 27 20 33 24 16 16 12 4 19 19 13 31 31 23 28 28 20 20 20 12
26 27 22 26 27 22 25 27 22 29 31 28 28 30 27 26 28 25 24 24 22
20 19 18 23 16 11 129 5 6 89 4 8 114 25 24 159 58 55 169 70 64
139 40 35 123 30 24 78 37 15 66 68 29 59 65 29 59 79 30 82 45 19
123 28 20 123 32 26 131 38 33 161 64 60 171 71 69 169 69 66 145 46 45
120 22 24 106 16 15 80 3 1 96 3 2 161 4 9 156 3 6 113 13 12 132 37 35
98 25 26 30 24 21 27 29 26 28 30 27 23 25 22 20 22 18 45 49 34
43 48 27 46 51 29 51 56 34 50 55 34 52 56 37 51 55 35 49 53 35
58 63 41 57 62 40 57 62 40 57 61 38 40 45 22 44 49 27 54 58 36
55 59 36 54 58 35 40 45 23 51 56 33 56 60 37 63 68 44 57 63 37
58 63 38 63 69 43 67 73 48 58 64 37 70 77 50 51 58 40 56 64 41
35 37 28 37 40 31 43 46 36 38 40 35 33 35 31 32 33 28 30 31 26
28 28 24 22 21 16 21 21 13 23 24 18 28 29 25 24 25 21 41 44 36
40 43 35 36 38 33 32 34 29 30 32 27 31 33 28 33 35 30 34 36 31
35 37 32 34 36 32 30 32 27 29 31 26 26 28 23 26 27 22 18 19 14
33 35 30 33 35 30 29 31 26 26 28 23 26 28 23 27 29 24 30 32 30
33 35 32 33 35 32 30 32 29 31 32 29 27 29 22 26 27 21 24 25 21
35 35 33 33 35 30 27 28 23 30 31 26 43 44 38 33 34 28 32 33 27
28 28 21 39 38 29 41 47 28 60 49 27 191 9 16 217 2 11 174 3 5 130 4 1
95 1 1 97 2 1 123 24 22 150 42 44 118 13 19 68 33 36 17 4 60 14 13 51
80 81 78 87 92 88 124 131 124 113 97 89 104 16 20 116 19 18 134 22 29
140 35 40 147 43 46 154 55 55 166 63 61 158 51 51 160 51 50 167 63 60
160 61 56 149 45 42 144 44 40 136 28 29 124 19 18 101 4 3 110 58 56
136 142 134 99 98 94 92 89 96 20 20 44 9 2 56 75 33 38 99 22 21
144 35 29 134 31 29 107 3 4 99 0 2 114 1 1 156 4 2 210 3 5 222 4 12
96 36 15 30 39 19 26 26 10 30 31 13 37 38 20 48 48 31 61 66 44
52 60 37 47 54 30 44 51 28 49 57 34 49 57 34 49 58 32 56 64 37
51 60 33 54 60 35 50 53 31 39 44 22 35 40 19 59 64 42 57 61 38
52 56 34 48 52 30 45 50 28 49 54 31 53 57 33 56 61 37 65 69 46
64 70 44 60 66 38 59 65 38 54 62 39 49 59 36 36 43 26 57 65 40
65 76 43 59 68 37 50 53 35 31 32 25 33 35 30 28 30 27 37 39 36
46 48 45 39 40 37 15 16 14 11 11 10 7 8 5 7 9 4 14 15 9 41 42 37
11 12 9 10 9 5 20 21 15 28 31 22 40 42 36 40 42 38 9 9 7 14 15 9
16 17 13 27 28 22 26 27 20 41 42 35 61 64 57 21 24 19 25 27 21
31 33 25 16 17 9 11 12 4 10 11 4 12 13 6 32 33 23 48 51 38 59 62 55
44 46 41 33 32 56 53 55 48 83 85 78 51 56 64 12 15 71 42 18 83
121 37 101 115 10 78 119 2 7 166 6 0 235 59 16 231 72 34 244 71 30
249 141 87 249 122 92 246 116 80 232 97 84 236 120 116 219 47 43
174 2 0 137 5 38 100 15 103 41 10 88 48 47 72 83 80 87 64 66 61
32 34 53 27 26 63 10 11 30 1 0 77 2 3 70 5 3 62 42 2 27 95 17 9
101 7 4 97 1 1 94 0 1 90 1 1 111 4 4 152 2 3 174 2 1 195 2 2 209 2 4
139 11 14 25 32 33 32 32 30 36 38 33 15 17 12 23 25 20 27 29 25
18 18 17 36 32 23 45 36 24 17 13 5 17 17 10 27 27 20 30 30 23
19 19 12 25 27 21 25 27 22 25 27 22 28 30 26 28 30 27 25 27 24
21 22 20 13 17 14 45 12 12 113 7 7 91 11 12 109 23 22 153 49 47
175 77 70 177 78 78 138 41 41 124 25 23 113 16 14 114 20 17 117 25 19
121 30 24 129 36 28 152 56 53 175 78 76 181 82 81 163 63 62 164 64 62
169 70 66 121 21 21 110 16 16 80 4 2 91 2 3 138 5 5 140 4 4 91 3 3
99 9 6 86 8 8 32 24 19 25 28 25 28 29 27 31 33 30 28 30 26 46 50 35
43 47 29 47 52 30 52 57 35 52 57 35 54 59 39 53 58 38 51 55 37
61 66 44 60 65 43 58 63 41 56 61 39 35 40 17 48 53 31 59 63 40
57 61 38 55 59 36 43 47 25 53 58 36 58 62 39 66 72 46 54 60 34
60 67 39 64 70 43 65 71 45 68 75 46 72 79 51 52 59 41 55 63 42
42 44 33 39 43 33 44 47 37 42 45 37 41 44 36 34 36 31 27 29 22
21 21 15 22 21 14 23 23 15 26 27 21 29 30 25 25 25 21 42 44 38
40 43 36 41 43 38 37 39 34 32 34 29 30 32 27 33 35 30 34 36 31
40 42 37 38 40 35 31 33 28 28 30 25 27 29 24 25 26 21 20 21 16
35 36 31 35 37 32 32 34 29 30 32 27 26 28 23 31 33 28 29 31 28
36 38 35 35 37 34 32 34 31 27 28 25 29 31 24 27 27 22 26 26 23
36 36 34 37 38 34 33 35 31 30 32 28 38 39 33 43 44 37 42 44 36
41 42 32 46 47 36 47 47 31 119 26 18 205 4 10 213 2 7 175 3 2 129 2 2
91 1 3 88 2 2 115 20 22 135 37 33 110 6 7 47 2 7 4 1 23 7 10 14
55 57 53 67 72 72 100 103 104 111 99 98 75 31 29 83 28 25 109 53 48
119 52 49 139 33 36 134 33 37 142 37 39 159 49 49 157 50 50 143 39 40
135 31 34 137 31 33 123 50 46 110 61 51 87 39 25 61 13 13 101 73 67
112 112 112 76 78 77 66 64 63 14 15 21 5 1 53 63 4 12 120 5 3
133 30 14 121 24 20 99 3 5 88 1 1 110 3 2 163 5 3 210 2 6 226 3 9
140 19 10 40 28 12 26 30 13 34 36 17 40 42 23 50 52 33 57 64 42
55 64 40 50 60 36 45 53 30 50 58 35 50 58 35 55 64 36 58 67 38
53 62 33 47 54 28 48 54 30 46 51 28 39 44 22 57 61 39 57 61 39
57 61 38 55 59 36 48 53 30 54 58 36 54 58 35 64 68 45 68 72 49
65 70 45 60 66 39 54 60 34 54 58 38 51 59 36 38 45 28 57 65 42
61 72 39 62 73 42 56 59 41 33 34 27 38 40 35 29 31 27 35 37 34
44 46 43 36 38 35 20 21 19 22 22 19 11 13 8 10 12 7 20 22 16 53 55 50
8 14 14 5 11 8 24 25 19 36 37 31 61 62 57 39 40 37 9 10 5 17 18 13
25 27 22 19 20 13 21 22 17 37 39 33 43 46 38 41 44 36 20 23 16
20 22 17 23 24 20 15 16 12 13 15 9 12 13 8 38 40 32 55 58 47 59 62 55
56 58 53 7 8 67 23 26 22 31 34 44 13 14 73 0 0 91 16 1 123 94 18 133
117 12 70 148 3 14 213 4 3 243 1 1 245 123 56 246 168 91 249 185 137
250 194 163 245 177 118 252 190 174 244 135 105 210 26 13 169 0 0
121 4 0 149 8 115 74 10 101 9 11 100 29 30 100 26 29 97 10 9 106
1 0 80 2 2 50 4 0 98 1 2 65 1 3 34 0 1 8 73 23 15 98 46 40 89 32 24
102 3 2 107 2 1 121 3 3 136 1 2 153 1 0 176 1 0 191 1 2 127 11 17
23 31 35 29 28 26 33 36 32 16 18 12 21 23 18 22 24 20 17 18 16
29 29 18 39 35 19 18 17 10 14 15 7 19 20 14 22 23 17 19 20 14
23 24 19 21 23 18 21 23 18 24 26 23 26 28 25 23 25 22 19 19 17
13 17 14 58 8 9 119 14 16 141 60 59 107 59 49 120 19 20 146 51 47
174 74 77 168 68 71 164 66 69 130 36 37 151 59 58 167 73 69 161 68 65
156 59 58 164 64 64 185 84 85 160 59 60 146 45 46 135 35 36 147 47 48
103 15 14 86 46 38 67 12 9 118 2 5 128 4 6 114 5 3 132 4 3 104 6 4
84 5 4 46 16 12 19 22 20 24 24 21 25 26 24 22 24 21 34 37 29 40 44 28
51 56 34 49 54 32 47 52 31 50 55 35 53 58 39 47 52 34 55 60 38
58 63 41 57 62 40 58 63 41 38 43 21 57 62 39 59 63 40 58 62 39
60 64 41 47 52 29 58 63 41 63 68 44 68 74 46 57 63 38 60 66 39
65 71 44 62 68 42 71 77 50 71 78 51 50 58 39 56 63 43 45 47 36
41 44 35 44 47 38 44 47 38 41 44 35 36 37 32 24 26 18 22 21 13
30 30 22 23 23 15 32 32 26 40 42 36 30 31 26 41 43 37 42 45 37
44 46 41 43 45 39 37 39 34 36 38 33 37 39 34 37 39 34 39 41 36
37 39 34 38 40 35 33 35 30 26 28 24 22 24 19 19 20 15 37 38 33
39 41 36 34 36 30 35 37 32 31 33 28 33 35 31 30 32 29 35 37 34
37 39 36 41 43 40 35 36 33 29 31 24 23 24 19 26 26 23 38 38 36
37 39 36 37 39 36 31 33 30 34 35 29 47 48 39 47 48 38 45 47 34
43 47 33 49 43 29 172 6 9 193 5 5 175 3 3 149 1 0 114 1 1 96 1 2
91 4 3 92 18 14 106 17 13 66 4 5 10 2 2 0 2 0 3 4 7 14 15 45 26 27 52
58 59 62 57 54 57 14 15 15 13 12 11 79 84 74 121 114 102 112 52 49
122 40 42 138 59 60 160 73 76 164 81 85 144 65 62 131 49 47 102 49 44
116 108 97 106 112 103 19 25 17 2 6 4 32 38 32 66 67 63 36 35 50
20 17 59 9 7 18 1 2 49 10 6 13 49 8 4 103 21 6 97 21 16 90 10 6
97 2 2 106 3 1 140 5 2 176 2 1 197 1 3 183 5 10 70 38 27 38 45 27
44 47 28 63 66 47 54 58 38 57 64 41 56 64 41 56 64 41 55 63 40
54 62 39 54 62 39 56 64 37 59 67 39 62 71 44 55 64 37 48 57 30
40 46 21 38 42 22 61 65 42 60 64 41 61 65 42 63 67 44 53 57 34
57 61 38 56 61 37 65 69 46 68 72 48 70 76 50 68 75 48 60 67 40
58 62 39 49 58 34 32 40 23 57 65 41 65 75 42 65 76 44 60 62 44
37 38 31 39 41 36 32 34 30 34 36 33 40 42 39 28 30 27 27 30 27
19 19 16 19 20 14 23 25 21 34 37 29 58 60 54 9 16 15 6 10 6 28 24 19
66 64 61 79 78 76 27 27 26 18 19 15 23 24 21 27 29 26 42 43 37
25 26 21 15 16 13 37 40 32 42 45 36 45 48 39 38 41 35 20 22 18
16 18 14 21 23 19 15 17 17 30 32 32 48 50 45 33 36 29 26 28 23 2 1 87
2 0 56 0 0 40 2 2 26 2 3 70 14 2 129 79 20 123 164 12 91 186 3 16
208 4 3 231 59 46 242 122 77 247 186 144 254 226 138 254 230 124
253 209 156 246 184 151 248 170 124 216 100 69 190 22 19 161 4 33
116 8 106 43 9 113 1 2 131 0 0 82 2 1 68 4 2 107 3 3 62 3 2 18 6 2 82
3 3 45 4 2 0 40 3 2 79 16 14 169 154 153 114 111 96 116 10 9 143 0 3
152 2 3 140 1 3 156 2 1 147 3 1 161 0 1 118 10 17 20 28 32 25 25 24
22 24 20 13 15 11 13 15 10 13 15 10 15 17 12 16 16 11 11 12 6 11 12 7
13 14 8 18 20 15 20 22 17 18 19 14 17 19 14 15 17 12 14 16 11
12 14 11 9 11 8 16 18 15 24 25 21 25 27 22 63 9 9 107 13 12 110 35 36
86 73 65 114 29 30 139 42 46 159 59 62 174 80 80 177 76 79 159 62 63
206 115 114 197 103 103 159 67 65 169 72 70 155 55 52 147 50 47
145 53 49 121 27 26 107 9 12 102 7 10 98 24 25 91 88 79 54 15 13
123 1 4 136 5 10 121 7 4 143 2 4 95 4 3 74 1 2 53 10 8 16 19 13
11 10 6 21 20 17 24 26 21 24 26 17 41 45 31 43 49 26 43 48 29
48 52 34 38 44 24 50 55 35 38 43 25 30 34 18 33 37 21 34 38 23
36 40 24 37 41 21 45 50 28 42 47 26 41 47 24 45 52 30 41 45 26
44 48 30 49 53 39 57 61 43 54 59 40 52 56 38 53 58 38 56 61 38
61 65 44 63 67 46 44 48 31 54 57 42 39 40 31 37 40 33 40 43 35
43 46 36 40 44 36 31 33 27 24 26 20 28 27 22 32 32 23 24 24 16
34 34 26 45 45 37 29 29 22 37 37 29 37 39 33 37 39 33 35 37 33
36 38 33 34 36 32 36 38 33 38 40 35 30 32 27 28 30 26 30 32 29
28 30 28 26 28 26 22 24 22 18 19 15 29 31 25 31 32 27 28 29 25
29 30 25 25 26 20 30 31 27 34 37 34 29 31 29 28 30 26 29 31 26
32 33 29 29 31 26 24 25 20 22 23 19 30 30 28 29 31 26 27 28 24
27 28 23 27 27 19 33 33 28 31 31 27 26 27 22 25 28 23 36 26 23
153 5 5 160 5 1 153 2 1 138 1 2 136 2 5 129 2 2 102 26 18 111 95 84
107 13 15 53 0 4 1 2 1 1 2 0 0 2 12 0 1 46 1 2 13 2 2 2 2 1 4 0 0 2
0 0 0 64 63 64 107 107 107 31 32 29 64 60 59 124 121 120 98 94 90
110 104 104 124 120 119 101 98 94 28 29 26 99 102 95 97 97 99 7 7 25
0 0 16 0 0 1 2 3 5 4 4 40 2 2 66 2 2 36 1 3 21 0 3 3 19 2 2 98 27 18
119 104 91 89 59 45 120 5 3 137 3 5 134 1 3 150 1 0 166 2 2 157 7 9
62 37 23 36 45 23 44 47 26 44 47 26 44 47 26 45 50 29 42 47 27
39 44 22 38 44 22 43 49 27 42 48 26 42 47 26 37 42 21 41 46 25
47 53 31 46 52 29 41 47 23 36 40 22 50 55 33 50 53 32 45 48 27
45 49 26 40 45 22 44 48 29 52 57 35 53 58 38 48 53 33 49 55 36
50 58 38 48 57 38 49 58 35 44 53 30 31 37 22 54 58 43 60 64 47
58 63 46 50 53 39 34 35 30 36 38 33 27 29 25 32 34 31 38 40 37
35 37 34 31 33 30 23 25 22 28 29 26 17 19 15 40 42 36 42 44 38
14 16 12 10 11 7 21 21 15 73 71 65 58 58 54 32 33 29 34 35 31
20 21 19 43 45 37 58 60 49 51 52 45 28 29 24 35 38 31 21 24 18
36 39 32 34 37 29 37 39 31 35 37 30 36 39 30 21 24 16 15 16 14
17 19 15 13 15 10 20 22 17 2 2 72 3 2 42 2 3 21 1 3 0 0 3 64 40 3 155
160 4 150 179 2 24 196 1 3 196 8 7 237 141 94 248 149 117 248 190 170
254 242 57 253 253 0 253 219 149 244 178 128 251 174 126 238 140 109
206 38 26 181 5 83 41 8 67 0 3 63 3 3 147 2 2 98 2 2 86 2 4 77 2 4 43
1 2 25 3 2 32 1 4 44 19 5 19 67 2 3 77 8 9 165 153 153 127 124 110
126 13 10 152 0 3 164 3 3 146 3 4 187 5 7 163 3 1 161 2 1 111 13 16
20 31 33 27 27 27 18 20 19 17 17 14 21 22 18 19 21 17 21 22 18
20 21 17 16 18 14 14 16 12 18 20 17 18 20 15 16 19 14 16 18 14
16 18 13 19 21 16 18 20 15 14 16 13 6 8 5 6 8 5 16 18 13 22 25 20
65 8 9 98 10 11 78 21 23 52 48 45 97 67 65 104 24 26 129 33 34
172 85 82 181 80 82 160 61 63 188 98 96 196 107 106 179 89 87
180 87 85 154 56 54 123 26 26 103 14 14 95 13 14 93 29 29 94 46 46
68 52 49 41 36 31 40 14 10 100 6 6 114 3 2 106 3 2 116 2 2 81 3 2
83 2 4 54 11 8 16 18 13 12 11 7 19 18 15 27 29 25 29 30 22 39 43 28
50 55 33 41 46 25 62 67 45 41 46 26 49 54 34 50 55 35 32 36 20
42 46 27 38 42 22 22 25 13 47 51 34 67 71 48 45 49 30 55 60 37
49 54 32 64 68 48 56 61 40 32 35 22 48 53 36 52 57 36 55 60 39
43 48 28 29 32 18 50 53 36 44 47 29 42 45 31 37 39 28 24 25 18
19 21 14 19 21 15 19 21 14 19 22 15 26 29 23 26 28 23 29 29 25
30 30 21 31 31 23 39 39 30 37 37 28 37 36 27 39 40 31 37 38 32
31 33 26 22 25 20 23 26 19 32 34 28 34 36 30 24 26 21 33 36 29
25 27 21 24 27 20 26 29 22 29 32 25 30 32 26 29 31 25 33 34 29
33 34 28 25 26 19 28 29 23 27 27 23 15 16 12 19 21 18 33 35 33
25 28 23 25 27 22 28 30 25 27 29 24 29 31 25 28 29 25 29 29 27
26 27 23 31 32 27 25 25 20 16 16 9 14 14 9 32 33 28 26 27 23 20 23 19
29 16 12 146 5 3 154 3 2 168 2 3 155 3 4 156 4 6 163 1 1 136 39 37
151 153 145 113 21 20 52 1 3 0 1 0 0 2 1 0 2 1 1 4 35 1 2 37 1 1 0
1 1 2 1 1 2 1 1 21 30 29 42 52 52 54 17 17 16 24 27 26 59 63 62
98 104 103 115 121 119 73 79 77 46 50 46 14 16 15 50 51 46 45 46 53
4 6 47 1 2 48 1 1 18 1 2 9 4 3 80 2 2 45 3 2 3 2 2 4 7 3 2 42 1 2
88 15 14 166 156 150 124 96 93 147 7 6 157 3 4 148 3 4 164 2 3
157 2 3 150 8 8 74 48 29 57 66 43 57 61 39 53 57 36 71 75 53 66 71 49
47 52 30 33 38 17 38 43 22 59 65 42 47 53 32 59 64 42 56 61 40
42 46 28 52 57 35 63 68 44 68 73 49 62 67 44 65 70 46 58 62 40
49 53 31 48 52 30 37 42 17 23 28 10 24 28 12 58 62 42 56 61 39
46 50 32 50 54 38 52 57 38 51 56 35 50 56 38 52 60 39 51 57 33
55 60 37 49 54 33 47 50 34 13 14 9 8 10 5 21 23 19 32 34 31 37 39 36
20 22 19 25 27 24 32 34 31 31 33 30 41 43 40 16 18 14 15 18 12
50 52 48 20 21 17 15 17 11 44 44 37 21 22 18 40 41 37 37 38 34
47 49 38 55 58 42 49 52 38 27 28 23 16 18 13 19 21 15 16 18 11
24 27 20 53 56 47 51 54 46 33 35 29 13 15 8 9 11 6 13 14 12 15 16 13
16 17 13 10 11 8 2 3 47 1 0 38 1 2 1 1 2 0 1 2 74 36 2 170 162 2 153
160 3 20 184 0 2 196 7 5 240 133 73 248 165 102 251 196 156
254 232 111 254 239 78 252 215 149 248 173 121 230 118 62 212 28 16
193 0 45 161 7 82 90 11 74 25 8 57 1 3 143 1 0 156 2 1 134 1 4 93
0 4 41 1 3 40 1 2 25 0 3 47 38 6 33 77 0 0 75 6 5 112 102 99
114 112 98 130 15 12 164 0 2 176 2 3 161 3 5 205 5 8 187 1 1 131 7 3
40 19 9 22 28 27 25 26 26 20 23 23 59 62 57 75 78 72 72 76 72
72 75 70 73 75 70 72 74 72 31 34 30 18 20 17 14 16 13 14 16 13
13 15 12 13 15 10 19 20 16 25 27 22 20 22 17 12 14 10 12 14 11
18 19 15 18 23 18 69 10 10 111 13 13 81 44 43 43 25 24 51 48 42
88 59 54 107 26 27 143 45 47 159 59 61 156 59 60 171 77 77 166 72 72
168 72 73 156 58 59 127 29 30 101 10 10 90 20 16 82 35 36 80 71 65
62 66 59 51 36 35 47 5 7 76 49 46 99 61 51 114 1 1 105 1 1 117 1 2
86 1 0 88 2 5 51 7 5 12 15 10 13 12 8 17 16 12 27 29 23 38 40 31
46 51 35 53 58 36 43 48 26 50 55 33 38 43 23 50 54 35 45 50 30
29 33 15 54 59 37 51 56 34 30 34 17 37 41 22 65 69 46 46 50 27
52 57 36 55 60 38 71 76 55 45 50 30 32 35 23 58 63 45 60 65 42
61 66 44 51 56 32 31 33 16 55 58 41 39 42 27 49 51 37 44 46 36
33 34 30 17 17 15 11 11 8 6 6 2 12 13 7 27 28 23 34 36 30 35 35 31
43 43 33 48 47 38 40 40 30 38 38 25 53 53 40 51 53 40 44 46 35
28 31 22 20 23 15 22 25 15 39 42 33 42 45 36 24 27 21 42 45 36
37 40 31 25 28 19 33 36 27 48 51 42 48 51 42 42 43 36 45 46 40
36 36 28 36 36 27 24 24 18 25 25 21 17 19 15 14 16 13 30 32 30
31 33 28 30 32 27 31 33 28 34 36 31 36 37 31 33 33 30 29 29 27
28 27 26 32 31 29 26 25 21 16 16 9 10 10 4 29 30 26 32 34 29 25 27 23
30 22 16 94 26 7 167 7 4 191 1 5 181 2 6 170 4 3 168 0 0 152 42 37
122 106 99 110 13 13 51 2 3 1 2 0 0 2 2 2 2 14 2 4 41 1 2 17 1 1 1
1 1 0 3 2 27 4 4 45 0 1 11 0 0 0 0 1 0 0 0 0 6 6 7 37 38 40 42 43 43
22 25 23 5 8 26 0 1 5 0 0 0 0 1 0 1 3 0 0 3 23 3 3 58 3 3 27 5 2 71
1 1 8 0 2 0 0 3 0 20 4 3 77 3 4 103 9 7 128 95 90 135 83 82 162 6 8
165 2 1 175 2 3 190 1 2 179 2 3 110 12 9 53 48 23 55 63 36 58 63 41
51 56 35 67 72 50 50 55 33 44 49 27 38 43 21 44 48 27 58 65 42
35 42 22 45 51 28 63 68 47 37 42 21 59 65 40 76 82 56 82 86 63
71 76 50 72 77 52 49 53 30 50 54 31 36 41 21 38 44 20 29 35 12
22 26 11 47 52 29 61 67 43 59 64 43 56 62 37 59 65 38 63 68 42
65 71 49 59 67 43 64 71 42 60 66 37 58 64 34 51 54 37 17 19 12 8 10 5
14 16 12 28 30 28 34 36 33 16 18 16 27 29 26 30 32 29 33 35 32
68 70 67 30 31 26 17 18 15 41 43 41 16 18 15 12 13 10 22 21 16
20 20 16 38 39 34 60 61 55 67 69 59 51 53 44 25 28 18 18 21 14
15 17 12 17 19 14 34 37 27 27 30 21 41 44 37 56 59 52 45 47 42
11 13 9 10 12 7 17 19 15 23 24 22 18 18 16 21 21 19 1 3 45 3 2 56
3 2 1 1 1 0 3 3 84 31 4 155 119 7 135 144 4 46 171 1 7 193 10 9
242 141 85 248 148 73 243 154 109 246 196 159 244 198 150 246 197 157
247 159 91 216 51 25 215 0 0 169 4 85 125 6 63 153 9 114 70 12 100
0 3 105 0 3 159 3 3 143 2 3 65 1 4 38 2 4 40 1 3 40 1 3 38 41 4 15
88 2 0 80 4 4 107 38 35 122 42 36 143 7 7 175 0 2 194 1 2 163 2 2
172 4 3 178 1 2 122 8 4 17 16 8 30 29 22 29 24 16 29 29 21 63 62 53
64 61 53 58 41 38 73 69 61 67 68 59 59 60 56 32 34 27 16 19 10
12 15 8 10 12 8 12 14 9 8 11 6 15 17 11 24 27 21 21 24 16 16 18 10
20 21 16 28 28 22 25 26 19 37 26 25 117 4 11 136 22 22 81 65 57
45 45 41 49 50 51 74 61 58 102 32 27 127 27 32 126 31 32 127 38 36
122 28 26 108 20 22 101 20 25 97 34 35 80 41 37 64 53 48 58 57 55
34 39 33 36 31 26 78 11 12 91 3 7 81 57 51 111 71 61 155 9 10 114 3 3
105 2 2 77 2 2 72 3 5 39 11 9 15 18 11 13 14 9 18 19 14 24 27 24
34 37 28 49 53 41 52 57 36 45 50 29 49 54 33 38 43 22 54 59 38
45 49 30 26 31 10 54 59 36 54 59 37 36 40 21 37 41 21 59 64 41
49 55 32 52 58 35 50 55 33 66 71 49 43 48 27 37 42 25 60 64 43
62 66 43 59 64 42 48 52 31 30 32 17 54 56 38 48 51 34 57 60 43
50 52 38 33 34 29 26 27 22 20 21 16 12 13 8 9 10 5 12 13 8 19 22 17
33 33 29 39 39 33 45 45 39 39 40 33 30 31 21 47 48 37 46 49 34
32 35 27 30 32 27 25 27 22 27 29 23 42 45 36 36 39 30 19 22 14
32 34 27 37 38 31 24 25 17 37 37 29 47 48 39 46 48 35 45 47 35
46 48 37 31 29 21 30 28 21 27 25 18 24 23 18 22 21 18 20 21 19
27 28 24 36 37 31 31 32 26 32 34 26 36 37 31 40 41 35 32 32 30
29 29 27 29 28 25 28 27 23 25 21 17 20 15 12 15 14 10 26 26 24
35 36 31 24 26 19 26 34 22 65 49 21 167 15 6 170 2 2 192 3 4 206 4 4
197 6 8 200 9 11 148 11 13 136 4 7 67 3 5 6 2 0 2 2 5 3 2 52 1 3 18
1 2 0 0 1 2 1 2 0 3 2 37 3 3 33 0 1 0 0 1 0 0 2 0 0 1 2 0 0 2 0 0 2
0 0 1 1 1 0 1 5 44 2 4 19 1 3 8 1 1 2 1 1 1 1 1 5 2 2 20 5 3 78
3 3 68 2 3 3 1 3 0 0 1 1 21 3 4 83 3 2 134 6 5 137 9 10 174 12 14
197 7 8 203 5 7 204 2 5 169 3 2 177 5 3 92 30 21 26 38 18 47 52 31
56 61 39 53 58 36 66 71 49 48 53 32 50 55 33 42 47 25 43 48 26
58 63 40 39 44 27 48 56 33 61 65 44 39 44 21 44 48 25 71 75 52
74 77 54 68 72 48 57 63 36 41 46 22 42 46 23 41 45 22 41 46 23
33 38 16 31 35 17 48 53 29 64 69 45 57 62 40 53 60 38 59 67 44
63 69 46 72 78 53 58 67 43 57 66 39 57 66 36 55 66 36 49 50 35
27 27 22 14 15 11 6 8 4 19 21 19 30 32 29 22 24 21 29 31 28 39 41 38
29 31 28 64 66 63 73 75 70 42 43 40 49 51 47 17 19 15 15 16 12
30 32 27 23 25 20 37 39 34 39 40 34 69 71 63 63 65 60 28 30 25
23 25 20 11 13 9 7 9 4 19 21 15 28 31 22 46 49 40 54 57 48 43 45 40
11 13 8 10 12 7 16 17 13 23 23 20 33 32 28 26 24 21 1 3 39 3 2 57
2 2 1 1 1 1 6 3 90 5 3 142 20 4 94 150 5 125 135 2 15 166 8 9
233 116 48 251 132 69 242 109 60 239 123 75 243 161 102 243 170 125
239 102 62 238 63 27 233 20 11 151 2 2 123 6 38 103 11 93 39 8 73
1 2 85 1 3 135 5 2 131 3 3 36 1 4 31 1 4 41 2 3 49 0 3 41 46 4 5
97 1 2 91 3 3 114 1 3 146 0 2 178 3 5 186 2 3 210 1 3 168 1 2 160 1 1
173 0 1 145 23 14 70 54 45 70 58 45 72 57 41 68 55 41 73 60 46
75 61 47 74 53 41 80 65 50 73 65 50 49 50 42 28 31 20 17 21 7
19 22 12 24 26 18 24 27 18 22 25 15 23 26 16 24 27 20 26 28 20
25 28 19 21 23 14 28 29 20 26 27 18 25 29 25 110 8 12 147 37 41
124 121 119 92 69 67 13 2 46 25 29 66 67 66 66 76 50 58 111 61 65
109 52 56 97 36 43 86 59 51 74 71 64 71 74 71 50 53 62 39 37 40
47 40 37 42 28 20 75 43 39 98 26 29 104 31 30 118 10 9 155 24 21
167 30 29 135 3 4 122 2 4 83 3 5 67 6 6 33 22 17 28 30 24 32 33 25
35 36 28 27 30 24 33 36 27 30 33 23 30 34 21 31 35 20 33 37 21
30 34 17 43 48 31 37 41 22 31 35 16 54 58 37 53 58 34 39 43 25
54 59 39 64 69 47 61 66 44 56 61 39 53 58 36 65 70 48 44 49 27
38 42 25 54 58 38 64 68 46 60 65 42 39 42 22 30 31 15 58 60 40
62 65 45 65 69 47 55 57 40 35 36 31 32 33 28 30 31 27 19 20 15
12 13 8 14 16 11 13 14 10 26 27 23 32 33 28 37 38 33 46 46 43
38 39 33 47 48 38 46 48 34 32 35 28 33 35 30 29 31 26 26 29 24
38 41 32 32 35 26 23 26 18 35 36 30 36 37 30 25 25 17 24 24 16
41 42 33 46 48 34 41 43 29 35 37 24 30 27 20 30 27 20 28 25 18
24 23 14 24 24 18 23 24 22 27 28 24 36 37 31 32 33 27 33 34 27
40 41 35 39 39 34 33 33 30 27 27 25 26 25 21 20 20 14 21 17 10
22 17 9 16 16 9 25 26 24 34 34 30 29 31 22 39 48 32 57 53 30
133 37 17 157 2 3 195 4 3 220 7 7 226 14 17 222 10 10 209 8 7 150 0 1
106 2 4 21 3 22 3 4 34 2 3 61 1 4 7 1 3 1 1 2 2 1 3 3 4 2 51 3 3 37
1 3 0 1 2 8 0 2 11 1 2 9 1 2 11 1 3 34 2 3 43 1 3 16 1 4 29 1 3 65
3 3 39 1 2 0 1 1 1 1 1 0 2 1 9 6 4 85 3 4 27 1 3 2 1 3 1 1 2 3 29 0 3
92 1 1 152 3 3 203 3 7 224 15 21 224 13 17 220 8 12 209 2 5 160 1 3
143 27 12 83 61 31 48 56 37 54 59 38 60 65 43 62 67 45 66 71 49
59 64 42 60 65 43 59 64 42 61 66 44 64 70 47 40 44 29 51 56 34
68 73 51 44 49 26 51 56 32 57 62 39 73 77 54 60 64 43 40 45 23
48 54 30 45 50 27 47 51 28 36 41 18 40 45 23 38 43 26 47 52 30
61 66 43 58 63 41 55 62 39 62 71 48 67 73 50 72 77 52 61 72 46
55 64 39 55 65 36 52 63 34 44 44 30 31 31 26 16 17 12 14 15 12
21 23 21 29 31 29 14 16 13 28 30 27 40 42 39 14 16 13 51 53 50
88 90 86 50 52 48 34 36 32 36 38 34 54 56 51 68 71 65 51 54 47
47 49 41 38 39 33 46 48 43 66 68 63 58 60 55 27 29 25 25 28 22
42 45 36 37 40 31 21 23 16 45 48 40 25 28 20 11 13 8 9 11 6 8 10 5
13 14 10 37 37 33 80 79 75 35 34 30 1 1 38 2 2 57 1 3 0 2 2 28
5 3 107 1 3 92 10 3 61 91 5 109 145 6 83 176 50 23 183 68 19
186 59 44 231 107 78 239 65 50 225 90 67 224 82 50 237 12 9 210 43 18
185 28 10 158 5 60 119 7 102 28 4 55 0 1 46 2 1 67 3 2 99 5 2 92
3 2 10 1 3 32 1 4 41 2 2 49 0 3 43 45 4 4 111 1 2 126 2 3 142 4 6
185 5 9 222 4 9 215 4 4 218 3 5 173 2 1 153 1 1 154 7 6 157 52 26
92 73 54 90 74 51 92 74 51 94 73 51 92 72 50 91 72 50 92 72 51
90 72 50 84 67 51 51 53 45 34 36 26 25 29 16 31 34 25 40 43 34
35 38 29 32 34 21 42 45 32 31 35 23 28 31 21 33 36 26 32 36 24
36 38 28 30 31 22 21 31 21 88 17 12 144 6 8 131 24 26 115 23 19
71 4 12 46 26 54 74 72 93 11 17 114 48 53 123 44 48 122 39 39 113
71 73 75 107 109 103 69 73 91 20 9 53 72 22 23 97 17 16 95 40 32
110 103 96 84 86 83 106 97 90 164 9 8 182 6 4 163 4 3 131 1 1 112 3 2
92 3 2 61 14 7 31 30 18 33 35 29 35 36 30 34 35 28 38 41 32 33 36 24
36 41 23 39 43 28 29 33 19 28 32 17 34 38 19 31 35 17 34 38 21
30 34 19 37 41 26 40 44 27 32 36 20 45 49 31 49 54 34 53 59 37
55 60 38 57 62 40 65 70 48 51 56 33 43 48 27 62 67 45 69 74 52
65 69 46 35 38 17 35 34 18 58 61 39 69 73 51 66 72 49 59 62 44
36 37 29 33 34 27 31 33 27 18 20 16 16 18 13 29 31 26 30 32 27
21 23 18 32 34 29 33 35 30 34 36 29 37 38 32 46 48 36 48 50 38
36 37 30 36 37 31 37 38 34 35 38 34 42 45 36 35 38 29 20 23 14
37 38 32 43 43 37 29 29 21 36 36 28 37 38 29 47 49 35 43 44 31
24 24 13 30 28 20 31 28 21 32 29 22 27 26 18 24 24 19 16 19 13
28 29 24 41 42 37 31 32 26 33 34 28 38 39 34 42 43 35 45 45 40
31 31 27 24 23 18 15 15 9 26 19 13 25 18 12 14 13 7 27 29 27 40 41 36
34 35 26 45 52 36 37 42 27 69 22 15 168 3 3 170 2 3 176 3 2 199 1 2
202 2 3 197 8 10 130 38 36 117 31 22 22 14 77 0 0 88 2 4 49 0 5 1
2 4 1 2 4 34 3 3 43 3 4 48 2 3 27 0 3 20 1 1 45 2 0 50 2 2 48 1 2 69
3 2 113 3 3 126 2 3 86 0 2 59 1 2 58 1 3 40 1 3 6 1 2 3 1 3 4 3 2 31
4 3 82 2 3 19 0 2 2 1 2 3 37 9 10 89 55 51 107 41 32 136 38 26
195 9 9 208 0 0 198 1 1 184 1 0 178 2 3 177 2 2 122 20 7 37 47 17
41 47 26 47 51 32 44 49 31 41 45 27 44 49 28 45 50 28 48 53 31
50 55 33 50 55 32 49 55 32 33 38 22 48 53 31 59 64 42 47 52 32
43 48 27 58 64 41 69 74 52 56 61 39 42 47 25 48 53 28 51 57 31
53 59 33 44 49 27 36 41 17 34 39 20 54 58 40 69 74 52 63 68 46
59 66 44 65 74 50 68 74 50 72 76 53 70 81 56 63 71 48 55 65 40
52 60 37 31 32 18 28 27 24 19 20 15 21 22 19 25 27 25 28 30 27
21 23 20 29 31 29 18 20 17 30 32 29 76 78 75 72 74 71 58 60 57
70 72 69 73 76 73 55 57 54 75 77 73 60 62 57 62 64 59 59 61 56
70 72 68 56 58 53 62 64 59 78 80 75 63 66 57 68 71 62 68 71 61
58 60 56 60 62 57 60 62 58 61 63 58 68 70 65 52 54 49 54 56 51
51 51 46 76 75 71 66 65 61 1 2 34 1 2 57 1 4 6 2 3 45 3 2 109 1 3 84
1 2 52 13 4 73 107 10 124 195 69 82 141 16 16 149 0 0 211 52 52
224 24 25 197 0 0 189 0 1 211 5 4 160 3 3 125 3 37 121 12 109 58 7 90
0 1 40 2 1 46 1 2 56 2 3 91 6 3 79 2 2 1 1 4 35 1 3 42 1 2 43 5 4 40
52 3 4 119 1 3 142 1 4 174 4 8 204 5 4 222 4 7 216 3 7 207 6 6
173 3 2 156 0 1 147 12 10 138 58 22 72 56 31 73 54 35 73 54 35
70 51 35 92 75 57 83 67 47 74 54 33 76 58 36 70 61 40 43 44 34
34 37 25 36 41 26 39 43 29 38 41 28 30 34 21 38 42 27 41 46 30
27 32 17 29 33 17 37 41 25 39 43 26 37 41 25 33 36 21 26 34 20
82 26 17 132 19 17 150 2 2 158 9 13 128 24 22 100 34 35 101 97 99
51 42 65 42 41 92 56 52 97 30 28 114 43 42 98 131 132 120 87 77 82
78 8 25 108 12 11 100 25 25 87 39 37 89 59 54 102 39 36 129 41 36
160 7 6 159 1 2 139 1 2 122 2 1 109 4 1 88 3 2 53 24 15 39 41 29
33 35 26 35 36 27 41 43 31 39 42 30 31 35 19 37 41 24 39 43 27
29 33 17 36 40 24 38 42 27 36 40 25 37 41 26 35 39 24 33 37 22
34 38 22 31 35 18 30 34 18 34 38 21 33 37 19 34 38 20 36 40 22
38 42 24 36 41 23 30 34 20 50 54 36 58 63 42 57 60 40 36 39 22
37 37 23 60 63 43 74 77 56 69 74 49 63 67 46 38 39 32 30 31 24
25 27 21 23 25 20 22 23 18 34 35 30 37 38 33 34 36 30 39 41 34
39 40 32 44 47 35 47 50 35 50 54 35 49 53 37 44 48 33 44 47 34
46 50 37 46 50 36 46 49 37 38 41 31 20 23 14 38 40 32 40 42 34
34 36 27 35 37 29 34 36 27 44 46 32 45 47 33 25 26 14 25 24 17
30 29 23 30 29 23 25 26 20 22 23 17 18 21 13 30 32 26 32 34 28
30 33 25 36 38 31 33 36 26 39 42 28 34 37 24 25 28 15 20 23 9 15 19 7
26 29 16 29 31 17 23 26 12 30 34 21 34 37 24 36 39 25 35 39 24
29 38 21 71 30 21 179 6 9 165 4 2 154 3 2 179 2 3 201 2 4 169 52 51
132 123 115 107 88 80 109 105 128 23 27 59 1 5 16 1 5 6 2 4 27 2 3 44
3 2 30 1 2 5 1 2 3 1 2 37 2 2 63 2 1 68 2 1 77 3 2 125 4 2 174
4 3 185 2 2 142 2 3 93 2 3 63 2 2 51 0 2 21 1 2 2 1 3 0 3 4 46 3 3 87
1 5 22 1 3 1 25 3 3 93 46 29 154 148 139 116 102 93 120 110 102
156 70 68 203 12 8 185 2 3 161 1 2 159 1 2 178 5 5 116 16 7 24 31 14
35 40 25 43 47 32 36 40 26 31 35 21 37 41 25 34 38 21 30 35 18
30 34 17 30 34 17 32 36 19 30 35 19 34 39 23 36 40 26 32 35 26
37 41 26 43 47 29 38 42 22 39 43 25 39 43 25 35 39 20 34 38 18
34 38 19 33 38 17 29 34 14 30 34 18 39 44 25 49 54 34 52 56 35
49 55 33 46 55 31 50 57 34 49 56 34 60 69 45 54 62 40 44 52 31
38 46 28 19 23 11 23 26 16 21 24 14 26 30 19 31 36 24 30 35 24
39 43 35 35 37 33 20 22 19 42 44 40 65 68 63 68 70 66 61 63 58
66 68 63 76 77 73 83 86 81 83 85 80 71 73 68 68 70 65 69 71 66
73 75 70 76 78 73 75 77 72 77 80 74 64 67 60 73 76 67 79 82 73
70 73 66 74 77 71 74 76 71 76 78 73 79 81 76 75 77 72 69 71 66
77 78 73 80 80 76 79 80 75 1 3 39 2 2 58 2 3 47 2 3 96 2 2 104 1 2 76
3 2 64 4 2 72 4 4 89 79 10 138 143 6 73 201 6 49 180 3 21 191 3 43
193 3 55 173 2 22 170 4 42 154 6 57 117 9 120 32 8 94 2 2 66 2 0 52
2 1 47 1 2 50 2 4 67 5 4 67 1 1 0 1 4 38 1 5 48 3 2 5 43 7 20 77 8 9
128 6 5 139 5 5 175 4 6 203 3 2 210 2 2 208 1 6 193 4 6 164 2 1
161 0 1 158 10 7 82 49 26 55 53 24 72 52 32 74 54 36 70 52 37
78 60 46 74 56 40 72 52 34 76 60 37 74 62 41 40 43 26 41 44 30
43 47 32 41 45 30 32 35 21 41 45 31 42 46 29 30 34 18 32 36 21
33 37 21 45 49 32 42 46 29 41 45 28 34 39 20 30 35 19 44 40 21
99 38 29 133 24 23 154 3 6 171 13 14 118 18 21 89 64 69 106 42 37
117 40 34 126 53 47 74 53 68 79 67 71 118 123 118 94 69 66 87 34 30
76 49 47 95 45 44 141 14 13 169 5 7 165 2 7 154 0 2 139 2 1 142 2 1
144 2 5 131 1 4 107 2 2 69 20 13 45 43 24 38 40 24 32 34 19 40 42 29
45 47 33 39 40 28 37 41 23 35 39 22 30 34 18 32 36 19 40 44 28
37 40 26 31 35 20 30 34 19 41 45 31 46 50 34 42 46 29 38 42 25
39 43 26 36 40 24 37 41 25 38 42 26 33 37 20 32 36 19 28 32 17
30 34 20 33 37 22 28 32 16 37 40 22 38 40 26 32 33 19 42 44 29
50 53 36 48 53 31 49 52 37 31 32 25 29 30 21 31 33 26 32 34 29
33 34 26 37 38 29 35 36 27 36 38 25 42 44 31 37 39 25 36 39 24
34 37 22 35 39 18 34 38 20 32 37 19 32 36 18 33 37 21 42 46 32
37 41 24 32 36 22 33 36 26 32 35 25 33 36 26 33 36 27 32 35 25
37 41 30 37 39 26 30 32 19 26 29 14 29 28 16 39 39 27 34 36 24
44 47 33 40 42 29 33 36 24 39 42 28 40 43 29 33 36 25 37 40 28
35 39 23 31 35 20 30 33 18 32 36 18 36 39 24 45 49 33 47 51 32
42 45 28 54 56 40 47 51 36 38 42 25 40 43 24 31 33 16 28 33 15
33 39 20 116 21 12 189 2 3 185 1 6 157 3 4 186 5 5 174 29 30
146 106 103 89 83 80 142 143 141 102 90 92 14 14 95 0 2 88 2 2 75
2 3 20 1 2 0 0 1 3 1 1 3 1 2 37 1 1 81 0 1 88 1 1 131 0 1 183 8 8 230
16 16 240 2 2 197 2 2 153 1 2 105 3 2 85 1 2 44 0 2 2 1 3 0 3 2 16
2 3 85 1 3 71 7 3 6 73 2 2 116 71 61 141 142 138 99 97 93 123 99 93
158 44 40 195 6 6 168 3 5 179 2 4 186 1 1 128 17 15 44 35 22 31 33 22
23 27 14 22 25 18 26 29 19 16 19 10 38 41 31 43 47 32 40 44 29
37 41 25 38 42 27 34 38 23 31 35 19 30 34 21 36 40 28 36 39 27
32 35 20 29 33 16 35 40 19 38 42 24 42 46 30 37 41 25 42 46 31
45 49 34 37 41 25 34 38 23 38 42 26 34 38 21 30 34 18 31 36 15
37 43 21 37 44 22 38 45 23 39 47 25 35 43 20 34 42 21 37 44 25
31 37 20 27 36 19 23 32 15 29 39 21 33 41 25 32 38 23 32 39 23
36 41 29 35 38 28 33 37 27 31 34 24 35 38 28 36 39 29 42 45 34
44 47 37 41 44 34 46 49 39 41 44 34 44 47 37 44 47 37 39 42 32
46 49 39 63 67 56 56 60 46 42 45 33 49 52 42 57 60 51 55 59 48
66 70 59 64 67 57 64 67 57 66 69 59 63 65 58 67 69 63 63 65 60
79 81 74 87 88 80 64 66 57 2 4 44 2 4 48 3 2 110 3 2 90 1 2 64 2 2 71
2 1 76 0 1 91 0 0 121 6 2 135 111 8 162 133 6 172 136 5 73 134 9 133
130 8 181 137 5 70 130 6 134 133 8 169 47 5 173 0 2 109 2 2 82 4 1 60
3 2 52 5 1 77 3 1 103 5 3 55 1 2 5 2 7 57 5 6 61 31 5 4 101 77 79
118 103 98 111 48 28 122 68 53 169 27 33 202 8 7 211 5 6 192 3 4
163 1 2 162 1 0 170 0 1 167 9 7 68 54 32 48 56 34 75 60 37 80 62 43
78 62 46 77 62 46 79 62 47 79 60 45 81 62 43 79 62 44 49 53 32
48 53 32 45 50 30 37 42 22 43 47 28 53 57 38 42 46 31 32 36 22
37 41 24 43 47 30 44 48 31 45 49 32 48 52 37 43 48 29 35 39 22
38 45 24 65 41 27 121 25 21 139 5 4 176 2 2 151 3 5 102 4 3 147 3 5
164 3 4 163 4 5 164 4 0 130 34 29 91 78 69 84 37 28 116 23 21
147 30 25 174 3 5 183 1 1 178 17 15 146 29 27 121 17 14 136 5 5
146 1 1 134 2 2 126 1 1 90 10 6 42 38 19 42 45 24 43 48 26 40 49 25
40 47 29 48 55 36 41 50 27 43 48 30 47 50 34 43 47 30 50 54 37
50 53 36 47 52 32 38 43 23 36 40 21 43 47 27 47 51 32 40 44 27
33 37 20 32 36 20 47 51 35 43 47 31 41 45 29 47 51 36 48 52 36
38 43 27 41 45 30 49 53 37 43 47 27 42 47 27 33 35 20 29 29 14
36 38 21 40 44 22 40 45 26 40 43 25 42 44 30 41 44 27 45 47 37
44 45 38 50 53 32 41 44 24 36 39 19 39 42 21 46 49 28 40 43 23
33 37 17 32 37 20 39 43 27 36 41 22 40 45 25 41 45 26 41 46 26
50 54 34 40 45 24 32 36 17 44 48 32 36 41 25 31 35 20 31 35 20
29 33 18 41 45 30 41 45 27 37 41 25 46 50 33 51 55 33 43 48 26
41 46 24 49 56 35 42 50 28 36 46 23 35 44 20 33 43 18 31 41 17
38 46 24 36 44 22 37 46 25 43 50 33 41 48 30 43 49 31 46 53 35
43 49 31 37 45 28 35 43 26 34 40 21 33 38 21 36 40 23 38 39 21
37 38 23 24 34 19 108 22 12 188 3 2 179 2 3 176 3 5 169 3 1 195 0 3
173 4 7 146 29 26 111 78 79 127 23 31 48 4 72 7 2 83 1 3 33 0 2 1
1 1 1 0 1 3 0 2 2 1 3 54 1 0 95 0 0 113 5 1 167 2 0 216 7 7 246
15 14 245 2 1 226 3 2 190 2 2 127 4 1 104 4 1 75 1 2 12 1 3 1 1 2 6
1 1 64 1 3 90 48 4 9 119 2 3 142 13 11 116 76 74 116 56 59 160 9 9
193 1 2 188 0 2 175 1 4 177 2 3 184 0 3 124 22 18 35 51 31 39 42 30
30 33 18 26 29 19 33 37 24 21 24 15 35 37 29 37 41 27 37 41 26
45 49 33 54 58 41 39 43 27 47 51 34 46 51 33 52 57 38 57 62 40
42 47 25 36 42 20 40 45 24 39 44 25 31 35 18 31 35 18 36 39 23
40 44 27 41 45 28 40 44 27 41 45 28 38 42 26 38 42 24 41 46 25
42 47 25 41 46 24 33 38 17 34 40 18 30 35 14 31 36 16 37 42 23
43 47 31 45 50 30 41 46 26 44 49 29 44 49 28 44 50 28 46 51 29
43 48 29 41 45 27 38 43 26 31 35 19 37 42 25 36 40 24 31 35 19
50 54 37 49 53 37 46 50 33 37 41 25 40 44 28 46 50 34 39 43 27
35 39 23 34 38 22 36 41 22 37 42 21 33 38 17 37 41 26 31 35 18
34 38 21 38 42 25 41 45 28 42 47 29 36 40 23 36 40 24 44 47 34
45 49 33 42 45 24 43 47 26 4 3 102 4 4 96 2 1 43 2 1 59 1 1 62 2 2 78
1 1 94 1 0 114 1 0 140 3 1 163 10 3 190 12 4 221 88 14 179 89 58 215
21 18 236 94 9 187 31 7 192 10 3 200 8 3 224 1 3 183 1 3 107 3 2 77
1 1 64 3 1 85 4 2 114 6 4 50 3 4 65 0 6 87 38 1 10 75 44 40
156 160 153 158 164 154 99 94 84 139 136 136 148 108 110 197 34 31
197 1 2 162 1 2 150 4 3 170 2 2 183 2 3 160 17 15 69 54 29 59 56 36
77 60 40 79 61 42 77 60 42 75 59 43 77 60 45 80 60 45 83 62 46
77 63 46 48 52 29 46 51 30 35 40 19 37 42 20 49 54 33 46 51 30
38 43 23 41 46 27 43 48 28 39 44 24 41 45 25 39 44 24 43 48 29
35 40 19 35 39 20 38 43 22 34 44 20 84 26 17 133 4 6 164 3 3 151 5 5
128 3 0 164 3 4 167 2 5 169 3 3 147 2 2 133 2 1 113 3 4 128 4 7
169 4 3 176 1 1 155 4 4 145 23 19 145 38 33 137 36 31 122 19 20
137 3 4 133 1 1 108 1 2 83 9 3 57 35 21 46 51 29 42 47 25 39 43 21
38 45 22 44 51 29 41 48 28 38 47 27 39 44 26 44 48 32 46 52 34
40 46 27 35 41 22 45 51 30 44 51 30 47 53 33 47 54 33 49 55 35
41 48 28 38 42 23 39 44 24 43 48 27 42 47 26 39 44 23 37 42 20
36 41 20 48 52 31 46 51 30 47 52 31 52 57 34 49 54 33 41 45 27
40 42 25 44 48 28 47 52 31 42 47 25 45 49 27 46 49 30 37 40 22
40 42 27 42 44 32 37 41 24 45 49 29 44 48 29 43 47 27 42 46 27
41 45 24 46 50 29 55 60 38 51 55 36 42 46 27 39 44 24 40 45 25
45 50 31 40 44 26 43 48 28 36 40 22 36 40 22 42 46 31 35 39 24
33 37 21 44 47 33 42 46 32 47 51 33 44 49 31 37 40 24 38 42 27
35 38 22 36 39 21 33 40 22 31 38 21 27 33 18 30 36 19 35 41 25
28 34 18 30 37 21 35 42 25 29 35 23 33 39 28 39 45 32 41 44 28
43 47 29 38 48 28 31 40 23 29 36 21 34 43 24 40 48 30 29 35 22
22 23 14 38 41 29 41 48 33 92 40 27 163 9 8 149 3 2 125 3 3 140 9 9
166 22 16 187 8 10 212 15 16 154 5 7 166 4 7 148 5 13 73 5 10 11 3 5
1 2 2 1 1 2 1 2 3 1 2 11 1 1 52 1 1 84 1 1 104 2 1 144 2 1 192
3 3 220 3 3 230 2 2 202 1 3 165 1 2 117 1 0 92 2 2 65 1 2 10 2 3 2
3 3 2 7 3 10 36 5 47 108 5 8 148 3 3 182 4 6 179 13 17 179 11 16
195 11 15 174 18 15 157 20 18 128 3 4 136 2 2 169 6 8 99 31 28
34 49 27 47 52 32 49 53 32 42 46 25 45 50 28 49 54 31 42 46 28
41 46 27 38 42 24 35 39 22 40 44 28 37 41 24 39 43 26 44 48 28
45 50 28 46 51 29 47 52 29 48 53 31 47 52 32 48 53 33 45 50 31
46 50 32 40 45 25 41 45 25 35 40 21 36 40 21 34 39 22 45 48 33
47 51 33 46 52 27 51 56 34 51 56 32 44 48 25 48 52 31 43 48 26
38 43 22 38 43 22 31 36 16 35 40 18 36 41 19 38 43 21 41 47 24
42 47 24 46 51 29 38 43 22 38 43 23 43 48 26 45 50 29 41 46 25
43 48 26 38 43 22 43 48 27 48 53 32 42 47 25 36 41 19 33 38 16
32 37 17 38 43 22 41 46 25 45 50 28 42 47 25 43 48 27 51 56 34
52 56 36 53 58 37 53 58 38 41 45 26 33 37 17 45 50 30 47 52 30
40 45 23 42 47 27 41 45 25 38 42 22 54 58 38 7 3 128 2 2 70 0 1 50
1 1 67 3 0 75 1 1 91 1 1 116 2 0 146 1 0 174 2 1 196 3 2 223
13 14 238 51 48 239 89 86 246 54 58 240 23 19 235 3 2 229 4 1 211
2 1 205 2 2 222 1 2 136 1 0 104 0 1 86 1 2 69 6 4 119 6 3 140 2 4 108
6 5 77 67 2 1 105 40 40 138 131 124 124 132 127 85 62 64 134 84 82
159 34 38 195 9 8 175 3 3 162 2 1 179 2 4 183 2 4 166 6 5 79 49 23
68 57 30 67 58 34 66 58 33 68 58 34 65 58 35 72 56 39 71 56 39
72 56 40 80 62 47 73 64 45 49 53 30 42 46 24 37 42 20 49 54 32
50 55 33 48 53 31 48 53 31 49 54 32 39 44 23 43 48 26 45 50 27
47 52 30 52 58 35 45 50 28 37 42 21 44 48 27 45 48 27 56 57 44
96 30 23 138 3 1 134 4 4 141 5 6 136 4 3 158 4 5 149 5 5 125 5 5
137 4 5 135 4 2 150 3 3 138 1 2 147 0 2 132 5 2 141 13 12 141 24 27
126 45 42 128 10 10 129 0 1 102 4 1 98 3 1 60 34 14 48 52 28 50 51 31
37 40 19 39 42 21 46 52 30 54 60 35 51 58 35 47 54 34 49 53 36
55 59 42 54 62 41 50 58 37 41 50 28 47 56 34 52 60 39 47 55 35
38 46 25 31 39 19 39 47 25 44 50 28 47 52 30 47 52 30 50 55 32
56 61 38 45 50 27 35 40 18 45 50 27 52 57 34 50 55 33 45 50 28
39 44 22 40 45 23 43 46 26 46 51 31 50 54 37 41 45 27 38 43 24
44 49 30 39 41 27 39 41 28 34 36 26 38 42 26 44 49 33 41 45 29
40 45 28 35 39 23 26 31 14 39 43 24 44 48 30 33 38 22 29 32 21
25 28 20 16 19 10 25 28 20 43 46 37 23 27 16 24 28 16 28 32 19
28 31 21 38 41 31 31 35 22 43 47 31 43 47 31 42 47 29 42 46 29
47 51 34 40 44 29 42 46 31 42 46 32 47 51 36 28 31 18 7 9 5 18 20 12
13 16 10 17 19 13 20 23 15 19 21 14 29 31 25 36 39 29 42 45 29
45 48 29 48 51 30 50 59 38 49 58 36 47 54 33 44 52 31 50 59 35
35 42 24 31 33 23 61 65 47 57 62 40 59 64 35 128 19 13 168 2 3
168 2 5 173 7 9 147 15 10 161 4 3 190 2 1 179 2 3 192 4 10 154 3 3
122 4 5 66 3 4 12 4 2 0 2 3 1 2 6 0 0 10 0 0 38 1 0 65 2 2 75 0 2 98
1 2 143 1 2 169 2 2 177 2 1 148 1 3 121 0 4 85 1 2 65 0 2 31 0 0 5
1 1 0 7 4 1 64 4 5 101 4 3 125 3 4 158 3 3 204 5 7 208 8 10 171 3 1
156 2 3 151 14 12 166 16 14 170 4 10 165 3 5 149 8 10 61 47 33
51 62 40 52 57 35 48 53 31 51 57 34 61 68 39 66 73 42 55 62 34
50 55 32 52 58 36 44 49 28 43 47 26 43 48 26 36 41 20 37 42 20
39 44 22 34 39 17 43 48 26 50 55 33 45 50 30 47 52 32 54 59 38
47 52 32 44 50 29 45 50 27 43 48 26 40 46 24 37 42 21 44 49 29
38 43 21 38 42 22 36 40 21 39 44 22 43 47 24 43 48 26 44 49 27
48 53 31 48 53 30 40 45 23 40 45 23 45 50 28 52 56 35 49 54 32
46 51 29 38 43 22 39 44 22 38 43 21 40 45 23 43 48 26 43 48 26
45 50 28 47 52 30 49 54 32 55 60 38 57 62 40 53 58 36 50 55 34
59 64 42 50 55 33 42 47 25 46 51 29 46 51 29 44 49 27 41 46 25
45 50 27 48 53 32 45 50 28 45 50 28 48 53 31 44 49 26 39 44 22
45 50 28 48 53 31 45 51 28 41 46 24 41 46 24 4 3 106 1 2 49 0 1 57
1 1 70 2 1 78 1 0 102 1 0 127 3 1 154 1 0 186 1 1 212 6 4 237
43 46 247 74 79 247 110 107 251 84 82 247 48 48 244 3 4 238 1 0 224
1 1 218 1 3 227 1 3 144 0 1 112 0 1 92 1 1 68 2 3 86 4 3 156 9 4 100
37 5 4 120 3 5 144 0 6 132 63 60 116 88 84 134 21 23 173 2 3 211 1 7
193 5 6 165 3 2 183 4 2 181 3 2 182 0 1 166 7 5 75 54 36 69 56 36
70 58 37 70 57 35 71 57 35 72 57 38 74 57 41 73 57 41 72 54 39
81 62 47 74 62 45 45 48 27 34 40 18 43 48 26 47 52 30 46 51 29
41 46 24 48 52 31 49 54 32 47 51 30 48 53 31 44 49 27 46 51 29
47 52 31 47 52 30 49 54 32 48 52 31 49 51 31 37 44 22 56 36 18
109 3 3 143 6 7 127 23 12 108 12 5 151 4 4 137 2 3 103 26 12
148 17 12 128 7 4 132 1 1 121 3 1 137 7 4 153 5 7 159 2 2 112 58 48
109 118 111 102 28 26 104 2 2 90 35 22 94 13 8 70 43 25 51 55 32
40 43 23 39 47 25 47 56 32 48 56 33 50 60 32 48 56 33 35 43 22
34 39 21 39 43 26 37 45 25 45 53 33 37 45 25 34 42 22 38 46 24
35 43 23 37 44 24 36 43 23 45 53 32 48 56 34 47 54 32 46 51 31
48 52 36 47 51 36 36 40 25 43 47 32 41 45 30 37 41 28 38 42 29
38 42 28 35 39 24 25 29 17 30 33 24 22 25 16 24 27 19 27 30 20
41 46 30 36 39 30 28 32 20 24 26 18 31 32 25 37 40 30 21 24 11
29 33 19 22 25 13 22 25 14 28 32 19 47 52 33 48 53 32 54 59 39
58 62 43 31 35 20 1 2 1 12 14 12 51 55 39 15 19 8 17 20 9 33 36 25
21 23 13 33 36 25 50 55 34 51 56 35 57 61 42 50 54 38 38 42 26
56 60 43 60 64 46 55 60 40 53 58 37 57 62 41 50 54 39 28 31 24
30 33 24 33 35 27 48 51 42 35 39 27 37 40 27 39 42 29 37 40 29
36 38 22 39 39 25 44 46 29 40 49 28 44 53 32 44 51 31 42 50 29
48 56 35 45 53 31 48 53 33 54 57 39 52 58 34 55 59 30 128 22 12
170 0 2 176 1 1 185 3 1 178 2 0 179 2 1 172 3 3 151 15 13 164 7 8
142 2 2 128 6 4 111 6 6 63 6 6 16 5 6 4 5 7 20 20 22 15 16 20 5 6 25
1 2 58 1 2 73 1 1 93 1 2 105 2 2 101 2 2 92 1 1 83 2 3 62 3 5 42
10 11 17 19 21 21 6 10 7 46 6 5 100 5 5 104 6 7 112 5 5 156 5 3
170 6 5 154 18 17 137 9 8 161 7 8 180 1 2 186 2 4 174 2 4 163 2 2
153 8 11 53 41 25 40 50 29 48 53 31 44 51 29 49 57 33 51 59 32
53 61 34 52 60 34 55 64 38 53 60 37 41 46 24 47 52 30 51 55 34
46 51 29 43 48 26 44 49 27 38 43 21 37 42 20 39 44 22 45 50 30
43 48 28 47 52 32 45 50 30 46 51 30 50 55 33 48 53 31 47 53 31
50 55 35 55 60 39 52 57 35 46 51 30 40 45 26 43 48 26 40 45 21
42 46 23 44 48 26 45 49 26 45 49 26 47 51 28 45 50 28 52 57 35
57 61 39 56 61 39 56 61 40 54 59 38 54 59 37 49 54 33 51 56 34
51 56 34 50 55 33 41 46 24 37 42 20 42 47 25 45 50 28 52 57 35
51 56 34 47 52 30 52 57 35 46 51 29 42 47 25 51 56 34 54 59 37
47 52 30 42 47 25 49 54 32 50 55 33 38 43 22 37 42 20 45 50 28
39 44 22 44 49 27 46 51 29 42 47 25 44 49 27 48 53 31 46 51 29
17 2 60 0 1 41 0 1 55 1 1 70 2 1 77 1 1 95 1 1 120 3 0 149 1 0 171
1 1 195 4 3 223 24 25 245 70 73 246 88 89 250 56 55 247 12 11 243
1 2 227 1 2 216 1 2 231 1 2 196 1 3 129 0 3 104 1 2 89 1 2 71 1 2 53
0 3 108 39 5 87 101 5 0 156 2 3 184 1 1 176 8 8 176 12 13 224 28 31
221 14 16 196 0 3 180 3 3 144 3 2 147 2 2 165 2 3 189 0 2 183 6 8
70 49 32 62 52 33 60 50 31 59 50 32 60 52 33 63 54 35 60 51 33
62 53 35 60 55 34 58 54 34 53 51 31 42 46 25 47 53 30 58 63 40
55 60 37 55 59 38 44 49 26 47 53 28 50 55 28 50 56 29 58 63 40
57 62 40 57 62 40 56 61 39 51 56 34 47 52 29 46 50 28 49 53 31
48 53 33 51 46 26 91 11 7 114 5 5 85 16 7 86 24 10 110 13 10 120 8 8
72 16 8 89 18 6 112 17 10 122 5 3 109 4 1 98 14 4 148 5 9 131 0 3
91 43 37 101 110 103 79 38 31 96 16 13 107 27 22 91 23 20 42 39 23
41 44 26 44 48 29 47 55 33 46 54 31 42 49 29 30 37 18 20 25 12
22 26 13 47 52 33 48 53 33 47 54 33 51 58 37 49 55 36 51 58 40
57 64 42 44 52 29 37 44 23 44 52 31 53 60 41 58 66 44 58 66 43
50 56 34 51 57 35 54 60 40 54 60 40 56 62 41 44 48 30 47 51 34
54 58 41 47 51 36 32 36 23 13 17 9 28 32 21 22 25 13 9 12 7 16 19 8
25 29 16 20 22 14 35 39 23 30 33 19 35 38 26 45 49 36 45 49 34
44 48 33 44 49 29 41 46 26 58 63 44 56 61 40 48 53 31 54 59 39
52 57 36 52 57 38 42 45 31 39 42 29 53 58 39 42 45 30 35 39 23
36 41 23 29 33 16 36 40 23 44 49 29 43 48 27 48 52 32 44 48 29
42 47 27 48 53 33 50 55 34 45 50 29 54 59 38 55 60 38 62 66 45
56 61 40 44 49 28 45 50 29 51 56 35 52 58 34 50 56 31 46 51 26
51 55 32 48 52 32 34 36 18 38 41 22 44 51 30 47 54 32 49 55 34
49 56 34 50 57 35 51 57 36 55 62 40 56 62 39 47 56 29 63 46 19
124 15 6 135 1 1 141 2 1 153 3 2 191 2 6 179 2 3 179 4 2 149 43 36
156 16 13 145 6 1 131 15 4 128 13 16 123 26 28 90 14 15 52 37 36
147 155 149 109 117 109 31 35 39 0 0 24 1 0 49 0 0 60 2 3 59 2 3 58
0 1 52 0 0 38 0 2 18 25 26 28 78 79 75 145 150 146 73 65 61 96 12 16
123 25 23 124 21 19 121 9 5 144 8 4 140 12 10 129 59 50 137 41 33
140 14 13 188 3 9 169 2 3 138 2 1 125 2 2 136 7 7 62 33 17 27 38 17
39 44 22 42 49 26 46 54 30 47 56 29 49 58 31 52 61 35 49 58 32
50 59 34 49 56 32 50 56 33 53 60 37 57 63 41 58 63 40 50 54 32
45 50 27 47 51 29 41 46 23 45 50 29 45 50 30 41 46 25 48 53 32
43 48 26 48 52 30 56 61 39 59 64 42 61 66 45 62 67 45 67 71 49
62 67 43 58 62 39 59 64 39 55 59 36 56 60 37 54 58 35 50 54 31
44 48 25 49 53 30 52 56 33 42 46 24 44 48 25 49 54 31 45 49 27
49 54 31 46 51 29 48 53 31 54 59 37 57 62 40 52 57 35 46 51 29
50 55 33 52 57 35 44 49 27 43 48 26 47 51 29 48 53 31 45 50 27
40 45 23 39 43 21 44 48 27 53 58 35 45 50 28 46 51 28 49 54 31
51 55 33 48 52 30 54 59 36 59 64 42 56 61 38 53 58 36 58 63 40
51 56 33 46 50 28 44 48 26 44 49 26 39 2 9 1 2 31 0 1 51 1 1 66
1 1 75 1 1 85 1 1 111 3 0 142 1 0 156 1 1 177 2 3 211 31 29 242
64 64 242 78 80 249 48 47 245 5 5 238 1 0 219 4 2 210 5 2 240 2 2 186
0 2 125 0 1 111 2 3 102 2 3 82 0 1 59 2 3 97 53 3 76 117 4 0 165 2 2
193 1 2 195 5 5 191 5 4 228 29 31 213 15 16 187 8 7 168 11 10 134 2 4
124 0 2 145 2 2 177 4 3 162 14 8 45 46 24 40 49 26 45 51 29 41 49 26
43 49 27 45 49 27 43 47 25 43 47 26 50 54 34 49 52 33 45 49 31
42 48 26 52 57 36 46 51 30 38 40 25 41 44 28 54 59 42 52 56 39
49 53 37 52 56 39 47 52 34 38 42 25 35 40 21 38 42 26 38 42 27
40 44 28 33 37 23 35 39 24 23 27 14 15 21 12 39 12 7 67 8 6 88 8 7
89 15 11 34 20 13 86 8 8 69 13 11 72 3 6 95 4 2 105 11 3 107 4 2
109 2 2 119 12 8 73 21 12 66 36 27 71 73 64 62 65 52 57 65 48
64 67 43 65 70 45 62 63 38 60 61 40 61 65 44 55 63 40 54 61 38
67 71 53 38 42 27 11 14 7 18 20 15 58 63 42 61 67 43 63 70 40
74 80 51 71 78 49 64 73 46 62 71 44 57 66 38 37 45 23 36 44 22
65 73 50 64 72 49 56 64 41 62 70 47 55 63 40 55 64 40 48 56 33
53 59 36 52 57 37 46 51 32 47 52 33 46 50 33 38 43 25 35 40 21
37 42 20 31 36 14 38 43 20 42 46 27 34 39 20 42 47 26 52 57 36
44 49 28 38 43 22 44 49 30 57 62 43 60 65 43 54 59 38 66 72 49
73 78 56 60 65 44 56 61 40 54 59 36 63 68 46 59 64 42 59 64 41
52 57 34 55 60 38 56 61 42 47 52 31 42 47 25 41 46 24 54 60 37
59 64 41 55 60 38 58 63 41 62 67 45 61 66 44 71 76 54 70 75 52
65 70 48 45 50 29 46 53 25 65 72 41 65 72 42 61 67 38 52 59 29
48 55 25 51 56 31 47 51 29 48 52 29 53 58 35 60 65 43 56 60 37
46 51 28 59 64 42 65 69 48 58 63 41 55 59 37 51 56 34 58 64 42
53 62 36 67 76 47 56 72 38 89 33 14 115 6 4 72 32 17 98 26 9 136 3 2
162 2 4 142 2 3 176 5 3 214 18 20 200 7 10 155 18 14 133 47 39
146 0 3 137 12 14 130 23 26 119 67 60 149 158 149 144 146 143
75 77 69 16 17 13 36 36 45 54 56 73 0 1 23 0 0 20 52 54 68 58 59 63
17 14 10 63 59 50 118 115 113 151 158 156 114 102 101 118 24 30
138 18 17 139 1 1 142 27 27 141 25 29 188 4 7 198 24 29 177 17 15
136 4 6 165 4 8 152 0 1 102 26 14 73 44 23 101 11 5 97 25 14 36 48 23
40 45 23 45 52 29 46 54 31 49 58 31 58 67 40 55 64 37 53 62 35
53 62 36 69 78 51 57 66 37 67 77 47 66 76 47 70 76 51 64 68 45
65 69 46 58 62 39 54 58 36 48 52 30 41 46 24 41 46 24 38 43 23
36 41 20 41 45 22 42 47 25 52 56 34 51 56 34 54 58 36 59 63 40
61 65 42 46 50 27 51 55 32 58 62 39 56 60 37 50 54 32 43 47 25
50 54 31 53 57 34 54 58 35 51 55 32 43 47 24 42 46 23 40 44 21
37 41 19 42 46 24 46 51 30 48 53 32 57 62 39 60 65 43 54 59 37
53 58 36 59 64 42 67 72 50 64 69 46 62 66 43 63 67 44 67 71 48
55 59 36 60 64 41 57 61 38 44 48 25 48 52 29 55 59 36 56 60 37
49 53 30 49 53 29 51 56 34 58 63 41 67 71 48 57 61 38 66 70 47
70 74 51 64 68 45 60 64 41 62 66 43 55 3 3 15 2 18 0 2 38 0 1 54
1 0 59 0 1 72 0 2 91 0 1 120 1 1 140 2 1 162 24 25 216 54 54 228
24 23 227 34 32 240 10 8 231 1 1 220 0 1 205 1 1 188 3 2 203 2 1 175
5 8 134 15 15 144 4 2 147 0 2 124 13 2 86 58 3 40 104 3 9 135 3 6
173 2 2 194 1 2 230 23 24 222 17 18 199 1 2 177 4 4 159 26 23
160 30 29 144 8 9 142 3 3 148 1 1 140 6 3 58 34 22 39 48 31 50 51 37
41 42 27 27 28 13 32 33 19 36 37 25 26 27 16 27 28 18 35 38 27
50 53 41 44 48 32 34 38 22 53 57 40 64 68 50 61 64 47 58 61 43
56 60 43 54 58 40 54 58 40 59 63 45 64 68 50 57 62 43 58 63 42
60 64 47 60 64 48 52 56 41 59 64 46 66 71 49 34 38 22 13 15 10
14 15 12 33 29 19 32 16 9 30 16 8 29 24 14 46 29 20 80 27 20 37 17 9
37 28 19 51 39 27 66 28 21 67 22 12 59 43 25 53 59 33 56 54 32
56 55 37 61 61 41 52 55 34 61 67 40 65 71 40 64 69 38 64 67 44
64 68 47 60 68 45 52 59 36 57 62 40 53 58 41 23 27 15 12 15 7
56 61 40 67 72 50 59 65 39 68 74 47 54 60 36 43 51 28 56 65 40
69 78 52 60 69 45 54 62 39 70 78 55 69 77 54 63 71 48 59 67 45
58 66 43 57 65 42 56 64 41 58 66 43 59 66 44 61 66 44 65 70 48
60 64 42 44 48 24 40 45 21 44 50 24 51 57 31 52 58 31 50 56 29
54 61 33 61 67 39 62 69 41 71 77 50 68 74 49 51 56 37 38 43 22
47 52 30 56 61 36 60 66 39 62 68 43 50 57 31 42 48 23 43 49 27
44 49 27 41 46 24 45 50 28 50 55 33 55 60 38 48 54 32 36 41 19
44 49 27 53 58 36 61 66 44 48 53 31 51 56 34 58 63 41 62 67 45
63 68 46 65 70 48 63 68 46 65 70 48 53 58 36 44 50 25 46 53 24
47 53 27 44 50 24 42 48 22 51 57 31 50 55 31 48 52 30 48 52 29
49 53 30 55 59 37 60 64 42 62 66 43 55 59 36 69 73 50 73 77 54
69 73 50 65 69 46 59 63 41 50 59 34 58 67 39 52 65 36 85 33 18
137 2 4 134 26 14 83 50 23 106 28 14 138 0 0 133 1 3 151 3 3 203 10 9
215 7 7 209 25 27 144 48 45 140 82 79 154 33 35 148 14 18 121 57 53
129 135 131 144 146 146 99 106 99 57 47 34 83 72 69 115 117 114
65 65 65 54 54 52 115 119 115 105 102 97 58 43 28 92 88 85
128 132 137 136 139 141 113 90 83 137 15 17 149 18 16 148 75 70
142 58 54 203 29 34 218 11 12 205 9 12 177 2 5 143 1 1 138 2 1
125 10 4 79 49 30 130 29 23 142 7 5 90 25 11 44 53 27 40 45 25
37 44 22 39 47 24 42 51 24 46 55 28 49 58 31 59 68 40 55 64 36
60 69 39 61 71 43 60 69 42 56 65 38 51 59 35 59 66 44 64 71 48
61 68 45 56 63 40 47 54 32 52 60 37 60 67 45 52 60 37 50 58 35
44 54 29 43 52 29 42 51 29 36 44 22 47 55 32 47 54 31 44 51 28
50 55 33 62 66 43 58 63 40 55 60 38 53 58 37 63 67 45 68 72 49
60 64 41 56 60 37 59 63 40 62 66 43 69 73 50 60 64 41 51 55 32
54 58 35 46 50 27 45 49 27 51 55 33 47 51 29 50 54 32 50 54 31
52 56 33 53 57 34 61 65 43 62 66 43 53 57 35 60 64 41 64 68 45
69 73 50 61 65 42 58 62 39 62 66 43 57 61 38 53 57 34 52 56 33
50 54 31 46 50 27 50 54 31 44 47 25 44 48 26 50 54 31 47 51 28
48 52 29 56 60 37 58 62 39 98 3 4 63 2 11 10 2 11 0 1 32 0 0 42
0 0 58 0 0 74 1 0 94 2 0 120 2 1 135 39 39 213 11 11 205 1 0 209
4 1 229 4 1 220 2 2 192 1 1 177 1 2 148 3 3 132 0 0 189 14 11 199
40 35 198 0 0 84 16 2 57 66 4 45 101 3 3 126 3 5 144 3 5 161 1 1
179 1 0 215 16 16 212 12 13 185 0 0 163 2 1 144 2 2 170 3 6 189 4 9
184 2 4 182 1 2 149 5 4 61 56 46 67 74 60 60 60 45 28 26 12 18 17 5
29 30 17 44 46 33 46 48 33 34 37 22 23 26 14 48 52 36 63 67 46
53 58 39 54 59 39 66 71 50 65 72 49 60 67 45 68 73 52 53 58 36
50 55 32 68 73 51 70 76 53 67 72 50 65 70 48 69 74 54 66 70 52
50 55 35 56 60 39 59 64 41 55 60 39 20 22 14 11 12 8 25 22 11
44 36 27 34 26 17 36 27 18 44 38 25 32 31 14 28 30 16 32 34 22
27 23 12 36 41 26 48 57 38 33 39 20 48 51 29 52 51 29 62 62 42
66 69 45 57 59 37 61 65 39 65 71 42 64 70 44 65 69 47 64 68 47
62 70 47 49 57 34 51 56 35 52 55 39 20 24 13 13 15 7 55 59 40
64 68 46 61 67 41 64 69 43 43 47 28 36 42 26 52 58 39 44 51 33
45 52 31 53 61 39 49 57 35 38 46 23 38 46 22 39 47 22 46 54 32
49 57 34 52 60 37 50 58 34 41 49 25 38 44 22 42 48 25 42 48 25
49 53 30 50 55 30 48 54 28 55 61 35 58 64 38 61 67 41 66 72 46
63 69 43 65 71 46 76 82 53 79 86 57 57 62 39 46 51 27 52 58 32
52 59 28 52 58 31 54 60 35 53 59 32 56 62 34 52 56 34 45 50 28
44 49 26 51 56 33 65 69 47 81 85 63 76 81 58 55 59 37 71 75 53
83 88 66 83 88 66 72 77 55 74 78 56 69 74 51 67 71 49 64 68 46
69 74 51 67 71 49 65 70 48 67 71 49 64 71 43 53 59 34 49 55 29
37 43 18 43 49 24 49 55 29 50 55 31 51 56 31 56 60 36 59 64 40
48 52 29 54 59 35 60 64 41 53 58 34 53 57 33 49 54 30 48 52 30
56 60 37 61 66 43 54 61 36 49 56 30 45 53 27 56 47 22 103 23 11
160 5 8 155 7 8 135 6 6 138 2 3 164 17 16 181 12 10 196 1 2 198 5 4
234 24 23 210 15 14 175 26 23 145 61 54 158 78 73 132 42 38
107 106 99 137 146 140 111 106 101 113 28 22 123 64 68 133 148 148
132 104 97 128 66 62 148 157 153 129 112 103 107 30 21 98 88 87
133 141 136 118 116 111 116 54 49 153 47 42 134 75 66 160 35 31
198 18 18 239 22 26 208 10 13 188 4 4 193 6 11 166 19 19 145 5 7
121 5 4 155 17 14 180 5 9 123 14 7 71 58 31 61 71 44 63 67 44
61 68 45 52 60 37 51 59 34 45 54 28 41 50 23 44 53 28 52 60 35
51 60 35 45 54 28 50 59 32 57 66 39 54 63 38 53 62 38 55 63 39
55 63 39 57 66 41 55 63 39 48 56 31 50 58 33 49 57 34 57 63 40
59 64 40 59 64 41 55 61 38 52 59 36 44 52 29 42 50 27 46 54 31
48 53 31 47 51 29 50 54 32 52 57 35 55 59 37 61 65 42 60 64 41
60 64 41 60 64 41 56 60 37 57 61 38 61 65 42 71 75 52 64 68 45
55 59 36 56 60 37 54 58 36 54 58 35 47 51 28 49 53 30 49 53 30
48 52 29 50 54 31 53 57 34 54 58 35 55 60 37 63 68 46 64 68 45
69 73 50 71 75 52 72 76 53 72 76 53 67 71 48 61 65 42 69 73 50
72 76 53 68 72 49 66 70 47 56 61 36 64 68 45 68 72 49 55 59 36
60 64 41 62 66 43 51 55 32 119 10 9 108 14 16 64 10 11 22 4 11
11 16 34 36 37 69 35 35 74 22 20 66 8 8 85 4 4 151 2 2 195 0 0 183
1 0 187 5 1 211 3 1 198 2 1 163 1 0 144 2 2 124 5 5 132 16 17 138
34 37 147 56 55 168 23 20 104 67 8 22 108 8 8 114 15 12 123 12 10
128 10 3 141 8 3 158 1 1 175 4 1 168 12 8 152 19 15 148 7 6 176 2 4
182 2 3 170 1 3 164 1 2 152 1 1 138 6 5 62 50 40 75 76 63 47 46 29
21 19 6 22 20 8 32 31 18 45 46 32 49 51 35 49 52 35 22 24 11 31 33 17
57 60 40 55 60 37 40 45 23 51 57 34 58 64 36 62 69 40 69 76 47
62 69 40 49 55 26 70 76 47 71 78 49 69 76 47 67 73 44 68 74 45
67 74 45 55 62 33 50 55 30 53 57 34 52 56 36 18 19 10 12 12 6 21 20 7
47 42 30 39 34 24 27 20 9 35 27 15 24 21 6 31 33 15 34 36 18 23 24 10
44 48 32 46 48 30 42 49 27 45 51 28 49 52 29 59 64 41 57 68 42
58 68 43 58 67 45 61 69 47 61 70 47 60 67 44 57 63 40 50 58 35
49 57 34 56 61 42 44 48 31 16 19 10 14 16 11 48 51 34 48 51 29
63 67 41 67 71 47 47 51 28 34 38 23 60 64 43 58 62 44 52 55 40
44 49 32 47 56 35 51 59 36 48 56 32 44 53 25 54 62 35 65 73 48
69 77 54 63 72 46 60 69 42 60 70 40 75 83 55 80 86 60 76 82 56
70 76 50 65 71 45 50 56 31 63 69 43 78 84 58 83 89 63 66 72 46
62 68 42 56 63 35 51 57 30 48 53 32 49 54 32 44 49 27 35 40 20
47 52 31 54 59 38 51 57 33 53 59 30 57 61 38 57 61 38 55 59 36
54 58 35 52 56 33 52 56 33 55 59 36 64 68 45 65 69 46 65 69 46
73 77 54 61 65 42 58 62 39 54 58 35 59 63 40 63 67 44 61 65 42
63 67 44 63 67 44 60 63 40 54 60 34 47 53 28 50 56 30 47 53 28
52 57 32 57 63 37 63 69 42 67 73 47 67 73 47 71 77 51 67 73 47
66 72 46 77 84 57 83 89 63 87 93 66 79 85 60 60 64 41 57 61 38
72 76 53 76 80 57 70 74 51 67 70 47 57 59 38 58 58 31 87 35 22
98 26 18 91 24 16 128 47 43 135 112 103 140 108 104 187 16 15 209 1 2
199 7 7 220 16 15 219 7 7 213 15 13 198 7 7 156 3 4 99 40 33
102 74 68 123 49 44 169 1 1 144 40 37 136 81 79 156 53 51 171 33 36
139 87 84 143 63 63 166 5 6 129 35 36 107 74 69 105 45 43 133 6 5
183 8 7 212 19 17 217 13 14 217 11 11 203 10 10 202 3 2 192 12 11
143 61 63 133 121 119 150 54 52 94 20 13 97 19 10 99 20 11 68 42 21
56 64 37 61 68 37 57 63 37 53 60 36 52 60 37 54 62 40 53 61 36
46 55 28 41 48 29 50 58 37 44 52 30 47 55 30 54 63 34 54 63 36
65 74 47 68 77 50 65 74 46 65 74 47 66 75 48 65 74 47 74 81 55
75 80 54 71 78 49 73 79 51 80 84 59 72 76 50 67 71 47 62 65 43
55 62 39 55 63 40 55 64 41 59 65 42 60 64 41 58 62 39 55 59 36
59 63 40 65 69 46 65 69 46 77 81 58 67 71 48 72 76 53 73 77 54
67 71 48 76 80 57 76 80 57 69 73 50 83 87 64 72 76 53 69 73 50
68 72 49 71 75 52 68 72 50 53 57 35 54 58 35 49 53 30 48 52 29
48 53 31 42 47 26 52 56 33 56 60 37 56 60 37 55 59 36 57 61 38
60 64 41 53 57 34 54 58 35 58 62 39 59 64 42 61 67 44 52 58 34
61 66 42 54 58 35 46 50 28 53 57 35 54 58 35 52 56 33 125 11 10
134 23 24 124 19 25 76 4 12 62 45 47 122 125 128 125 129 129 67 71 71
19 21 58 4 1 191 4 4 176 1 1 142 1 0 164 4 1 189 3 1 175 1 0 144
1 2 123 1 1 130 7 7 154 50 60 65 97 104 94 121 126 120 86 76 67
103 12 13 122 20 20 128 27 23 123 11 11 125 9 2 140 13 3 150 1 3
145 2 2 146 31 23 132 36 27 132 12 7 200 6 7 180 3 4 148 3 3 134 3 0
121 3 0 124 6 4 61 45 39 67 71 56 49 52 32 35 38 23 37 38 26 32 33 20
51 53 39 53 56 40 39 42 24 39 42 22 45 48 30 49 52 34 49 54 32
40 45 23 50 54 31 55 61 35 63 69 43 69 75 48 59 65 38 51 57 31
67 73 47 74 80 53 68 74 47 62 68 42 57 64 35 56 62 33 56 62 33
53 58 33 54 59 37 48 51 33 16 17 11 12 13 9 24 24 15 22 19 12
25 22 14 33 29 18 48 44 32 29 28 14 28 29 15 31 32 18 34 33 23
39 40 28 44 45 30 44 48 30 47 52 30 42 46 24 55 60 38 54 59 37
50 56 39 58 64 45 58 63 43 59 65 43 59 64 42 54 59 38 41 50 26
42 47 27 41 45 31 26 30 16 10 12 5 19 20 16 34 37 20 42 45 24
68 71 47 66 70 44 60 64 41 42 46 30 42 46 32 54 58 43 65 68 50
77 81 61 93 97 76 50 55 38 41 46 32 59 64 46 74 84 57 82 94 65
76 86 63 61 72 45 75 87 56 88 97 69 89 97 70 83 89 62 78 84 58
77 83 57 71 77 51 69 75 49 67 73 47 69 75 49 72 78 52 71 77 51
78 84 54 81 87 58 71 77 50 52 57 35 45 50 28 45 50 29 62 67 45
63 67 46 59 64 42 59 65 41 69 75 47 76 80 57 68 72 49 70 74 51
73 77 54 66 70 47 55 59 36 43 47 24 46 50 27 57 62 38 66 70 47
78 82 59 74 78 55 66 70 47 55 59 36 45 49 26 51 55 32 56 60 37
50 54 31 47 51 28 57 61 38 63 68 43 60 66 40 52 58 32 40 46 20
54 60 33 60 66 40 63 69 43 58 63 38 54 60 34 56 62 36 58 64 38
63 69 43 67 73 47 72 78 52 72 78 52 73 78 53 65 69 46 56 59 37
50 54 31 50 54 31 51 55 32 53 56 33 54 56 35 54 57 34 55 64 39
52 64 36 48 60 34 101 110 99 151 156 146 143 146 144 133 32 33
213 0 2 188 2 3 196 2 3 223 11 11 225 14 15 219 2 4 181 4 3 128 2 1
107 0 0 156 0 3 202 3 2 199 2 1 192 0 0 208 0 2 211 0 5 190 0 5
198 0 3 202 4 4 171 2 1 123 0 0 123 1 1 172 5 4 207 3 3 230 13 16
229 16 17 210 3 3 183 1 2 211 3 6 143 21 23 102 109 108 152 158 153
121 126 113 72 78 55 64 72 45 61 66 41 62 64 40 63 68 41 68 74 43
71 77 46 73 80 53 65 72 47 57 64 39 54 61 34 54 60 34 50 56 34
46 51 30 54 59 37 53 62 36 53 62 34 49 58 28 54 64 36 59 68 41
57 66 39 62 71 44 60 69 42 59 68 41 66 73 47 58 64 38 60 66 40
73 78 53 69 73 48 69 73 48 61 65 40 57 61 37 56 61 38 57 62 39
55 60 37 54 58 35 54 58 34 51 57 32 49 53 31 48 52 29 51 55 33
55 59 36 59 63 40 58 62 39 61 65 42 63 67 44 69 73 50 64 68 45
65 69 46 72 76 53 72 76 53 68 72 49 66 70 47 73 77 54 76 80 57
73 77 54 64 68 45 61 65 42 67 71 48 64 68 45 66 71 48 67 72 49
72 76 53 65 69 46 60 63 40 60 64 41 47 51 28 52 56 33 59 63 40
61 65 42 68 72 49 63 68 46 61 66 45 66 71 49 75 79 57 72 76 53
68 72 49 70 74 51 70 74 51 69 73 50 129 18 17 136 1 4 136 23 25
114 18 15 115 61 60 155 158 149 163 166 157 98 100 90 44 42 52
10 9 134 0 0 134 0 0 109 0 0 135 4 1 160 3 1 150 0 0 119 0 0 108
3 2 134 31 30 106 78 83 89 139 142 143 158 160 165 119 101 101
114 22 26 132 26 23 133 8 9 119 16 16 121 43 43 142 21 18 171 2 2
183 13 16 183 25 23 153 10 12 129 4 4 174 7 4 163 3 3 135 3 2 83 10 3
106 4 3 110 9 5 70 59 45 60 64 49 66 69 50 56 58 43 41 43 30 48 50 36
50 52 38 52 55 39 47 50 32 51 54 34 50 52 34 44 47 29 45 51 29
43 49 26 45 50 27 51 57 32 60 67 41 62 69 44 56 62 37 58 65 38
64 70 43 69 75 48 67 73 47 61 67 40 52 58 33 44 49 25 42 48 23
51 56 33 43 49 27 25 27 15 10 11 7 15 16 10 26 26 19 20 20 11
24 22 15 28 24 15 26 22 13 27 22 11 34 31 16 39 39 21 33 32 22
25 24 13 42 42 29 51 54 37 47 51 30 47 51 31 49 55 34 44 49 28
51 56 38 61 67 44 59 65 41 59 64 41 49 54 32 57 62 40 58 65 42
34 40 21 23 26 18 27 30 18 22 24 13 15 15 12 42 45 29 46 49 28
65 69 46 65 69 42 58 62 39 40 45 26 65 69 51 65 68 53 50 53 35
75 78 58 103 106 84 54 57 45 52 55 46 43 46 33 41 45 31 42 48 28
56 61 40 66 72 49 69 76 49 64 71 45 51 57 32 46 52 27 48 54 29
50 56 31 59 65 39 61 67 41 59 65 39 63 69 43 59 65 39 47 53 27
40 45 23 42 48 22 40 46 21 45 50 29 55 60 38 56 61 39 63 68 46
70 75 53 72 77 56 72 78 53 81 87 59 77 82 58 69 73 50 73 78 54
87 92 68 96 101 77 96 100 76 67 71 48 51 55 32 67 70 48 74 78 55
72 76 53 74 78 55 59 63 40 55 59 36 61 65 42 69 73 50 64 68 45
50 54 31 55 59 36 58 62 39 66 72 46 82 88 61 83 89 63 71 77 51
62 68 42 77 83 55 92 98 71 96 102 76 86 92 66 78 84 58 79 85 59
73 79 53 67 73 47 70 76 50 84 90 64 81 87 61 78 82 59 78 83 59
71 76 52 59 63 40 51 55 32 48 52 29 47 49 28 45 47 25 50 55 32
51 61 37 45 55 31 99 104 88 126 126 119 101 101 97 116 27 27 210 1 4
196 2 2 207 3 6 173 3 4 164 2 1 193 2 3 205 4 8 175 5 6 155 4 3
191 3 6 219 2 7 224 1 3 212 2 2 197 1 1 193 2 2 201 4 5 212 2 4
219 2 4 204 2 5 172 3 4 167 5 4 204 6 7 201 3 4 168 3 3 164 3 4
206 3 6 193 2 5 205 3 5 131 22 18 81 86 81 117 118 115 113 117 107
79 87 67 73 83 52 73 80 54 78 81 60 78 84 56 85 92 60 79 86 53
60 67 38 59 65 39 68 74 48 64 71 43 67 73 46 58 62 40 55 59 37
62 67 45 60 67 42 54 62 37 56 64 39 59 67 41 66 74 47 76 85 58
82 91 64 80 89 62 75 84 57 79 87 61 84 91 65 93 100 73 93 98 73
87 91 66 86 91 65 79 84 59 77 81 56 77 82 57 82 87 64 80 84 61
78 82 59 75 80 56 63 68 44 64 68 46 65 69 46 61 65 42 52 56 32
53 57 34 50 54 31 51 55 32 53 57 34 57 61 38 56 60 37 56 60 37
56 60 37 53 57 34 47 51 28 53 57 34 57 61 38 56 60 37 56 60 37
54 58 35 53 57 34 54 58 35 56 60 37 57 61 38 55 59 36 51 56 33
47 51 29 54 58 36 58 63 40 57 61 39 54 58 36 53 57 35 52 57 35
52 56 34 51 56 34 55 59 37 55 60 38 57 62 39 57 61 38 57 61 38
62 66 43 65 69 46 61 65 42 121 84 79 131 64 63 131 27 27 139 11 6
122 63 63 136 142 136 152 153 148 120 121 116 83 79 67 42 41 50
38 42 79 65 70 116 17 19 108 0 0 118 6 6 114 59 61 122 46 46 103
35 36 89 72 65 54 109 110 105 148 148 144 141 141 144 116 90 92
135 12 22 135 28 21 132 58 58 123 86 89 96 90 87 174 38 35 222 8 11
230 14 20 204 11 13 166 4 3 137 3 4 152 3 2 136 4 3 87 14 3 89 16 11
120 6 7 101 7 6 75 67 42 67 73 54 63 70 54 53 61 45 39 48 31 47 55 40
43 49 36 44 53 35 44 54 33 46 56 33 44 54 30 41 50 26 45 53 30
41 49 26 38 46 23 46 54 31 52 60 37 49 57 34 54 62 39 68 77 49
63 73 42 67 74 46 72 78 52 63 69 40 52 57 35 52 57 35 37 43 20
37 41 22 24 28 16 20 21 13 13 14 11 16 17 13 26 27 19 20 20 15
23 19 11 23 18 11 25 22 14 35 29 20 29 22 15 38 32 24 31 27 15
41 37 24 39 36 21 49 50 30 50 52 32 53 56 41 39 47 29 35 44 24
60 68 45 62 68 45 61 65 43 61 64 42 51 56 32 58 64 38 53 58 35
43 48 28 38 43 23 46 49 30 31 32 21 17 15 14 45 48 31 58 63 41
62 68 43 63 71 42 58 66 40 39 44 28 56 60 41 77 80 61 62 63 46
62 63 44 79 81 60 61 63 49 53 55 43 46 50 30 56 59 43 67 70 53
66 69 51 57 59 48 55 58 38 57 60 38 52 56 33 48 53 31 52 57 35
49 54 31 54 60 34 58 64 38 55 61 36 65 71 46 68 74 46 65 71 45
52 57 36 43 48 25 47 53 28 64 70 43 74 80 52 68 75 46 55 61 33
53 59 31 58 64 36 64 70 43 68 74 48 70 76 50 68 74 48 72 78 52
82 88 62 82 88 62 77 83 57 64 70 44 54 59 34 59 63 40 56 60 37
57 61 38 63 67 44 57 61 38 59 63 40 65 69 46 62 66 43 58 62 39
58 62 39 60 64 41 58 62 39 61 67 41 78 84 58 90 96 70 89 95 67
74 80 51 79 85 55 90 96 68 92 99 72 93 99 73 91 97 71 86 92 66
86 92 66 76 82 56 73 79 53 79 85 59 79 85 59 79 85 59 78 84 58
80 86 60 83 89 63 83 89 63 80 85 59 72 76 51 60 65 39 45 51 26
49 57 34 61 69 46 79 82 71 89 91 83 69 71 63 135 24 24 179 0 2
160 0 1 192 2 3 138 8 4 107 45 28 145 9 6 147 0 2 184 5 10 212 2 5
212 0 3 188 8 6 176 9 9 161 4 3 148 4 2 146 4 3 154 4 4 169 6 4
191 8 6 206 2 6 215 1 5 190 6 6 141 4 4 144 7 3 99 42 19 113 13 7
175 2 3 166 0 2 171 0 0 146 16 16 56 65 58 81 83 82 82 86 77 62 69 52
53 66 33 57 63 37 69 73 48 75 81 52 88 95 63 85 92 58 65 72 43
59 65 40 61 67 41 62 68 42 60 66 40 57 61 38 54 58 36 50 55 33
51 56 34 52 57 35 55 60 39 58 62 40 57 62 38 56 65 38 55 64 37
60 69 42 69 79 51 73 82 55 74 84 56 73 82 55 71 80 53 81 90 63
83 92 65 79 88 61 81 90 63 82 92 64 85 94 67 87 91 68 81 85 62
70 74 51 67 72 48 73 78 54 80 84 61 79 85 60 75 81 55 80 86 60
74 78 54 66 70 47 64 68 45 58 62 39 47 51 28 52 56 33 69 73 50
68 72 49 67 71 48 71 75 52 76 80 57 79 83 60 82 86 63 81 85 62
79 83 61 74 78 55 81 85 62 83 87 64 75 80 56 70 77 49 73 79 51
68 74 46 77 83 55 77 83 55 82 88 60 76 83 54 67 73 45 66 73 44
57 62 38 60 64 41 57 61 38 53 57 35 55 59 36 53 56 34 55 59 36
65 69 46 65 69 46 153 64 57 133 88 86 121 85 81 150 34 36 123 47 52
117 120 118 146 147 141 139 140 136 82 87 84 90 42 33 109 85 75
152 163 159 99 95 121 59 17 53 76 75 109 143 153 153 109 114 101
101 51 36 77 68 68 125 124 120 154 153 147 122 124 121 111 75 73
145 33 38 126 86 79 123 92 91 153 70 65 160 37 27 233 19 20 234 18 16
205 0 0 184 3 2 169 5 6 158 3 6 138 2 2 123 2 3 102 12 10 151 7 9
123 6 5 68 18 10 66 64 42 68 71 54 50 55 39 48 54 38 51 57 40
34 40 24 42 49 34 41 47 30 39 45 29 48 55 33 49 56 34 50 57 36
49 57 34 46 54 31 38 47 24 43 53 29 45 54 30 36 44 21 59 67 42
74 84 56 65 74 44 67 74 46 71 77 51 51 57 28 54 59 37 63 68 46
46 51 29 31 36 18 25 28 17 38 40 28 26 27 18 19 16 11 24 22 15
19 19 18 20 20 12 22 21 12 21 21 13 25 21 14 23 19 15 21 17 14
30 26 15 38 34 23 25 23 7 39 39 16 37 38 16 42 44 28 48 51 34
39 43 24 60 66 43 64 70 46 61 67 42 62 68 42 58 65 37 57 64 36
46 53 28 55 62 37 59 66 37 50 62 37 29 39 23 14 19 14 39 50 33
58 65 39 62 65 37 67 70 44 64 67 45 52 55 40 42 45 30 72 76 55
51 52 35 39 40 22 49 50 35 57 59 43 55 57 41 48 49 31 52 54 37
77 80 64 110 114 87 96 100 77 86 88 72 68 71 54 51 54 38 52 56 37
60 64 44 52 58 34 54 61 31 60 66 38 75 81 53 82 88 62 79 85 58
67 73 47 64 69 45 67 73 48 84 90 63 97 103 76 98 104 77 82 88 61
74 80 53 79 85 58 65 71 44 67 73 47 71 77 51 89 95 69 96 102 76
79 85 59 71 77 51 67 73 47 58 64 38 53 59 33 51 56 31 51 55 32
52 56 33 41 45 22 44 48 25 57 61 38 56 60 37 53 57 34 53 57 34
62 66 43 65 69 46 65 68 46 62 66 43 59 65 40 57 63 36 54 61 32
52 59 30 55 62 33 64 70 45 69 74 49 65 69 46 74 79 56 78 84 59
61 67 41 57 63 37 51 57 31 54 60 34 57 63 38 56 62 37 61 67 41
65 71 45 65 71 45 63 69 43 59 65 39 55 61 35 50 55 29 51 57 31
49 55 30 50 57 30 57 63 40 64 67 54 72 76 60 75 78 56 81 49 32
87 34 19 95 42 27 156 33 22 152 3 6 122 10 9 116 8 6 106 42 25
118 17 13 154 5 5 160 44 34 132 46 27 121 16 12 117 2 2 131 4 1
141 4 2 117 2 1 114 9 4 120 31 13 132 30 18 157 17 10 131 11 8
96 40 24 103 22 9 116 8 5 136 6 3 162 19 13 111 50 34 108 51 39
100 63 51 75 77 61 69 71 57 80 86 66 92 101 76 89 102 69 85 91 65
91 95 70 81 87 58 79 86 54 79 86 53 80 87 57 81 87 59 82 88 62
75 82 55 76 82 56 73 78 53 64 68 44 58 63 40 53 57 34 52 56 34
49 53 30 44 48 25 51 55 32 52 57 33 51 57 33 55 61 37 62 68 44
67 73 49 66 72 48 64 69 45 58 64 39 52 59 34 52 59 34 51 58 34
58 65 40 62 69 44 62 68 44 60 64 41 67 71 49 67 73 48 59 65 37
55 61 35 57 62 39 61 66 41 55 61 35 49 55 29 52 58 33 58 64 39
60 65 40 58 63 39 60 65 40 55 61 36 55 60 36 53 57 34 55 58 36
54 59 36 56 60 39 52 56 35 67 71 49 70 74 51 74 78 55 69 73 50
71 75 52 73 77 54 76 81 57 79 85 59 80 86 60 83 90 63 81 87 61
81 88 61 88 94 67 93 99 72 82 88 62 78 84 57 70 76 50 66 71 47
63 68 43 62 68 43 62 67 42 64 70 44 64 69 44 68 73 48 70 76 51
211 0 0 189 7 11 165 45 44 164 30 30 134 15 22 100 71 71 114 122 115
121 127 120 111 57 54 140 8 10 124 74 73 144 160 154 140 132 128
158 30 36 131 122 117 142 155 148 103 113 104 137 24 25 123 31 36
116 112 103 127 134 121 102 76 69 118 25 26 160 30 30 170 48 46
186 15 19 207 0 0 227 11 9 229 20 21 210 7 5 213 1 2 222 3 3 231 3 5
212 1 3 168 1 0 127 1 1 131 2 5 115 3 3 51 7 6 28 22 13 57 58 42
60 63 46 47 50 34 47 51 33 58 62 45 49 53 36 50 54 35 41 45 28
54 57 42 58 61 41 54 58 38 56 61 41 48 57 34 53 61 38 49 57 33
51 57 34 46 53 30 31 39 16 52 61 34 70 79 51 62 70 42 69 76 49
66 71 44 53 59 30 58 63 40 48 54 31 58 63 41 61 66 44 50 55 33
55 58 41 28 31 19 16 16 9 25 24 14 17 17 11 26 25 20 24 21 13
19 19 10 23 21 11 27 25 16 23 22 13 26 25 14 24 23 12 22 22 8 24 24 6
20 23 4 33 35 22 54 58 38 53 60 39 60 68 47 64 71 46 65 70 42
66 70 40 69 73 41 62 63 35 47 46 23 54 50 29 59 54 31 55 50 30
36 29 15 37 26 12 82 59 37 107 73 37 80 45 29 62 23 16 64 52 33
62 66 48 48 51 34 50 55 33 31 32 15 34 36 17 46 47 29 51 54 36
61 64 45 53 54 37 61 63 43 74 77 57 94 99 68 91 96 67 100 103 81
101 104 84 106 108 92 65 67 56 34 37 26 46 50 34 74 79 53 98 103 78
106 111 85 110 117 92 95 102 76 62 68 42 80 86 60 108 114 88
117 123 96 114 120 94 110 116 90 96 102 76 89 95 69 88 94 68 85 91 65
83 89 63 76 82 56 77 83 57 78 84 58 80 86 60 79 85 59 86 92 66
95 101 75 84 90 64 62 67 42 46 50 27 49 53 30 47 51 28 54 58 35
59 63 40 55 59 36 61 65 42 60 64 40 63 67 44 69 73 50 69 73 50
60 64 41 60 66 40 68 74 47 60 65 40 47 52 31 37 42 20 45 50 27
54 59 35 62 66 43 62 66 43 61 67 42 73 79 52 61 67 41 51 57 31
56 62 36 53 59 34 52 58 32 57 63 37 64 70 44 65 71 45 61 67 41
58 64 38 66 72 46 70 76 50 63 69 43 64 70 45 51 58 29 36 42 19
52 57 38 64 73 49 68 74 48 67 71 43 53 64 33 51 65 33 67 59 26
141 19 12 137 0 2 128 4 6 121 53 35 83 72 43 118 24 18 130 33 25
129 22 16 107 4 3 90 24 14 165 7 6 183 5 4 101 33 12 87 15 6 115 9 6
114 24 15 116 17 12 78 46 24 89 59 29 141 14 13 126 2 0 161 11 8
98 51 28 63 72 39 80 86 53 100 99 76 105 106 86 96 101 77 89 96 69
87 95 67 90 102 70 108 114 88 108 111 86 97 103 74 93 100 70 91 97 70
83 89 63 85 91 66 90 96 70 87 93 66 83 89 63 82 88 62 79 85 60
81 85 62 90 95 71 82 87 63 84 89 65 87 91 68 79 84 60 60 64 41
53 57 34 51 56 32 49 53 30 51 55 32 59 63 40 65 69 46 59 63 40
57 61 38 75 79 55 79 83 60 77 81 58 74 78 55 73 78 54 69 74 51
55 60 41 55 61 39 59 64 41 63 67 45 61 66 44 56 62 36 62 68 42
68 74 48 70 76 49 73 79 52 72 78 51 70 76 50 62 68 41 60 67 39
61 66 41 54 58 35 53 58 34 58 62 39 58 63 40 61 67 44 63 68 45
55 59 37 49 53 30 52 56 34 63 67 44 64 68 46 65 69 46 68 74 48
72 78 52 69 75 49 60 66 40 54 60 34 67 73 47 72 78 52 79 85 59
91 97 71 89 95 69 82 89 62 71 77 51 64 70 44 60 66 40 60 66 40
56 62 36 58 64 38 60 66 40 235 11 10 235 19 20 224 8 10 188 1 1
142 0 3 104 25 22 94 47 42 110 53 48 141 18 20 172 4 6 147 38 30
142 70 61 156 55 54 191 14 22 153 49 50 148 64 64 136 49 53 172 12 16
158 5 13 109 47 42 98 54 44 106 28 24 133 1 1 184 0 3 221 5 9
234 19 21 231 12 14 225 9 11 198 9 9 204 0 0 227 1 1 233 4 5 214 3 3
168 32 32 148 52 51 101 30 27 81 31 23 70 23 16 23 15 10 48 45 34
62 65 47 58 63 41 42 47 25 41 45 26 45 48 34 38 41 27 49 50 34
52 56 35 56 62 40 53 62 39 51 61 37 56 66 41 48 58 34 48 55 32
48 54 31 54 56 35 59 62 40 43 54 29 53 63 32 69 78 48 60 69 44
60 71 44 63 75 42 56 69 37 58 67 42 44 52 29 51 58 35 60 68 45
56 64 40 54 62 38 27 33 18 14 16 7 21 22 11 25 25 14 26 17 16
24 18 10 21 19 9 27 16 9 27 17 9 37 19 12 49 27 16 52 31 21 56 33 22
57 31 23 58 27 18 56 23 13 65 29 14 77 36 23 71 30 22 74 29 19
82 33 18 80 33 14 89 33 19 83 22 16 74 13 12 70 8 5 68 5 3 70 4 3
73 10 7 87 23 14 99 34 23 90 28 20 76 12 9 65 2 3 63 47 31 70 76 53
70 74 51 64 69 45 43 44 24 39 41 27 55 57 44 49 52 33 70 74 53
67 68 52 66 69 44 77 81 53 84 89 59 99 104 76 102 105 81 103 107 82
95 98 75 97 100 81 25 28 20 28 30 19 34 36 23 49 51 37 72 76 58
81 90 67 84 93 64 74 83 48 75 82 53 84 91 61 89 96 66 84 90 64
79 85 60 81 87 61 74 80 54 68 74 48 77 83 57 75 81 55 72 78 52
79 85 59 78 84 58 72 78 52 70 76 50 76 82 56 78 84 58 90 96 70
92 97 72 67 71 48 53 57 34 55 59 36 70 74 51 80 84 61 83 87 64
73 79 54 67 73 47 68 74 48 91 97 71 89 95 69 84 89 64 85 91 65
98 104 78 99 105 78 99 105 78 91 97 70 78 84 57 54 60 34 48 54 27
64 70 44 83 89 63 92 98 72 92 98 72 89 95 69 85 91 65 70 76 50
60 66 40 56 62 36 58 64 38 58 64 38 47 53 27 47 53 27 53 59 33
68 74 48 74 80 54 73 79 53 67 73 46 53 59 32 54 60 33 69 75 49
77 83 57 80 85 59 78 85 58 74 80 54 62 72 44 76 59 32 80 46 20
104 10 6 132 12 11 150 23 17 161 10 11 127 0 1 99 0 0 74 32 16
95 50 27 166 7 6 161 7 4 116 40 19 69 47 22 95 3 2 114 0 0 149 4 8
152 18 14 147 17 11 125 9 9 81 39 20 84 45 22 54 58 28 54 60 31
61 65 36 64 68 38 65 69 40 62 66 37 65 70 41 67 74 43 61 69 40
64 73 44 63 73 44 70 80 48 77 85 58 85 88 66 82 87 64 79 84 63
76 83 55 70 76 49 60 66 40 61 67 41 69 75 49 74 80 54 75 81 56
71 77 51 73 79 53 72 78 52 70 76 50 65 71 45 65 71 45 61 67 41
47 53 24 47 52 29 62 67 45 68 73 51 68 73 51 71 78 49 72 78 51
77 84 58 85 94 67 87 95 69 84 93 66 85 94 67 76 86 59 86 93 67
89 93 68 89 93 68 86 90 66 81 87 61 76 83 57 74 80 54 77 84 53
80 87 54 88 95 62 88 95 62 79 86 53 75 82 49 71 77 48 67 73 47
62 68 42 54 60 34 49 55 29 52 58 32 60 66 40 65 71 44 63 70 43
68 74 47 67 74 46 68 74 47 71 77 50 72 77 51 71 77 51 75 81 55
79 85 60 71 77 51 75 81 55 80 86 60 71 77 51 80 86 60 80 86 60
68 74 48 67 73 48 75 81 55 75 81 55 74 80 54 73 79 53 68 74 48
67 71 48 232 6 8 231 12 13 232 7 8 220 6 3 183 6 3 132 2 3 104 0 0
129 0 1 177 3 4 210 4 5 221 0 2 210 0 0 216 0 0 227 1 4 216 0 0
211 0 0 218 1 1 222 3 4 187 3 3 143 0 0 103 0 0 130 1 2 170 4 5
216 4 5 229 6 6 235 11 12 235 8 7 219 2 2 184 2 2 213 2 1 237 1 1
211 4 5 136 48 40 153 146 141 152 162 158 81 82 70 50 62 38 41 53 30
17 19 13 41 44 31 60 64 44 54 59 37 53 58 36 50 55 34 46 50 35
35 39 24 43 47 30 54 61 38 57 66 42 44 55 31 43 53 32 49 56 35
49 54 33 47 54 31 52 57 31 65 64 41 53 58 36 50 62 37 54 67 39
62 73 46 67 68 40 73 71 43 80 74 44 75 67 39 69 51 32 58 33 18
58 35 23 60 34 22 62 31 19 62 32 22 67 28 20 79 30 15 100 58 25
104 61 31 85 28 16 63 7 4 60 4 2 60 4 2 66 9 5 92 25 19 110 40 17
100 29 18 83 14 11 75 10 7 73 5 6 75 3 4 73 0 1 76 5 4 84 17 10
90 23 10 110 44 16 97 34 13 83 11 7 76 3 3 73 3 4 73 4 4 78 12 5
87 20 13 85 20 12 88 21 13 96 30 16 82 19 12 74 11 3 69 8 5 70 56 37
78 83 57 92 96 72 84 88 65 85 88 67 74 77 58 62 65 50 36 38 22
74 77 59 77 78 62 74 76 54 73 75 52 85 89 64 101 104 78 104 107 81
109 113 87 100 104 80 95 97 76 38 41 26 39 42 28 39 41 27 28 29 19
36 36 31 39 41 31 46 51 31 57 63 40 72 78 48 76 82 53 76 82 55
63 69 41 49 56 28 48 54 26 50 56 29 50 56 30 53 59 33 62 68 42
62 68 42 61 67 41 68 74 48 63 69 43 53 59 33 47 53 27 39 45 19
34 40 14 38 43 19 42 46 24 47 51 28 56 60 37 54 58 35 67 71 49
68 72 48 74 81 52 83 89 63 79 85 59 83 89 63 83 89 63 76 82 56
75 81 55 79 85 59 89 95 69 99 105 78 103 110 82 104 110 84 94 100 74
65 71 45 68 74 48 80 86 59 77 83 55 79 86 58 75 82 54 76 82 56
58 64 38 51 57 31 62 68 42 76 82 56 77 83 57 63 69 43 62 68 42
54 60 34 65 71 45 71 77 51 77 83 57 89 94 69 92 98 71 87 93 66
80 86 59 63 69 43 72 78 52 106 112 85 107 113 88 100 105 80 86 98 64
80 93 57 89 91 61 95 66 46 107 32 24 99 29 19 78 28 14 86 11 8
119 8 7 133 18 17 99 58 38 100 59 40 136 17 12 134 8 7 88 11 7
72 22 10 88 22 11 98 20 10 90 29 15 55 52 27 51 65 38 54 62 36
50 57 32 60 65 41 67 72 46 68 75 47 66 72 44 63 68 41 58 65 37
56 64 35 52 61 33 46 55 27 42 53 23 47 57 27 51 59 33 51 57 36
60 65 44 69 74 52 71 77 51 74 80 53 63 69 43 57 63 37 55 61 35
54 60 34 51 57 31 41 47 21 49 55 29 57 63 37 58 64 38 61 67 41
66 72 46 65 71 45 63 69 40 54 59 37 48 53 32 49 54 32 48 53 31
51 57 30 49 53 32 45 52 25 53 62 35 65 74 47 61 70 43 62 71 44
62 73 45 63 71 46 69 73 47 77 81 56 76 81 56 78 84 58 87 93 67
87 93 67 87 93 62 81 88 55 89 96 63 90 97 64 77 84 51 71 78 44
66 72 43 69 75 50 72 78 52 69 75 49 72 78 52 66 72 46 66 72 46
69 76 48 69 76 48 71 77 50 61 68 41 58 64 37 59 65 38 65 72 46
73 81 54 85 91 65 86 94 66 86 94 66 84 90 64 93 99 73 91 97 71
94 100 74 101 107 81 106 112 86 107 113 87 101 107 81 102 108 82
99 105 79 90 96 70 81 87 62 79 85 60 191 4 5 178 3 1 189 3 3 204 3 5
214 4 6 174 6 5 140 6 4 162 7 5 206 4 4 211 2 2 210 3 3 215 3 4
218 3 5 217 3 5 220 2 3 218 2 3 205 4 1 210 3 3 207 3 3 182 3 4
139 6 4 171 6 5 211 4 5 212 4 3 195 3 2 181 2 2 196 3 2 217 3 4
198 2 4 211 4 2 236 3 3 183 6 4 103 69 63 143 147 142 162 165 162
89 94 85 58 66 44 44 51 33 13 19 15 42 45 36 67 70 54 60 63 42
52 53 33 51 52 31 46 47 32 35 34 21 48 41 28 49 42 24 54 45 28
57 38 19 64 45 31 79 57 33 79 53 27 76 49 23 66 39 21 70 41 24
69 30 16 79 30 19 74 27 14 75 32 18 91 37 15 95 28 12 96 31 16
92 25 11 77 13 11 68 4 6 70 0 5 69 2 2 74 5 4 83 17 5 95 29 17
97 24 19 84 15 11 74 7 7 72 4 6 72 1 3 70 2 4 71 5 5 90 22 14
113 49 24 115 50 21 110 42 23 92 23 12 78 10 5 77 10 5 79 13 6
81 13 5 82 15 6 90 24 14 79 12 9 79 11 13 74 9 10 71 3 5 69 0 0
71 1 4 75 6 7 92 25 15 81 14 14 74 6 10 74 5 6 70 3 5 72 5 5 71 7 5
68 4 3 73 55 37 75 81 56 85 89 66 86 90 67 89 92 71 78 81 58 68 72 48
25 28 13 74 76 61 70 72 52 73 75 55 74 75 54 85 86 65 99 102 77
106 109 82 110 113 86 101 104 80 92 94 73 46 49 32 35 37 22 30 29 16
55 51 40 44 41 34 57 58 50 59 62 52 52 55 46 46 49 32 49 53 32
53 59 36 55 61 34 50 57 29 48 54 27 50 56 30 50 56 30 54 60 34
61 67 41 68 74 48 65 71 45 61 67 41 66 72 46 71 77 51 71 77 51
64 70 44 61 67 41 53 58 34 38 42 20 41 45 22 57 61 38 66 70 47
69 73 50 59 63 39 47 53 27 50 56 31 58 64 38 57 63 37 66 73 47
72 78 52 74 80 54 73 79 53 78 84 58 85 91 65 94 100 74 104 110 84
94 100 74 63 69 43 48 55 28 60 65 39 68 74 47 69 75 48 68 74 48
73 79 53 66 72 46 55 61 35 63 69 43 68 74 48 66 72 46 56 62 36
60 66 40 56 62 36 58 64 38 64 70 44 72 78 52 83 89 63 99 105 79
110 116 90 108 114 88 90 96 70 77 83 57 91 97 71 108 114 87
114 120 93 112 118 88 102 109 76 93 102 69 91 101 70 85 93 66
84 92 62 80 94 61 91 67 48 98 37 25 88 48 31 79 89 59 78 83 53
85 50 32 96 39 26 93 59 39 86 91 57 83 93 60 79 84 53 71 74 43
54 61 33 49 54 32 50 54 31 50 57 34 54 63 39 54 61 37 60 66 43
62 68 45 57 64 40 58 65 42 65 73 49 66 75 49 71 80 53 67 76 49
67 76 49 63 72 46 51 60 38 52 58 39 60 66 41 55 61 35 63 69 43
61 67 41 60 66 40 60 66 40 71 77 51 62 68 42 62 68 42 63 69 43
62 68 42 58 64 38 57 63 37 59 65 39 61 67 41 64 70 41 59 64 42
56 61 41 62 67 46 67 72 50 69 75 50 68 73 50 62 69 42 47 56 29
42 51 24 48 57 30 58 67 40 59 69 44 55 62 40 64 68 43 64 69 44
63 68 42 64 69 43 66 72 46 63 69 44 64 70 39 68 75 42 75 82 49
86 93 61 94 101 69 90 97 64 78 84 55 62 68 42 57 63 37 61 67 41
70 76 50 66 72 46 58 64 38 60 66 40 61 67 41 62 68 42 61 66 41
62 68 42 63 69 43 62 68 43 60 66 40 61 67 39 64 69 41 71 76 49
77 83 57 78 84 58 87 93 66 90 96 70 87 93 67 91 97 71 97 103 77
91 97 71 94 100 74 90 96 70 92 98 72 97 103 77 91 97 71 152 4 4
110 16 8 114 25 10 146 3 3 143 4 4 187 7 7 221 7 7 221 4 9 209 7 5
191 6 2 178 5 2 172 5 3 160 4 4 166 2 3 157 2 4 170 3 5 173 5 3
180 6 4 203 6 3 222 3 2 227 3 7 196 7 10 145 4 5 149 2 4 126 35 21
109 36 22 139 1 1 185 3 3 182 4 5 166 4 3 220 3 4 173 6 5 92 62 63
101 96 98 128 123 122 81 68 56 71 41 20 80 43 18 80 42 14 112 73 38
121 81 45 107 69 29 78 28 12 62 9 8 63 8 7 62 6 4 72 14 12 84 26 13
96 36 14 97 28 15 84 15 11 85 19 14 84 15 10 83 13 11 77 6 7 76 8 7
86 18 12 97 27 13 102 34 10 112 47 20 105 40 18 97 24 10 84 13 9
66 3 4 74 8 12 90 22 14 95 28 12 92 25 12 86 26 12 88 29 11 97 34 14
89 25 10 89 23 8 85 20 12 74 12 9 71 6 6 72 6 8 82 17 10 95 30 13
116 53 13 120 54 22 106 38 16 104 35 13 98 32 9 103 40 13 109 48 18
107 42 21 97 31 15 102 33 11 105 38 13 107 42 14 112 45 14 106 39 13
89 21 10 84 17 11 84 18 8 90 24 9 85 19 10 91 25 15 88 24 16 69 6 7
70 7 5 74 7 7 80 12 10 101 45 21 89 74 41 66 72 45 83 89 65 97 101 76
93 98 70 73 77 53 34 36 22 66 68 52 67 70 49 68 71 49 75 79 56
75 79 56 92 96 72 103 107 82 105 109 84 100 104 78 85 89 63 33 35 24
31 31 18 49 45 27 70 64 46 49 47 34 69 72 55 87 90 69 97 101 76
89 91 67 77 78 60 58 59 45 46 48 34 54 57 43 54 57 40 54 59 36
56 61 38 57 63 37 54 60 34 53 59 33 51 57 31 49 55 29 59 65 39
68 74 48 72 78 52 70 76 50 60 66 40 46 51 26 47 52 29 70 75 51
79 85 59 83 88 63 81 85 61 72 76 53 67 73 44 67 72 44 63 68 42
59 64 38 67 70 45 70 74 49 79 84 58 79 85 59 74 80 54 71 77 51
70 76 50 69 75 49 66 72 46 66 72 45 65 72 43 58 63 40 57 62 41
53 58 37 49 53 31 48 52 29 51 55 32 58 62 38 64 70 44 68 74 48
68 74 48 64 70 44 64 70 44 63 69 43 63 69 43 62 68 42 57 63 37
56 62 36 57 63 37 63 69 43 73 79 53 81 87 61 73 79 53 72 78 51
78 85 54 78 85 54 81 87 57 84 90 61 85 92 62 88 94 65 80 87 59
79 87 54 78 85 57 66 74 48 68 77 49 74 83 55 76 82 56 77 82 56
79 88 60 75 86 58 77 85 58 78 84 58 79 86 59 87 92 66 85 90 65
79 85 59 82 88 62 63 67 42 50 52 29 63 65 41 74 79 51 84 87 63
85 89 67 71 78 55 64 72 49 65 74 51 89 98 72 93 102 75 84 93 66
89 98 71 93 102 75 89 98 72 88 97 72 92 100 73 93 99 73 94 100 74
78 84 58 60 66 40 50 56 30 64 70 44 73 79 53 86 92 65 95 101 73
97 103 77 90 96 70 80 86 60 67 73 47 59 65 39 60 66 40 56 62 36
55 61 35 53 59 33 46 52 26 49 55 29 56 62 36 61 67 41 66 73 46
68 75 48 65 71 45 62 69 43 67 74 48 70 76 50 73 79 53 74 79 54
74 79 53 72 78 52 68 74 48 72 78 52 70 76 45 64 71 38 63 71 37
82 87 59 83 87 62 82 88 61 81 87 61 76 82 56 69 75 49 71 77 51
70 76 50 65 71 45 60 66 40 55 61 35 53 59 33 52 58 32 56 62 36
50 56 30 46 52 26 48 54 28 50 57 31 55 62 35 58 64 38 58 64 38
57 63 37 55 61 36 52 58 31 52 59 32 57 63 37 61 67 41 64 70 44
61 67 41 60 66 40 65 71 45 70 76 50 74 80 54 72 78 52 145 4 5 109 7 3
116 9 3 123 3 2 114 5 3 127 10 7 163 7 7 212 3 7 198 5 7 125 34 12
118 21 7 125 4 2 129 3 1 142 1 3 126 2 3 130 8 6 137 8 3 122 33 9
185 9 6 215 3 3 199 5 8 138 4 4 120 1 3 131 1 2 117 13 6 105 13 10
141 4 5 184 5 6 151 6 8 110 4 4 161 3 6 176 7 9 91 18 17 95 69 67
112 97 95 94 51 36 117 46 12 118 45 12 110 38 12 88 21 13 81 15 11
78 11 8 75 9 7 76 7 5 89 23 9 126 60 25 139 75 28 118 54 16 108 43 14
82 19 12 65 2 5 71 4 4 76 8 9 76 8 11 70 5 8 74 5 6 79 11 10 95 27 16
102 37 13 100 35 17 80 12 10 71 1 4 73 3 3 84 18 11 96 31 16 98 32 18
86 16 9 79 11 6 78 13 8 71 7 4 77 9 5 72 7 4 76 13 8 92 29 15
103 40 13 108 45 14 100 37 11 95 31 17 104 39 23 120 55 24 116 50 24
91 26 12 78 10 4 73 5 8 83 17 9 107 39 18 114 48 16 108 42 12
92 25 10 84 19 9 100 34 12 107 39 11 101 32 15 91 24 15 89 23 12
93 28 13 95 31 11 95 30 13 89 24 12 83 19 14 89 25 15 80 13 9 70 3 3
79 15 9 105 37 15 107 46 16 87 54 30 83 87 66 98 108 83 108 114 86
81 85 62 51 54 38 72 74 57 75 78 56 65 68 46 77 81 58 72 76 53
92 96 72 103 108 82 101 106 81 91 96 68 85 90 58 32 35 21 51 52 38
69 68 50 53 50 30 60 59 42 63 66 44 70 73 52 86 90 65 84 84 57
100 100 75 115 118 93 98 101 81 66 70 50 37 39 25 39 43 23 54 59 36
59 64 39 47 52 25 48 53 28 53 59 34 62 68 42 71 77 51 75 81 55
74 80 54 74 80 54 68 74 48 57 63 37 64 70 43 65 71 44 66 73 42
80 87 58 97 103 77 94 99 75 68 74 44 62 67 39 68 72 48 69 73 48
62 67 42 68 74 47 93 99 73 99 105 79 105 111 85 88 94 68 73 79 53
61 67 41 56 62 36 56 62 35 53 59 32 51 56 33 49 54 33 50 55 33
51 55 33 49 53 30 36 40 18 30 35 11 41 47 21 52 58 30 50 56 29
48 54 28 39 45 20 45 51 26 65 71 45 67 73 47 70 76 50 70 76 50
67 73 47 64 70 44 66 72 46 64 70 44 55 61 35 44 49 25 52 58 29
65 71 43 71 77 52 76 81 58 73 78 56 77 83 59 80 86 58 69 76 44
57 62 35 49 54 30 45 50 26 55 61 36 72 77 52 65 70 45 61 66 42
58 63 38 59 64 39 56 62 37 53 58 33 49 54 29 47 53 28 49 55 30
45 50 25 41 45 21 45 48 26 51 53 32 57 60 38 54 59 35 59 64 41
62 69 46 61 68 45 76 83 60 85 92 67 88 95 69 83 92 65 76 85 58
72 81 54 70 79 52 75 84 57 85 94 64 95 101 75 98 104 78 99 105 79
100 106 80 99 105 79 89 95 69 74 80 54 73 79 52 79 86 53 78 85 57
80 86 60 82 88 62 86 92 66 76 82 56 68 74 49 66 72 45 60 66 38
56 62 35 73 79 51 78 84 57 74 80 53 65 71 44 61 67 41 63 68 42
62 68 42 71 77 51 69 74 48 72 78 52 76 82 56 84 90 64 91 97 71
78 84 55 64 70 42 80 86 60 103 110 78 94 101 67 80 87 54 79 84 57
75 79 54 71 77 51 72 78 52 75 81 55 74 80 54 68 74 49 81 87 61
84 90 65 85 91 65 77 83 56 65 71 45 67 73 47 69 75 49 65 71 45
60 66 40 53 59 33 49 54 29 47 52 27 40 46 20 43 49 23 42 48 22
46 51 29 48 53 31 43 49 22 48 54 27 59 65 39 65 71 45 71 77 50
71 77 51 71 77 51 68 74 48 64 70 44 56 62 36 136 29 16 159 15 10
127 5 4 162 3 6 128 15 10 74 19 9 92 7 6 179 3 10 169 2 8 109 12 6
95 10 4 95 17 9 146 10 8 154 1 3 155 7 7 115 24 17 97 6 5 113 10 7
145 8 6 186 4 7 133 6 7 97 17 7 126 21 13 161 6 4 120 0 0 144 2 7
121 10 8 68 11 9 67 11 7 84 15 8 96 14 9 105 16 11 83 12 8 83 25 18
102 44 27 98 34 16 85 19 10 84 18 10 85 19 11 73 6 7 68 0 1 68 1 2
72 6 4 79 14 6 93 27 10 111 41 10 111 43 8 118 51 10 120 53 15
111 47 18 111 49 19 115 52 24 113 50 17 110 44 13 113 45 11 104 37 7
100 31 11 101 31 10 91 23 6 75 10 3 76 9 4 81 15 8 86 21 12 94 28 18
90 25 13 81 17 8 77 16 11 82 23 15 77 21 15 74 25 18 65 19 17
65 23 23 70 26 20 97 37 13 117 57 20 128 68 29 97 35 14 70 6 8 66 0 3
69 0 3 65 0 1 67 3 6 82 12 10 105 32 12 105 33 12 106 37 21 92 29 19
78 13 8 78 9 9 74 10 8 77 11 9 85 15 10 81 12 6 89 23 8 106 40 16
118 48 20 114 46 14 101 32 12 94 23 10 74 8 7 73 7 5 77 10 6 86 19 9
87 24 8 89 25 12 90 21 9 106 38 13 101 56 32 101 90 63 122 124 96
90 94 71 70 72 55 68 69 52 68 71 50 75 78 56 81 85 62 72 76 54
88 93 69 105 111 84 98 104 78 79 85 58 85 92 60 35 37 22 38 40 24
53 56 36 42 41 22 53 52 34 46 47 29 62 64 46 78 82 59 86 82 61
91 87 66 95 99 76 103 106 84 99 102 83 106 109 92 85 87 73 50 52 39
47 49 36 58 60 43 63 66 47 65 70 48 70 76 51 79 85 59 92 98 72
98 104 77 96 102 76 82 88 62 64 70 44 67 73 47 82 88 61 105 112 80
107 114 81 108 115 87 103 109 82 92 99 66 89 94 66 93 97 72 93 97 73
78 83 55 67 75 44 63 69 43 59 65 41 88 94 68 98 104 78 90 96 71
83 89 63 88 94 66 89 96 65 77 84 53 64 70 43 50 55 34 47 52 31
51 55 33 55 58 35 49 54 32 47 52 29 55 60 36 64 70 43 57 63 36
58 64 38 65 71 45 65 71 45 65 71 45 67 73 47 64 70 44 61 67 41
55 61 35 54 60 34 56 62 36 56 62 36 50 56 30 46 52 25 51 57 29
48 55 27 51 56 34 64 69 47 59 65 42 59 64 42 73 80 50 69 76 45
62 67 41 62 65 43 56 59 37 50 54 31 48 52 29 41 45 22 47 51 28
55 59 36 60 64 41 64 68 45 69 73 50 69 73 50 67 71 48 68 71 49
64 68 45 56 60 37 56 58 35 52 54 31 47 51 28 44 49 26 40 45 26
42 46 24 45 49 26 58 62 39 66 69 46 64 69 45 61 70 43 57 66 39
59 68 41 65 74 47 69 78 51 74 82 56 72 78 52 76 82 56 77 84 58
81 87 61 87 93 67 86 92 66 92 98 72 103 110 81 89 97 63 67 73 45
62 68 42 62 68 42 66 72 46 72 78 52 71 77 51 74 80 54 77 83 57
60 66 40 56 62 35 65 71 43 69 75 47 72 78 51 66 72 46 58 64 38
56 62 36 61 67 41 60 66 40 66 72 46 81 87 61 89 95 69 91 97 71
94 100 71 93 99 71 83 89 64 82 89 58 92 99 65 101 108 74 111 116 88
117 120 95 116 120 95 110 117 91 106 112 86 99 105 79 89 95 69
78 84 58 72 78 53 74 80 54 86 92 66 85 91 65 89 95 69 92 98 72
89 95 69 82 88 62 74 80 54 75 81 55 74 80 54 68 74 48 66 72 46
60 66 40 58 65 36 57 64 35 56 62 36 55 61 35 53 59 33 56 62 36
60 66 40 61 67 42 63 69 44 65 71 45 60 66 40 58 64 38 134 63 27
133 56 24 107 23 17 125 4 4 148 5 5 163 3 4 170 4 5 155 4 6 113 1 3
99 0 2 106 18 9 99 21 8 152 9 13 131 4 6 167 6 12 96 6 6 84 7 6
94 4 4 101 2 1 142 4 5 169 6 7 175 14 6 163 15 9 123 6 7 71 5 9
29 2 14 17 1 12 0 0 18 1 1 11 18 8 9 67 27 21 91 30 15 87 23 12
89 20 10 96 26 7 91 23 9 95 27 8 96 28 9 94 29 14 89 23 12 87 16 8
98 27 13 115 47 21 132 68 18 146 83 27 126 60 19 97 30 9 82 14 4
78 16 4 81 22 5 89 30 14 91 31 17 90 36 16 94 40 19 96 41 22 97 46 27
101 58 37 94 60 41 82 48 42 69 41 44 59 27 49 46 21 61 49 28 64
60 45 46 38 27 64 35 24 90 28 21 97 26 20 104 20 19 104 14 10 115
12 9 119 16 15 81 64 47 54 122 62 21 119 56 22 104 39 20 85 19 7
75 6 5 75 7 7 76 7 8 85 13 9 109 40 20 138 69 27 123 54 17 106 38 11
90 20 11 72 3 6 74 6 6 80 12 8 82 14 13 77 8 8 77 7 7 83 12 8 97 26 9
113 43 13 111 43 14 97 30 12 82 13 10 72 3 3 69 0 0 70 2 3 88 22 14
103 37 15 105 41 16 96 27 13 90 19 10 87 18 8 79 12 4 76 10 11
95 49 43 90 84 63 77 78 59 66 68 48 67 68 48 79 85 61 83 93 64
71 80 53 79 86 60 111 117 90 102 108 82 70 75 50 74 78 55 30 31 21
29 31 22 39 41 27 47 48 32 46 48 30 48 51 32 71 73 54 74 77 57
90 91 66 101 98 74 97 101 75 106 110 85 98 102 80 93 97 73 94 97 72
105 107 84 55 58 44 22 23 20 43 44 35 46 48 37 68 72 51 103 108 84
116 120 97 113 118 93 116 122 92 94 101 69 69 76 46 76 82 57
100 106 79 112 119 87 113 120 87 112 118 90 107 113 86 102 109 76
95 101 69 92 98 67 89 95 68 86 92 66 84 90 64 88 94 68 84 90 64
83 89 63 77 83 57 71 77 51 72 78 52 76 82 55 83 89 62 90 96 70
94 100 74 93 98 73 83 89 64 70 75 50 54 58 35 45 50 27 39 44 22
38 43 21 44 49 27 49 54 33 48 54 27 53 59 32 60 66 40 58 64 38
54 60 34 64 70 44 72 78 52 72 78 52 68 74 48 67 73 47 70 76 49
77 83 57 63 68 45 58 63 45 45 50 32 41 45 28 46 51 32 43 48 26
59 65 42 66 71 48 59 66 38 59 65 35 76 81 55 73 79 53 68 74 47
57 63 36 63 69 43 61 66 40 56 61 38 54 58 35 55 59 36 60 64 41
63 67 44 64 68 45 57 61 38 49 53 30 56 60 37 68 73 49 71 75 52
73 78 55 72 78 53 67 73 47 51 57 31 35 41 16 42 48 23 61 67 41
70 75 50 67 74 48 64 70 44 62 69 43 51 61 34 56 67 39 56 67 40
57 68 40 59 69 42 60 70 43 62 68 42 70 76 50 75 81 55 77 83 58
86 92 66 102 108 81 95 101 75 86 92 66 72 78 52 61 67 41 59 65 39
60 64 39 64 69 43 60 66 40 57 64 35 58 63 40 58 63 42 60 65 44
61 65 44 63 68 44 64 69 44 66 72 46 67 73 47 63 69 43 62 68 42
60 66 40 62 68 42 60 66 40 63 69 43 71 77 52 81 87 61 92 99 72
97 103 76 94 100 73 91 97 71 89 94 69 88 94 68 88 94 68 90 96 70
90 96 70 89 95 69 92 98 72 90 96 70 88 94 68 85 91 65 90 96 70
93 99 73 86 92 66 82 88 62 77 82 57 73 79 53 77 83 57 81 87 61
83 89 63 87 93 67 87 93 67 88 94 68 91 97 70 91 97 71 87 93 67
83 90 64 71 77 51 61 67 42 55 61 37 55 61 37 48 54 29 41 47 21
52 58 32 71 4 6 71 6 5 73 10 7 83 12 9 108 12 9 126 9 5 123 9 6
106 9 6 90 5 2 95 3 4 131 8 6 166 6 8 131 8 9 85 7 5 122 9 8 167 9 13
144 10 8 104 4 5 83 0 2 97 4 3 118 5 6 120 5 6 93 5 3 25 4 2 11 4 5
0 2 13 1 1 13 2 1 19 1 1 26 0 1 35 3 2 28 26 6 14 66 6 13 80 8 7
75 5 3 84 14 7 108 43 13 114 52 14 117 51 17 96 34 14 81 25 14
84 28 18 93 40 24 95 46 28 79 34 24 74 39 33 63 29 42 55 26 49
60 43 60 55 43 69 53 39 73 50 37 74 33 30 77 43 41 58 47 46 52
13 9 93 11 9 118 7 10 125 3 5 137 3 5 138 3 5 137 1 1 141 11 15 97
54 56 53 11 10 91 0 0 152 0 0 149 0 0 147 0 0 150 0 0 153 0 0 140
8 7 82 42 34 88 83 27 29 85 15 8 83 13 11 77 4 4 75 6 4 83 15 12
77 9 7 82 12 9 94 24 11 113 43 8 115 48 7 121 53 13 116 49 11
111 40 13 95 25 11 86 18 7 86 18 9 87 20 13 95 25 15 94 23 12 88 15 9
87 15 5 95 25 7 86 15 6 74 5 6 71 1 3 73 3 3 80 12 7 95 30 14
102 35 16 90 25 14 74 4 6 73 2 5 72 5 4 72 6 5 78 10 8 76 4 5
82 22 20 76 55 41 73 73 54 62 65 42 75 82 57 88 101 71 77 86 59
76 84 57 106 112 86 102 109 81 74 79 56 51 55 36 24 25 16 34 36 26
43 44 30 61 62 46 52 54 35 55 58 39 73 76 56 72 75 55 94 100 71
100 103 73 94 97 66 111 114 87 106 111 80 99 104 75 86 89 67
121 122 100 64 67 49 22 22 19 76 79 63 79 84 66 44 46 36 41 44 28
68 71 53 90 93 74 97 102 77 82 88 58 72 78 49 67 73 46 69 75 48
79 86 55 86 93 60 86 92 64 86 92 65 87 94 62 86 93 60 88 95 62
88 95 68 82 88 62 77 83 57 79 85 59 77 83 57 83 89 63 90 96 70
88 94 68 79 85 59 78 84 58 78 84 58 81 87 61 95 101 75 104 110 84
109 115 86 110 116 90 98 102 79 78 83 60 54 59 36 49 54 31 49 54 31
62 67 44 74 81 53 81 87 61 82 88 63 70 76 50 62 68 42 52 58 32
83 89 63 109 115 89 98 104 78 86 92 66 88 95 67 105 111 83 105 111 84
99 107 75 103 109 81 101 108 79 86 93 64 73 79 54 57 63 37 48 54 27
52 58 30 66 73 41 92 99 66 93 100 67 102 109 77 103 110 78 106 112 82
95 100 73 81 85 62 64 68 45 56 60 37 57 61 38 56 60 37 53 57 34
57 61 38 51 55 32 41 45 23 53 57 35 56 61 38 63 67 44 65 70 46
72 78 51 68 74 48 58 65 39 46 52 26 49 55 29 63 69 43 79 85 59
86 93 67 94 100 74 83 90 64 74 81 55 68 74 48 63 69 43 61 68 42
59 66 39 53 59 34 58 64 38 72 78 52 75 81 55 78 84 58 85 91 65
66 72 47 62 68 42 61 67 41 64 70 44 65 70 45 64 68 43 65 70 44
61 68 42 60 66 37 55 61 37 53 58 36 51 56 34 51 55 33 51 55 33
54 59 34 55 61 35 59 65 40 65 70 46 69 74 49 64 70 44 63 69 43
61 67 41 62 68 42 60 66 40 60 66 40 59 65 39 58 64 38 60 66 40
60 66 40 65 71 45 70 76 50 70 76 50 75 81 55 79 85 59 77 83 57
79 85 59 78 84 58 80 86 60 83 89 63 80 86 60 83 89 63 80 86 59
76 82 56 71 77 50 69 75 48 71 77 50 71 77 50 69 75 49 73 78 53
78 84 58 79 85 59 71 77 51 77 83 57 82 87 62 81 86 61 79 85 60
83 90 61 86 93 63 87 93 63 72 78 50 56 62 36 65 71 45 65 2 3 73 11 7
85 25 11 95 31 12 97 26 11 104 37 10 109 44 10 117 47 12 119 55 11
108 20 10 105 2 3 116 3 8 129 46 28 127 51 19 122 47 13 121 15 11
113 9 6 106 13 6 103 27 10 77 5 7 37 1 11 18 2 15 16 3 34 11 12 48
1 2 53 4 4 100 4 4 107 2 1 111 3 2 101 0 3 77 2 2 63 1 1 35 22 6 25
55 32 37 56 36 47 45 21 54 39 28 64 38 33 77 34 22 92 33 26 97
28 25 96 18 16 105 16 15 98 21 22 81 42 52 62 13 17 94 5 7 133
5 5 143 5 5 143 2 4 153 1 0 151 2 0 150 0 0 122 21 21 71 41 42 67
0 0 124 0 0 155 0 0 154 1 0 153 1 0 154 1 0 151 0 0 144 11 14 91
51 57 57 8 11 87 0 0 147 1 0 151 1 0 144 1 0 139 3 2 139 4 4 118
8 10 67 26 27 110 70 27 61 97 29 4 90 23 12 78 13 8 72 3 6 66 0 1
72 4 8 80 9 12 101 33 7 117 50 6 120 52 12 101 33 13 103 33 14
108 36 10 108 37 14 116 48 18 122 58 24 120 54 24 110 44 16 108 42 15
114 44 10 111 41 11 118 49 17 126 56 16 119 50 17 97 25 8 88 19 12
84 16 11 83 15 10 85 17 8 83 17 8 87 21 11 97 31 14 93 26 13 84 19 8
87 18 12 82 15 7 77 11 7 82 16 10 97 57 30 68 59 35 70 77 52 77 89 62
77 86 59 75 82 56 101 107 81 96 102 73 87 91 68 42 46 27 28 29 19
40 42 29 42 43 30 48 46 30 48 50 34 62 66 45 66 70 48 75 78 57
95 98 71 106 111 81 96 100 72 111 113 87 106 110 78 110 115 83
94 97 69 109 112 85 67 71 51 17 18 11 69 73 52 101 109 78 103 107 86
95 98 80 68 70 52 46 48 33 44 47 33 64 66 50 85 89 67 83 90 60
76 82 53 74 81 53 77 84 54 84 91 64 91 97 71 78 84 57 69 76 45
73 80 48 68 74 47 55 61 35 57 63 37 69 75 49 75 81 55 70 76 50
66 72 46 69 75 49 71 77 51 70 76 50 67 73 47 59 65 39 53 59 33
54 60 34 57 63 38 64 70 44 67 73 47 63 67 43 56 59 37 57 61 38
61 65 42 66 70 47 76 82 56 85 91 65 82 88 62 80 86 60 81 87 61
83 89 63 82 88 62 82 88 62 80 86 60 77 83 57 77 83 57 70 76 50
73 80 49 88 95 61 93 100 67 95 103 69 102 109 76 98 104 74 81 88 58
66 72 42 51 58 25 53 60 27 65 72 39 80 87 54 89 96 63 88 95 62
82 89 56 76 82 55 81 85 62 74 78 55 66 70 47 65 69 46 63 67 44
59 63 40 62 66 43 57 61 38 46 51 30 49 53 31 52 56 33 50 54 31
61 66 42 73 79 53 78 84 58 78 84 58 73 79 53 68 74 48 61 67 41
53 59 33 58 64 38 69 75 49 73 79 53 67 73 47 78 84 58 92 98 72
89 95 69 75 81 55 59 65 39 61 67 41 79 85 59 81 87 61 66 72 46
76 82 56 87 93 67 89 95 69 88 95 69 88 92 66 78 81 59 69 73 48
64 69 43 59 65 39 58 64 35 54 60 36 51 56 34 52 57 35 51 56 34
45 50 28 43 47 25 41 45 22 42 46 23 43 47 24 46 50 27 51 56 31
56 62 35 50 56 31 45 51 25 41 47 21 47 53 27 59 65 39 65 71 45
68 74 48 68 74 48 65 71 45 63 69 43 66 72 46 66 72 46 66 72 46
62 68 42 57 63 37 49 55 30 60 66 41 72 78 52 77 83 57 77 83 57
80 86 58 81 88 59 78 84 56 71 77 49 68 75 46 56 62 34 52 56 31
52 56 31 58 62 37 63 69 43 69 75 49 68 74 48 66 71 46 60 64 39
54 60 34 54 60 34 50 56 30 48 54 28 49 55 29 46 52 26 48 53 28
149 86 32 164 103 33 160 96 32 128 57 17 100 23 7 77 10 4 75 9 3
82 12 4 83 16 8 91 20 11 98 28 9 104 32 17 106 38 15 97 44 13
91 49 24 97 52 34 92 53 38 90 52 39 88 57 45 49 32 34 1 1 9 0 0 16
30 29 175 114 119 232 82 84 225 6 5 234 2 2 229 2 1 227 1 2 226
0 3 180 2 4 115 2 4 71 1 2 39 31 32 39 41 43 72 3 1 107 2 1 146
0 1 158 0 0 160 0 0 167 0 0 171 1 0 166 2 0 140 12 10 97 45 50 54
7 7 108 2 0 152 3 0 152 3 0 154 3 0 157 3 0 155 2 0 148 0 0 116
22 23 68 42 45 59 2 0 102 2 0 134 3 2 144 4 2 135 5 5 134 6 6 132
7 10 106 19 27 59 45 48 44 26 28 62 28 32 86 33 35 93 43 45 80
43 45 72 42 43 75 36 40 61 32 41 44 31 32 104 44 17 104 87 20 4
90 27 9 99 32 14 100 37 16 106 41 18 116 52 21 129 66 23 154 95 30
165 106 28 162 103 31 147 85 25 128 63 15 87 17 6 78 8 7 80 11 5
86 18 7 103 33 12 113 46 15 111 47 12 101 34 9 92 22 12 110 43 12
122 54 13 132 67 13 139 72 21 132 64 19 131 67 21 136 72 20 130 67 18
135 70 18 128 60 13 87 19 9 76 9 7 75 8 7 74 7 7 78 6 7 86 15 9
113 41 18 138 72 20 143 81 31 101 69 35 82 85 57 84 90 65 85 91 65
102 108 81 97 102 73 78 82 61 51 54 37 36 39 23 31 32 19 40 35 26
38 33 21 45 46 33 60 63 39 59 61 39 71 74 52 86 89 65 102 106 82
104 107 84 112 114 87 105 109 77 108 114 81 92 96 67 94 98 71
81 84 63 24 24 20 85 86 67 109 109 81 101 105 75 117 121 91
117 120 93 105 106 86 88 90 73 59 62 47 37 39 25 46 49 31 72 76 54
77 82 58 73 78 52 75 79 55 84 88 66 72 77 51 55 59 33 51 57 30
46 51 25 49 55 29 59 65 39 66 72 46 54 60 35 53 59 34 57 63 37
57 63 37 59 65 39 60 66 40 61 67 41 57 63 37 51 57 31 47 53 27
45 51 25 36 41 16 35 40 16 40 45 22 45 49 27 48 52 29 57 62 40
60 65 43 54 60 35 50 56 30 58 64 38 68 74 48 78 84 58 83 89 63
84 90 64 79 85 59 86 92 66 88 94 68 85 91 65 79 85 59 81 87 59
83 89 61 87 93 65 90 97 66 103 110 77 111 118 85 110 117 84
105 112 79 91 98 65 80 87 54 73 80 47 73 80 47 79 87 54 74 86 51
70 81 48 74 84 52 81 87 62 74 78 55 62 66 43 62 68 42 51 57 31
55 60 36 64 68 45 80 84 61 84 88 65 78 82 59 78 82 59 72 76 54
62 67 42 56 60 35 63 68 43 69 74 48 72 78 52 84 90 64 93 99 73
97 103 77 95 101 75 90 97 71 64 75 47 52 62 35 70 80 53 99 105 79
111 117 91 93 99 73 89 95 69 88 94 68 81 87 61 80 86 60 84 90 64
76 82 56 79 85 59 68 74 48 68 74 49 74 80 54 72 77 53 97 102 76
104 110 84 85 91 65 74 81 54 80 86 60 79 84 60 73 79 54 66 71 47
53 57 34 49 53 30 47 51 28 50 54 31 48 52 29 43 47 24 40 44 21
47 52 28 53 59 33 54 60 34 52 58 32 50 56 31 57 63 34 65 72 41
62 69 38 64 71 43 64 70 44 64 70 44 65 70 45 63 71 44 58 66 39
53 61 34 54 60 34 49 55 29 50 56 30 52 60 33 55 63 35 59 66 40
61 66 45 60 65 44 58 63 42 59 64 43 68 72 51 69 72 51 73 76 52
65 68 41 56 60 33 53 60 30 55 61 34 54 58 31 55 59 31 49 53 27
39 46 20 52 59 31 61 67 41 65 71 45 69 75 49 68 74 48 64 72 45
117 68 29 116 67 35 105 60 38 83 38 32 73 32 35 71 37 49 69 38 52
65 37 50 59 38 49 57 42 58 48 35 69 58 52 59 52 51 57 25 24 85
23 26 101 16 20 108 13 17 113 16 17 119 14 12 118 8 8 43 2 2 15
0 1 30 39 38 193 134 136 247 115 116 246 7 6 241 1 0 250 1 1 247
1 2 226 0 2 194 1 2 174 2 4 129 2 3 84 13 11 40 33 35 63 3 0 114
3 0 157 2 0 170 1 0 164 0 0 164 0 0 165 0 0 160 1 0 131 12 10 89
48 50 54 10 9 100 4 3 130 7 6 130 8 8 125 15 15 123 15 17 118
16 17 109 17 20 75 28 32 59 41 45 52 31 32 64 34 37 74 41 48 77
43 50 71 42 48 75 43 51 74 31 42 73 32 44 50 47 50 47 34 37 66
31 36 82 29 30 95 28 27 100 25 25 101 18 14 107 16 12 102 14 14 68
42 44 95 28 13 150 83 21 19 98 33 11 110 44 18 115 54 21 112 48 18
93 28 11 82 21 12 90 26 15 95 26 11 86 15 7 86 16 10 80 12 8 82 9 5
95 23 7 113 42 14 143 78 26 157 92 28 139 74 29 123 57 22 103 38 15
94 28 7 101 33 9 107 40 10 98 31 14 87 20 11 82 14 7 85 19 9 96 26 12
97 30 13 105 33 11 105 29 10 100 28 14 104 33 20 99 27 13 90 18 12
78 10 7 76 7 6 83 15 10 86 16 9 87 15 13 88 16 11 86 48 27 87 87 60
90 98 67 102 108 76 96 100 71 82 86 64 75 77 62 43 46 30 34 35 23
33 30 21 40 35 24 62 64 43 49 51 28 62 64 44 78 81 60 91 95 70
106 110 86 101 105 82 108 111 86 104 108 78 102 107 75 92 96 69
87 91 68 73 77 57 17 18 12 70 70 51 120 118 90 98 103 73 121 127 95
118 121 90 111 113 88 105 109 86 105 109 84 83 86 62 60 63 49
42 44 34 38 40 26 57 60 39 70 74 47 70 74 51 68 71 49 62 65 42
51 57 31 47 52 27 42 49 23 46 52 25 50 56 29 46 52 26 52 59 31
61 67 41 68 74 48 68 74 48 71 77 51 73 79 53 73 79 51 70 76 49
63 69 43 56 62 36 48 54 28 43 49 23 40 45 23 40 45 23 32 35 13
28 32 11 37 42 21 47 53 28 51 57 32 64 70 44 68 74 48 59 65 39
56 62 36 58 64 38 62 68 42 71 77 51 74 80 54 80 86 60 85 91 64
78 84 58 75 81 56 73 79 53 70 77 47 76 83 50 86 93 60 88 95 62
94 101 68 105 112 79 111 118 85 81 88 55 55 62 29 56 63 30 63 70 37
72 79 46 82 89 57 81 87 60 72 77 52 78 82 58 78 84 57 50 56 29
45 51 25 56 60 36 67 71 48 76 80 57 71 75 52 66 70 47 63 67 44
57 61 37 51 55 30 62 65 40 64 70 44 71 77 51 83 89 63 94 100 74
97 103 77 98 104 78 97 103 77 83 89 63 70 76 50 61 67 41 74 80 54
99 105 79 115 121 95 119 125 99 118 124 98 114 120 94 109 115 89
105 111 85 98 104 78 99 105 79 88 94 68 80 86 60 72 78 52 60 66 40
71 77 51 86 92 66 89 95 69 87 93 67 86 93 65 93 99 71 89 96 67
83 89 61 82 86 64 81 85 63 75 79 57 65 70 46 62 67 43 57 62 38
51 56 32 51 56 32 51 57 31 52 58 32 60 66 40 63 69 43 64 70 42
66 72 44 66 72 45 68 74 47 68 73 48 65 71 46 64 70 45 60 71 44
54 64 37 53 60 34 56 62 36 55 61 35 49 56 30 47 57 30 48 58 28
51 59 33 47 52 31 49 53 33 41 46 26 47 52 33 57 61 41 58 61 41
64 67 43 69 71 44 66 69 42 65 67 42 63 65 43 61 65 41 58 62 38
54 58 33 44 50 24 38 43 18 45 51 25 53 59 33 55 61 35 57 63 37
56 65 38 48 49 61 18 13 95 12 12 126 12 14 133 8 11 132 7 10 137
6 8 140 2 4 142 0 2 145 0 0 148 0 0 131 38 41 72 43 49 65 1 0 120
2 0 148 0 0 164 1 0 170 2 0 169 3 1 93 0 0 33 0 1 28 2 3 92 6 5 183
44 44 228 31 32 207 3 3 165 2 2 193 1 3 157 7 9 132 15 16 193 7 5 202
2 2 185 1 2 139 5 4 59 21 23 52 7 7 93 14 12 115 15 15 114 15 18 108
26 28 103 27 29 101 29 32 91 29 32 76 32 38 57 47 49 53 41 42 66
40 44 72 43 48 74 44 50 75 44 48 77 45 50 82 36 42 77 30 33 73
37 42 62 44 47 60 25 25 80 19 21 105 15 17 124 16 18 125 12 10 132
9 8 135 2 1 144 11 15 87 51 56 55 9 10 87 0 0 149 0 0 153 4 1 144
5 4 141 6 8 142 10 10 130 21 20 76 41 45 79 38 36 121 65 40 42
66 42 24 67 39 26 67 48 27 70 51 32 59 44 23 56 38 24 63 37 26 65 8 7
65 0 1 68 3 5 73 9 9 94 24 13 121 52 12 111 45 15 106 39 18 95 27 11
86 17 12 75 6 6 74 5 5 76 4 5 75 7 6 75 10 9 88 21 15 90 24 12
101 32 12 124 58 20 146 82 25 155 91 29 133 68 13 119 47 8 94 22 11
80 6 5 72 1 2 74 3 5 85 14 11 96 25 12 104 35 16 102 34 14 94 30 14
119 50 18 137 68 21 120 75 30 102 82 42 100 103 77 102 110 81
82 86 62 86 89 71 48 50 40 30 30 26 36 32 24 48 46 33 56 57 42
45 46 29 72 75 51 78 81 57 83 87 62 97 102 74 94 97 76 107 111 89
99 104 75 94 99 70 93 96 73 86 89 69 76 78 62 11 11 3 63 64 46
123 124 96 89 94 65 118 123 93 123 126 98 118 121 96 104 108 84
86 90 68 69 71 47 97 101 68 110 114 83 89 91 73 57 58 45 42 43 31
42 45 29 54 57 38 57 62 39 49 56 27 47 53 24 47 54 25 49 55 26
52 58 32 52 57 33 52 58 31 54 61 33 63 69 43 66 72 46 67 74 48
62 68 42 54 60 32 65 71 44 71 77 52 76 82 57 77 83 55 72 78 49
73 80 51 74 79 52 65 69 47 51 55 32 44 48 25 47 52 28 62 68 42
66 72 46 67 73 47 64 70 44 53 59 33 44 50 25 43 49 24 50 56 31
53 59 33 51 57 31 55 61 35 65 71 45 71 77 51 75 81 56 77 83 53
76 83 50 78 85 52 78 85 52 85 92 62 94 101 71 98 104 73 83 90 57
72 79 46 55 62 29 46 50 19 49 54 22 60 65 33 65 69 40 70 74 47
68 72 47 65 71 46 67 73 48 64 69 44 62 66 43 62 66 43 65 69 46
64 68 45 61 65 42 62 66 44 64 66 43 64 66 41 60 64 39 56 60 35
56 62 36 60 66 40 65 71 45 68 74 48 88 94 68 107 112 86 113 117 92
120 123 98 115 119 94 99 105 79 90 96 70 88 94 68 95 101 75
103 109 83 110 116 90 112 118 92 106 112 86 101 107 81 94 100 74
94 100 74 94 100 74 89 95 69 86 92 65 87 93 67 89 95 69 89 95 69
88 94 68 85 91 65 78 84 58 73 79 54 72 78 52 71 77 49 72 79 51
80 86 58 89 95 69 88 94 68 89 95 69 91 98 72 85 92 65 74 80 55
68 74 48 56 62 36 47 53 27 40 46 21 39 45 20 39 45 22 46 51 28
49 53 30 47 51 28 48 52 28 52 60 34 51 61 34 53 61 34 53 59 33
64 70 44 71 78 52 77 86 59 82 93 64 79 89 63 74 79 57 69 74 52
67 72 52 60 65 44 57 61 41 51 54 35 45 47 25 48 49 29 51 52 30
57 60 39 61 66 40 60 66 42 59 64 40 58 63 40 65 71 45 72 78 51
69 75 49 67 73 47 68 74 48 69 75 49 66 72 46 44 51 72 3 1 111 0 0 154
0 0 166 1 0 168 1 0 169 0 0 173 0 1 174 1 0 167 1 0 159 0 0 133
35 44 72 43 49 68 3 1 120 3 0 143 4 0 160 2 0 163 3 1 150 3 2 48
2 1 28 1 1 50 2 1 143 9 8 201 69 74 229 35 35 220 3 2 141 2 2 155
1 2 119 33 34 188 83 87 234 20 20 174 2 1 182 1 2 169 1 1 109
25 27 50 48 53 52 44 52 63 44 52 64 47 52 68 44 51 69 43 51 69
33 39 79 22 25 90 27 30 80 49 52 68 20 18 98 11 8 121 9 4 137 9 4 139
3 2 140 2 0 150 2 0 153 0 0 128 20 21 75 42 43 65 0 0 118 1 0 154
5 2 149 3 2 150 8 6 148 10 7 143 8 10 128 21 27 84 50 55 46 39 44 58
42 45 85 50 54 79 53 56 72 55 59 66 60 65 54 60 66 51 64 69 50
65 69 48 71 71 47 70 74 49 68 72 44 68 71 46 62 69 42 56 61 37
51 56 32 50 51 29 55 57 34 60 43 27 73 4 7 78 6 6 94 23 14 122 57 22
150 85 29 142 76 24 113 45 17 85 15 8 69 1 3 72 4 4 80 9 7 88 15 11
81 10 7 80 8 7 85 10 11 103 30 17 129 56 23 137 68 14 138 70 20
120 52 21 93 26 8 82 11 7 77 3 7 77 2 4 76 3 4 76 4 6 95 25 13
105 34 13 114 43 17 124 54 17 111 37 13 103 29 9 90 21 11 89 21 11
82 15 4 81 26 22 110 90 66 85 86 59 92 93 71 50 52 39 27 29 20
36 35 24 36 35 22 35 33 22 51 46 33 71 70 50 82 81 60 85 88 65
81 85 63 93 97 79 106 110 88 96 100 75 87 91 66 85 90 66 85 89 73
70 73 61 15 17 6 61 64 45 115 121 89 107 110 79 121 118 90 125 126 99
117 119 92 108 113 83 104 108 83 69 71 45 70 70 42 104 107 81
114 116 94 119 123 102 115 119 98 76 78 60 40 42 28 31 33 19 43 47 27
61 66 46 70 75 52 63 68 46 60 65 42 53 59 35 54 60 32 55 61 35
56 62 36 59 65 39 59 65 40 51 55 32 41 45 24 49 54 31 54 61 32
63 69 43 66 73 46 65 76 46 64 75 46 56 64 38 42 46 23 31 35 12
35 39 16 54 58 35 74 80 54 75 81 55 74 80 54 81 87 61 80 86 60
68 75 49 66 72 47 71 77 51 71 77 51 69 75 49 60 66 40 52 58 32
53 59 33 51 57 31 65 71 43 70 77 47 78 85 53 89 95 68 102 107 84
108 113 90 100 105 80 94 101 69 83 90 57 75 82 49 70 76 44 68 75 42
63 68 40 57 61 37 54 58 35 50 54 30 49 54 32 51 56 34 55 60 38
68 72 48 69 73 48 66 70 46 66 70 45 64 68 44 65 69 45 67 69 45
67 70 46 66 72 46 66 72 46 64 70 44 60 66 40 59 65 39 54 60 34
48 54 28 52 58 32 62 68 42 70 75 49 81 86 61 90 96 70 93 99 73
86 92 66 70 76 50 62 68 42 71 77 51 72 78 52 77 83 57 82 88 62
86 92 66 86 92 66 87 93 67 87 93 67 88 94 68 86 92 66 88 94 68
85 91 65 82 88 62 76 82 56 73 79 53 74 80 54 87 93 67 92 98 71
88 94 67 86 93 66 87 93 67 82 88 62 82 88 62 84 90 64 94 100 74
104 110 84 115 121 95 107 113 87 97 103 77 84 89 64 79 85 60 71 77 51
53 58 33 41 47 22 44 49 25 63 68 43 82 88 62 83 90 61 81 88 60
72 78 52 71 77 51 71 77 51 62 67 42 93 96 70 104 107 82 97 101 79
91 96 71 89 96 69 106 112 85 111 116 89 109 114 87 101 105 79
99 101 76 97 99 74 87 91 69 83 88 61 67 73 46 61 67 40 52 58 31
53 58 31 71 75 48 84 88 62 96 100 74 105 110 84 105 110 85 105 111 85
43 52 67 2 0 108 0 0 151 0 0 163 2 0 160 1 0 156 0 0 158 0 0 152
2 3 142 2 2 132 3 4 108 32 44 58 41 50 50 15 17 86 17 19 107
23 25 107 29 33 100 30 32 99 8 8 44 1 1 45 1 2 79 3 2 181 3 4 191
8 9 198 8 7 220 2 3 210 5 2 214 4 3 205 5 6 207 9 10 214 4 5 174
3 3 173 1 2 209 2 1 144 16 17 66 13 15 102 9 7 124 4 4 136 3 2 144
0 0 150 0 0 158 0 0 162 0 0 135 8 7 94 47 51 70 11 10 107 3 0 137
6 4 142 7 5 139 12 11 133 20 21 128 22 24 127 29 35 99 42 52 61
58 64 55 44 47 68 47 49 76 57 61 71 52 56 63 50 55 52 47 51 52
44 53 40 43 56 36 46 52 35 60 66 42 67 72 44 67 72 44 66 71 44
66 70 44 64 68 44 65 69 46 67 70 49 68 71 50 67 69 48 67 70 47
68 70 45 67 70 44 64 68 45 56 61 38 50 54 31 53 55 33 47 54 30
51 58 35 86 27 16 119 49 15 156 89 37 172 110 48 140 78 17 128 61 10
114 46 10 97 27 12 84 16 7 78 9 8 81 8 9 87 15 13 84 9 6 79 2 4
78 3 5 82 7 5 92 15 6 97 21 6 103 27 10 107 35 18 112 43 20 99 29 18
83 11 13 76 5 6 75 5 5 83 8 7 101 30 12 120 53 25 119 48 26 100 27 13
92 13 7 88 13 8 87 14 8 84 9 6 86 7 7 86 6 6 90 19 16 85 55 40
96 93 71 51 54 43 34 35 25 32 34 21 32 33 20 34 31 22 67 62 48
76 75 53 83 83 61 81 83 63 73 77 58 96 100 83 95 98 75 101 105 79
84 89 63 77 83 58 87 92 74 70 75 58 17 19 8 67 70 53 112 118 85
110 115 83 114 116 86 118 122 94 114 119 89 111 116 84 113 118 88
74 78 49 54 55 29 113 115 92 103 106 82 105 112 82 112 118 87
97 101 74 106 109 86 84 87 69 55 56 48 40 43 34 42 45 31 49 53 39
52 57 37 53 58 34 55 62 31 56 62 36 55 61 35 53 59 33 49 54 30
44 48 26 50 55 33 54 59 36 59 66 37 62 68 42 67 73 47 68 75 49
71 78 52 71 77 52 61 65 42 46 50 27 47 51 28 59 63 40 77 82 57
80 86 60 86 92 66 91 97 71 84 90 64 73 80 54 69 75 49 64 70 44
62 68 42 64 70 44 58 64 38 53 59 33 62 68 42 73 79 53 77 83 57
79 85 59 82 88 58 78 84 58 59 65 40 52 58 32 49 55 29 53 60 30
61 68 35 63 70 37 63 70 37 65 72 40 66 72 45 64 68 45 63 67 44
62 67 44 57 62 40 52 57 35 45 50 28 44 48 24 46 50 24 50 54 29
56 60 35 63 67 42 68 72 47 68 73 48 65 70 44 61 67 41 61 67 41
64 70 44 65 71 45 65 71 45 66 72 46 65 71 45 61 67 41 59 65 39
56 62 36 53 60 33 54 60 34 56 62 36 68 74 48 71 77 51 71 77 51
81 87 61 85 91 65 82 88 62 78 84 58 75 81 55 77 83 57 82 88 62
82 88 62 88 94 68 85 91 65 79 85 59 80 86 60 76 82 56 72 78 52
69 75 49 64 70 44 68 74 48 75 81 55 72 78 52 73 79 53 74 80 54
74 80 54 70 76 50 72 78 52 75 81 55 74 80 54 74 80 54 76 82 56
77 83 57 81 87 61 86 92 66 86 92 66 71 77 51 60 66 40 63 69 43
71 76 52 75 80 56 81 86 61 86 92 66 88 94 68 83 89 63 83 89 63
69 72 48 67 72 45 77 82 54 84 88 60 85 90 63 84 90 65 87 93 67
90 96 70 91 97 71 83 88 62 81 85 59 94 100 74 101 107 81 101 108 79
99 105 79 99 105 79 88 94 68 78 82 57 65 69 43 57 60 33 54 57 30
60 63 37 65 69 44 76 81 55 41 52 54 16 19 84 24 22 100 30 29 103
31 32 98 39 44 80 43 47 84 43 46 81 48 50 68 46 48 64 47 50 58
47 56 49 45 55 47 40 45 70 37 43 74 39 44 77 37 40 85 34 36 84 8 9 44
0 1 68 2 1 112 3 2 208 3 0 236 0 0 243 0 0 245 1 1 205 0 0 173
0 0 197 0 0 227 0 0 243 1 0 224 0 0 198 0 0 241 3 0 164 11 12 63
7 4 111 15 12 140 21 20 154 42 39 164 42 36 157 44 41 142 49 51 131
55 58 109 72 77 84 65 74 69 39 47 51 38 44 54 39 48 43 46 56 42
53 65 40 60 73 44 64 77 47 64 75 45 61 71 48 59 68 47 59 68 36
63 73 36 63 68 37 55 59 32 49 52 26 39 41 18 34 37 19 39 43 26
57 65 43 71 77 52 72 76 49 70 74 49 65 70 44 61 67 40 58 64 36
58 64 37 60 66 39 61 67 40 63 69 42 64 71 45 64 68 43 61 64 40
56 63 39 43 53 29 47 55 32 56 61 39 63 67 45 68 74 50 74 54 35 79 8 4
82 14 7 105 36 11 122 56 11 146 86 20 153 96 24 146 88 21 137 70 23
111 45 19 98 33 15 95 34 14 91 32 14 97 38 15 109 49 22 119 55 26
124 60 24 101 32 10 78 9 5 76 5 4 75 4 3 70 0 1 67 0 1 71 0 1 78 4 3
98 25 11 107 36 14 109 38 16 103 34 13 88 16 7 78 4 5 76 0 2 80 2 3
82 3 3 86 7 8 95 18 13 91 12 8 78 6 6 74 29 24 54 38 31 41 40 27
32 34 26 36 33 23 39 36 24 47 45 29 61 55 33 80 81 52 73 77 54
77 80 60 105 108 92 94 97 75 101 105 79 80 84 59 65 70 47 87 92 70
59 64 47 15 17 6 65 68 48 106 111 79 104 111 78 100 107 74 117 124 91
112 118 85 107 112 80 115 120 88 94 98 68 61 64 37 110 115 89
110 115 90 102 106 81 94 98 72 90 95 64 88 93 61 104 107 77
106 112 86 101 104 87 72 75 63 44 48 36 30 32 22 34 37 24 44 49 30
53 59 32 56 62 34 54 60 30 33 38 14 39 44 22 53 57 34 50 55 29
56 62 33 68 75 46 77 83 55 78 81 57 78 81 56 80 84 59 77 81 58
71 75 52 59 63 40 51 55 33 58 63 38 67 73 47 71 77 51 69 75 49
70 76 50 80 88 59 86 94 66 80 86 60 79 85 59 75 81 55 67 74 48
62 68 42 78 84 58 81 87 61 72 78 55 82 88 62 96 102 76 102 108 81
94 100 72 92 99 70 79 85 55 68 75 42 62 69 36 54 61 28 56 63 30
58 65 33 58 64 37 59 63 40 54 58 36 54 59 37 55 60 38 55 60 38
51 56 34 47 51 27 43 46 22 37 41 16 32 36 11 37 41 16 50 54 29
60 65 40 63 69 43 61 67 41 56 62 37 56 62 37 48 54 28 48 54 28
56 62 36 63 69 43 65 71 45 66 72 46 66 72 46 65 71 45 63 69 43
57 63 37 61 67 41 62 68 42 62 68 42 58 64 38 55 61 35 53 59 33
59 65 39 68 74 48 74 80 54 80 85 59 83 89 63 82 87 61 80 86 60
91 97 71 85 91 65 74 80 54 69 75 49 61 67 41 54 60 34 46 52 26
50 56 30 60 66 40 72 78 52 71 77 51 69 75 49 72 78 52 69 75 49
65 71 45 61 67 41 58 64 38 50 56 30 47 53 27 41 47 21 39 45 19
42 48 22 44 54 27 43 50 24 44 50 22 45 50 28 46 51 29 51 56 35
56 62 38 58 64 37 56 62 36 63 70 44 68 78 51 70 79 52 74 84 54
78 88 57 90 97 70 88 94 70 87 92 67 82 88 62 77 82 57 73 78 53
74 80 54 70 76 50 69 73 49 70 75 51 75 81 55 87 94 68 87 93 67
92 96 71 96 99 73 100 103 76 90 93 65 82 85 58 77 80 53 69 73 48
47 58 51 43 53 59 47 54 66 46 55 71 40 47 73 37 47 78 36 42 85
31 32 97 31 31 96 25 22 103 21 17 100 42 46 61 43 50 58 6 3 112
0 0 135 0 0 144 1 0 152 0 0 145 0 0 63 0 0 56 0 0 130 1 0 200 2 0 227
1 0 234 5 5 215 7 9 182 22 24 162 19 25 171 22 26 180 24 28 175
24 24 169 39 43 146 44 49 159 50 50 110 45 47 52 37 39 54 55 63 55
79 86 67 115 117 89 104 102 75 97 98 65 101 105 70 101 108 73
92 102 68 64 71 46 50 57 34 51 59 36 52 61 36 55 64 38 55 65 35
54 64 35 52 61 34 52 62 36 50 59 37 50 59 37 47 58 33 46 57 32
44 54 29 31 37 14 29 35 12 30 36 13 33 39 18 44 51 30 59 68 44
63 70 44 59 65 39 53 59 33 53 59 32 57 63 36 57 63 36 58 65 37
60 66 38 62 69 41 65 71 44 68 74 48 70 75 49 67 72 47 62 70 47
51 60 37 50 57 34 43 50 28 41 49 25 44 50 26 51 49 26 77 21 14
103 32 12 119 52 11 124 56 9 122 55 15 110 43 13 108 42 10 127 61 14
140 75 16 155 91 23 174 113 37 181 124 45 184 130 49 173 116 42
155 93 31 140 75 18 124 59 12 116 50 17 123 55 21 125 58 17 127 59 19
110 40 12 90 19 7 89 18 7 96 24 10 85 13 8 90 19 6 101 31 7 88 18 8
80 9 9 98 23 10 110 36 12 112 37 17 98 26 12 104 30 10 101 27 10
96 24 9 90 22 8 92 26 13 71 35 19 36 27 20 34 32 23 37 36 20 38 34 14
51 43 20 68 68 42 67 70 51 75 79 53 107 110 90 100 104 82 98 102 77
86 90 66 64 67 47 69 73 54 48 51 37 16 18 9 63 65 46 89 94 63
101 106 74 107 113 81 118 124 92 108 112 85 103 108 76 103 108 76
90 94 65 64 67 40 105 109 84 117 122 95 99 104 75 90 94 67 109 114 83
85 90 58 103 108 78 99 104 77 93 97 74 104 108 86 98 103 79 72 74 58
54 56 43 29 33 18 36 39 25 43 46 32 56 59 42 55 59 39 49 53 31
54 58 34 50 54 32 52 58 35 64 70 47 74 79 56 75 80 53 69 74 48
65 70 45 68 73 48 68 73 48 62 68 43 63 68 43 65 71 45 73 79 53
64 70 44 63 69 43 74 81 55 96 99 73 112 116 90 99 104 78 81 87 58
57 63 34 57 60 35 61 67 41 65 71 45 64 70 44 50 56 31 47 53 28
70 76 50 86 93 65 93 100 71 107 113 84 112 119 88 99 106 73 91 98 65
75 82 49 64 71 38 58 65 32 58 65 35 55 60 35 51 55 31 54 59 35
53 58 36 48 53 31 50 55 33 46 51 27 47 51 26 50 54 30 40 44 20
34 38 14 32 36 12 36 42 17 40 48 22 40 48 21 37 43 16 35 41 13
34 40 14 36 43 17 53 61 34 67 74 48 71 78 52 72 78 52 72 78 52
72 78 52 73 79 53 72 78 52 71 77 51 70 78 51 69 76 50 61 69 43
53 60 34 39 46 20 35 43 17 44 51 24 54 62 35 64 74 47 67 76 51
69 78 54 69 78 53 69 76 50 70 75 48 76 81 55 76 81 55 63 69 43
59 65 39 53 58 33 45 49 26 45 50 27 52 58 34 64 69 43 64 69 44
61 67 41 54 60 34 50 56 30 54 60 34 56 62 36 58 64 38 59 65 39
61 66 40 54 61 34 51 59 32 52 60 33 45 52 26 41 48 19 41 46 24
40 45 23 46 50 29 47 52 30 52 57 34 46 51 29 49 54 31 54 60 36
59 67 43 55 64 38 54 63 34 64 71 44 69 74 50 80 86 63 85 93 70
81 87 65 77 84 61 76 83 60 72 79 56 77 82 59 83 88 64 87 93 67
87 94 68 90 96 70 93 98 72 93 97 71 97 100 74 104 107 81 108 111 85
111 114 88 109 113 88 43 53 66 9 8 95 3 3 148 4 3 156 2 1 150 0 0 158
0 0 160 0 0 161 0 0 168 0 0 161 0 0 122 37 42 63 49 56 62 11 11 116
16 17 137 20 21 149 20 22 147 30 34 150 27 31 105 45 53 58 46 53 99
52 62 108 62 70 101 64 70 95 78 81 91 79 86 92 81 88 75 74 80 58
65 72 44 59 65 34 58 63 26 73 76 44 73 77 44 69 73 45 54 58 35
45 46 23 71 77 54 110 113 90 118 120 92 107 112 82 96 101 72 85 90 58
80 85 56 77 83 58 57 63 37 53 60 35 54 62 38 55 65 40 57 68 42
52 62 37 46 56 32 42 52 27 42 52 27 42 52 27 42 52 27 37 47 22
36 45 21 38 48 23 40 49 25 39 47 23 33 41 17 27 35 12 30 39 15
33 43 18 38 47 23 50 59 35 57 66 43 64 71 47 70 76 50 71 77 51
70 76 51 68 74 48 67 73 47 66 72 46 64 69 43 63 69 43 61 68 42
56 65 41 56 64 41 54 62 39 47 55 33 45 55 31 48 56 31 55 60 36
75 44 27 110 35 13 136 71 16 159 96 32 149 85 30 116 46 18 111 41 16
99 29 10 84 12 5 87 16 7 88 17 9 88 15 9 82 9 4 75 1 2 79 4 4
99 24 12 119 46 10 119 49 13 130 64 21 146 79 22 146 77 20 138 73 15
120 53 11 108 39 13 97 27 9 96 25 8 95 24 8 100 30 11 104 35 15
115 46 22 121 52 25 107 37 15 91 21 13 75 6 10 75 2 5 75 3 3 75 6 4
75 6 5 88 14 7 114 41 13 112 55 19 76 49 23 41 40 21 43 41 21
44 41 13 51 50 23 68 72 52 80 85 55 105 109 83 102 105 83 81 85 62
93 97 74 77 80 59 50 51 41 33 34 27 20 21 16 52 55 37 65 70 41
104 109 78 115 121 89 113 118 89 103 107 81 100 104 75 82 87 55
72 76 48 60 64 36 106 110 84 115 119 92 87 92 60 78 83 50 117 122 91
98 102 75 100 106 76 96 104 73 91 96 66 100 105 74 100 105 75
91 95 68 107 108 81 92 99 71 76 78 62 49 50 42 36 38 28 47 50 34
61 64 44 65 68 46 61 65 43 58 63 40 59 64 43 64 69 47 71 77 48
83 90 63 99 105 79 101 108 81 103 109 83 101 107 81 94 100 74
77 83 57 61 67 41 62 68 42 78 84 58 99 105 79 107 112 87 98 101 77
97 101 76 100 105 74 96 101 69 90 95 65 88 94 66 90 96 70 90 96 70
89 95 69 76 82 56 58 64 38 63 68 43 58 64 38 46 52 28 72 79 51
109 116 83 110 117 84 96 103 70 84 91 58 79 86 53 93 99 67 91 98 71
78 83 55 69 74 43 58 63 40 52 57 35 49 54 33 45 51 25 48 54 26
54 58 36 54 58 36 48 52 30 40 44 21 47 54 29 53 63 35 60 69 42
61 69 42 56 62 35 53 59 33 55 62 37 61 70 43 57 67 40 57 65 39
62 68 42 67 73 47 65 71 45 63 69 43 63 69 43 59 65 39 50 59 32
47 56 29 50 59 32 54 64 37 55 64 37 51 60 33 50 59 32 54 63 36
60 69 42 57 65 41 57 64 42 56 65 42 54 60 38 60 63 42 62 66 43
65 69 46 77 83 57 72 78 52 65 70 44 62 66 42 56 60 36 54 58 33
51 58 32 51 57 31 53 59 33 49 55 29 40 46 21 47 53 27 54 60 34
63 69 43 65 71 45 70 76 50 73 79 53 70 75 47 68 73 47 68 74 47
66 72 43 63 68 45 55 60 38 45 49 30 41 45 28 32 37 19 34 38 20
36 41 20 38 43 18 33 41 18 29 36 16 34 39 17 40 44 19 47 51 27
56 63 39 61 71 47 58 66 43 55 63 40 60 68 45 66 74 51 73 78 55
75 80 56 77 83 57 79 85 58 81 87 61 83 89 63 84 88 63 78 82 57
73 78 52 78 82 57 83 87 62 86 92 66 43 48 71 3 1 108 6 2 148 6 4 160
8 6 159 23 25 133 28 33 131 49 54 132 61 66 128 66 71 120 82 87 102
77 84 73 81 89 70 70 79 65 66 73 58 61 66 50 70 75 55 85 91 62
99 106 69 99 109 70 101 110 75 107 114 79 110 117 79 101 108 71
102 106 76 108 113 83 104 107 81 97 100 68 85 89 56 73 78 46 68 70 42
66 66 40 59 59 34 55 57 33 64 65 41 88 88 64 108 109 87 107 108 89
97 99 76 92 95 71 88 92 66 96 100 74 108 112 88 75 80 56 49 54 32
44 49 25 43 50 22 54 60 36 51 61 37 45 53 30 51 59 36 51 59 36
44 52 29 39 47 24 46 54 31 53 61 38 59 68 44 62 70 47 59 67 44
60 68 45 60 68 45 59 67 44 54 62 40 48 56 33 47 56 32 53 63 38
55 65 40 60 67 42 64 70 44 61 67 41 61 67 39 57 63 34 57 64 34
56 62 34 53 59 33 52 57 30 48 53 28 47 57 32 51 60 36 55 63 40
57 65 42 55 65 41 53 61 37 51 54 35 46 49 33 120 90 40 187 133 43
187 135 50 180 124 48 172 110 40 152 85 23 113 44 14 81 9 5 85 12 6
88 17 9 89 19 6 97 28 5 117 48 13 130 64 17 123 54 14 102 32 7
91 17 6 99 23 8 116 43 10 122 50 12 134 64 10 144 77 19 140 74 20
138 71 26 150 84 26 156 90 28 153 85 23 148 79 23 149 80 19 125 57 14
82 10 6 75 1 5 76 4 7 78 6 6 80 9 5 84 11 7 94 19 13 112 45 14
136 70 18 150 89 19 153 97 28 110 68 29 66 57 36 38 39 23 38 38 26
69 76 57 85 92 63 105 109 84 104 108 85 89 93 70 101 105 82 73 77 53
42 44 31 30 31 23 25 25 23 63 65 50 77 82 52 114 117 86 114 118 89
100 108 80 107 114 84 100 106 77 79 84 54 65 70 40 51 55 26
112 117 91 102 106 80 98 103 71 94 99 67 99 103 71 90 94 64 97 107 73
99 110 76 90 96 63 97 103 70 97 103 70 74 86 54 75 89 56 83 89 58
101 107 76 108 115 88 95 99 79 64 65 52 32 34 22 34 35 27 54 56 44
77 80 62 77 80 60 80 85 61 78 84 53 85 92 64 91 97 69 86 93 67
94 100 74 96 102 76 81 87 59 62 68 41 53 59 33 60 66 40 77 83 57
105 111 85 120 124 99 117 121 96 115 119 94 115 121 89 113 120 87
104 111 77 97 104 75 93 99 73 97 103 77 102 108 82 98 104 78 83 89 63
79 85 59 68 74 48 58 64 39 59 65 37 73 80 47 80 87 54 87 94 61
91 98 65 95 102 69 100 107 75 90 96 70 88 92 67 104 109 83 103 109 83
90 95 71 73 77 55 56 61 36 53 59 32 51 57 31 52 58 32 56 62 35
60 66 39 55 63 36 49 59 31 54 64 36 63 69 45 66 70 48 67 72 48
66 74 45 67 80 48 69 81 50 69 80 50 71 76 51 69 75 49 66 72 46
63 69 43 63 69 43 59 65 39 50 59 32 50 59 32 51 60 33 52 62 34
52 62 34 50 59 32 48 57 30 41 50 23 39 50 22 48 52 29 49 52 32
41 44 22 60 63 42 84 88 64 72 76 51 61 65 40 69 75 49 66 71 46
59 62 36 64 63 37 68 68 42 69 70 44 66 69 44 58 64 38 53 59 33
44 50 24 35 41 15 40 46 20 47 53 27 50 56 30 50 56 30 55 61 35
63 68 43 66 69 44 70 75 50 72 78 52 73 79 53 73 79 54 70 76 51
70 75 53 71 76 53 70 77 47 69 75 49 66 73 45 64 70 40 60 69 40
59 67 39 53 59 31 43 48 23 42 45 21 42 49 26 44 55 30 54 62 39
63 71 48 59 67 44 61 69 46 60 65 42 52 56 33 39 44 21 44 50 25
48 54 28 58 64 38 65 71 45 67 73 47 68 74 48 72 78 52 78 84 58
78 84 58 77 79 66 64 68 76 68 71 73 65 68 70 69 70 72 86 90 69
92 98 69 101 106 70 94 96 59 82 84 47 75 79 43 58 65 36 59 67 42
76 84 53 94 101 70 105 112 81 116 123 92 117 123 94 115 121 88
109 115 83 101 108 78 91 98 70 91 98 69 93 99 70 105 110 82
106 110 83 101 106 78 95 100 68 76 81 49 67 72 40 67 69 41 59 63 33
65 67 37 71 74 45 89 93 63 99 104 74 102 106 77 97 101 73 91 94 67
97 101 75 105 110 83 108 113 85 95 100 74 60 64 41 54 58 36 51 55 31
46 54 26 58 63 39 55 64 40 53 61 38 53 61 38 50 58 35 49 57 34
54 62 39 62 70 47 67 75 52 65 73 50 64 72 49 66 74 51 69 77 54
71 79 56 72 80 57 69 78 54 63 71 48 60 66 42 56 61 37 55 60 36
43 48 23 39 45 19 45 51 24 56 62 37 59 64 42 55 60 38 51 56 33
46 50 25 46 49 25 45 49 23 45 49 26 57 63 40 68 77 53 74 84 60
61 71 47 57 64 41 58 61 39 58 63 37 74 61 31 100 33 14 103 29 10
89 19 7 86 18 8 88 18 9 82 10 5 80 6 3 85 13 5 97 28 8 122 55 14
162 100 31 177 112 36 154 90 26 136 71 20 106 38 12 97 28 7 96 25 6
105 35 12 110 40 14 108 36 10 95 23 8 86 15 9 83 13 11 86 16 11
85 17 12 83 13 7 82 10 5 93 21 6 91 19 7 98 27 9 111 42 14 120 50 18
110 37 12 102 28 12 90 15 7 84 10 5 85 15 6 88 20 7 86 16 4 93 22 8
97 22 7 85 26 14 55 24 21 44 34 29 77 77 59 93 98 73 103 109 83
103 107 83 92 96 72 91 94 70 69 72 52 45 46 36 40 41 32 25 26 19
55 57 40 63 67 41 114 117 90 118 113 91 104 108 81 113 118 89
99 104 77 75 80 54 67 70 45 59 63 38 97 101 75 90 95 66 100 106 73
109 114 82 94 99 67 101 106 74 108 114 82 100 106 73 90 94 64
90 97 64 88 94 62 69 79 50 67 75 47 80 85 59 89 95 66 87 90 64
95 98 75 101 106 82 69 72 57 18 18 16 24 24 19 34 34 25 47 47 37
69 71 56 86 91 67 101 105 82 106 111 85 109 114 88 110 115 88
113 119 90 115 122 93 97 103 76 72 78 52 71 77 51 80 86 60 102 108 82
119 124 99 120 125 100 121 126 100 120 127 97 119 125 95 113 119 89
106 112 85 94 100 74 87 93 67 88 94 68 86 92 66 81 87 61 80 86 60
79 85 59 86 92 66 88 95 66 85 92 59 83 90 57 77 84 51 71 78 45
67 74 41 67 74 41 68 74 45 63 68 40 69 74 46 78 84 55 87 93 66
92 96 72 85 91 64 78 84 55 67 74 42 60 67 38 47 53 26 43 49 21
44 51 24 44 51 26 43 52 26 49 56 32 55 60 38 58 63 41 59 64 41
59 63 41 62 67 44 62 67 44 64 70 43 63 69 43 63 69 43 62 68 42
62 68 42 62 69 42 57 64 37 56 63 37 49 56 30 45 52 25 52 61 34
55 66 39 61 72 44 62 73 45 48 60 32 51 54 33 44 46 28 31 33 14
27 28 11 47 48 28 53 56 33 51 54 31 56 61 38 62 67 44 66 69 44
64 66 39 61 65 38 61 65 39 62 66 41 66 71 45 64 69 44 51 57 31
42 48 22 44 50 24 50 56 30 52 58 32 53 59 33 53 59 33 52 58 32
53 58 33 58 63 37 61 67 41 68 74 47 68 73 48 65 69 45 62 67 43
55 61 38 57 65 39 62 70 45 69 76 49 76 83 55 78 86 56 75 84 52
78 86 55 79 85 55 73 78 49 65 71 47 50 59 34 42 50 26 42 50 27
51 59 36 60 68 45 67 73 49 65 70 46 52 58 33 53 59 33 50 56 30
47 53 27 46 52 24 47 54 25 50 57 28 54 60 32 57 63 37 62 68 42
107 113 80 113 119 83 113 118 83 112 118 83 109 115 80 106 111 82
96 100 70 88 92 60 78 83 51 86 91 59 96 101 69 105 111 81 114 121 91
120 126 98 121 128 97 117 124 91 114 121 87 110 117 84 109 116 83
104 111 78 91 98 65 78 85 51 74 81 48 75 82 49 79 86 53 83 90 57
88 96 62 93 101 68 95 102 69 82 89 56 68 73 41 70 75 43 71 76 44
68 73 41 67 72 39 60 65 33 63 68 36 70 75 42 82 87 55 92 98 68
92 99 70 97 104 71 67 73 43 49 53 28 42 46 23 38 43 18 40 45 20
50 54 31 50 56 33 53 61 38 52 60 37 53 61 38 53 61 38 52 60 37
53 61 38 59 67 44 58 66 43 56 64 41 57 65 42 54 62 39 54 62 39
58 66 43 58 68 44 57 66 42 59 63 39 63 67 42 62 66 41 62 67 42
62 68 42 68 74 45 46 51 30 43 47 31 46 49 34 44 46 31 35 36 19
36 37 19 38 40 21 44 47 26 54 58 36 66 76 51 70 78 54 58 66 42
54 61 37 57 59 33 61 65 32 66 72 40 71 38 27 68 1 6 69 0 3 70 0 3
70 0 1 75 1 1 93 21 5 118 46 12 127 58 17 142 74 25 137 71 29
114 46 18 100 33 15 98 30 13 98 29 9 95 24 7 93 21 9 93 22 7 96 24 9
105 30 11 101 28 11 88 17 8 79 9 5 81 13 6 97 30 9 119 50 12
140 72 24 132 64 17 118 51 10 106 37 9 89 17 8 88 13 5 87 9 3 79 5 3
75 2 3 73 0 2 73 0 5 71 1 3 73 1 1 76 2 3 88 11 8 96 23 11 107 37 10
88 26 16 78 64 43 93 101 73 101 110 79 102 107 77 93 97 68 85 87 62
87 91 69 60 63 48 61 65 49 27 29 17 51 54 33 51 53 29 109 112 87
112 115 90 109 113 86 102 108 81 82 92 66 93 103 76 77 82 57 58 62 37
83 87 60 87 93 61 99 106 73 103 110 77 93 100 67 108 113 81
115 120 88 105 110 77 80 81 54 58 64 37 74 79 47 79 84 58 51 56 30
78 84 56 93 97 70 83 84 59 84 86 64 82 86 61 66 71 51 12 12 10
28 30 19 70 71 55 43 44 32 25 26 16 33 35 21 56 60 38 92 96 74
114 118 94 116 119 92 115 120 89 120 127 97 116 122 96 106 112 86
86 92 66 71 77 51 79 84 59 97 103 77 107 113 87 107 113 87 104 110 84
103 109 84 100 106 80 97 103 77 94 100 74 94 100 74 95 101 75
92 98 72 90 96 70 89 95 69 93 99 73 87 93 67 93 99 71 91 98 65
88 95 62 86 93 60 85 92 59 80 87 54 69 76 43 69 76 43 71 78 45
75 82 49 82 90 56 91 98 65 91 97 67 89 96 63 97 104 70 105 112 79
104 111 80 95 101 72 85 92 64 63 68 43 47 51 28 33 41 18 29 36 16
28 33 17 32 36 18 33 37 18 41 44 23 43 46 25 40 43 23 38 45 16
51 57 30 54 60 34 50 56 30 49 55 29 51 57 31 68 72 47 87 91 66
92 96 71 93 98 73 85 91 65 79 87 60 78 86 60 79 88 60 82 93 63
84 86 65 79 81 60 74 76 54 66 64 45 53 52 33 49 51 30 39 41 23
35 38 25 42 45 30 57 62 41 66 70 45 61 65 40 58 62 37 54 59 34
61 64 40 78 82 57 82 88 62 80 86 60 84 90 64 76 82 56 73 79 53
74 80 54 66 72 46 62 68 42 62 68 42 60 66 40 58 64 38 56 62 36
55 61 36 56 62 37 58 64 38 55 60 36 45 54 32 37 46 24 45 52 29
55 61 35 57 65 37 61 70 41 62 71 43 67 77 45 66 76 43 65 71 45
58 64 38 45 51 25 29 37 13 29 37 15 36 44 21 50 57 31 66 72 46
74 80 54 74 80 54 74 80 55 77 83 57 78 84 54 72 79 46 70 77 43
70 77 46 67 73 48 66 72 46 117 120 91 121 125 95 122 127 96
102 107 76 88 93 62 85 90 59 87 92 61 95 100 68 108 114 86 110 115 89
109 113 87 109 113 87 105 110 84 103 107 82 98 103 77 95 100 74
94 98 72 96 101 74 97 102 75 98 102 76 92 96 70 92 97 71 92 97 70
83 88 61 80 85 59 81 86 60 81 86 59 79 84 57 86 90 63 76 80 53
73 78 51 79 83 57 87 91 65 90 94 68 91 95 68 86 90 64 86 90 64
86 91 64 92 96 70 101 106 80 102 106 80 86 90 62 49 52 26 41 43 17
32 33 11 28 30 9 24 25 9 28 29 9 36 38 17 40 49 24 40 50 26 43 51 28
46 54 31 47 56 33 49 58 35 47 57 32 49 59 34 57 68 43 64 75 50
70 81 56 69 80 55 76 86 61 68 79 54 73 82 58 80 84 60 87 91 66
87 91 66 87 92 66 83 90 64 77 83 56 61 66 47 43 47 33 26 30 14
25 29 14 32 36 20 40 42 29 41 43 30 51 56 35 66 70 47 74 79 56
66 70 48 61 65 43 56 60 37 64 64 38 84 84 55 92 96 68 87 80 56
65 10 8 70 2 4 73 1 2 77 3 1 95 23 11 112 40 13 125 53 12 105 32 11
95 20 10 102 27 9 102 29 8 94 25 10 76 7 7 75 1 1 77 2 2 76 1 4
78 2 3 79 3 4 87 16 9 109 38 16 106 29 10 108 38 8 136 67 16
164 100 34 173 111 33 163 100 26 129 63 10 127 60 8 108 41 9 86 14 9
78 2 4 75 0 1 76 1 2 81 6 8 105 31 10 106 35 7 111 43 10 111 38 12
96 21 7 99 23 7 126 54 21 153 84 23 153 79 28 131 69 18 105 88 43
103 103 70 109 112 84 98 103 77 84 88 64 94 96 74 86 90 61 74 79 54
31 33 17 62 63 45 69 71 50 108 111 86 109 114 85 109 113 88 90 94 69
71 75 50 118 122 95 86 89 63 60 64 39 85 89 62 82 87 56 94 101 68
91 98 65 90 97 64 113 118 86 116 120 90 110 113 85 88 85 59 40 43 22
84 91 61 84 92 60 42 49 22 83 89 62 97 102 72 75 77 52 70 71 47
90 96 69 62 66 47 12 12 11 23 23 21 80 79 76 59 60 43 23 25 9
21 22 13 23 23 15 26 27 19 47 50 40 85 88 72 90 95 74 100 106 75
104 111 82 99 105 76 82 89 59 60 66 37 58 64 36 62 69 42 69 75 49
78 84 58 84 90 64 87 93 67 88 94 68 87 93 67 90 96 70 92 98 72
91 97 71 87 92 67 83 89 64 88 93 68 95 101 75 92 98 72 87 93 66
84 91 57 81 88 55 78 85 52 78 85 52 92 99 66 94 101 68 93 100 67
85 92 59 81 88 55 81 88 55 83 90 57 86 93 60 88 95 62 96 103 70
106 113 80 110 117 84 115 121 89 114 120 92 107 111 87 96 100 77
78 83 60 69 74 49 55 61 32 45 51 24 39 44 18 35 38 17 36 39 18
49 52 29 61 65 40 65 71 45 72 78 52 68 75 49 63 68 43 62 66 41
60 62 37 61 63 39 85 87 63 116 115 90 114 115 90 98 102 77 86 90 65
79 83 58 87 92 66 102 103 79 113 112 88 118 118 94 112 115 91
103 105 84 100 104 80 96 101 74 88 94 62 76 83 51 67 73 43 59 62 37
56 60 34 52 56 31 55 59 32 61 69 42 76 84 57 94 102 75 97 102 76
107 111 86 103 109 83 101 107 81 107 113 87 104 110 84 97 103 77
81 87 61 70 76 50 59 65 39 54 59 34 51 59 32 53 63 35 53 63 36
52 58 33 50 60 36 52 61 38 53 61 38 50 58 35 51 59 33 53 62 34
56 65 37 57 66 38 57 66 38 61 67 41 62 68 42 65 71 45 58 69 44
55 63 39 44 55 30 39 46 20 42 46 21 53 57 32 69 73 48 78 82 57
81 87 62 89 96 66 94 101 69 90 96 64 80 85 57 72 78 52 66 72 46
86 87 60 81 82 55 70 75 43 60 65 33 67 72 41 80 85 53 89 95 63
92 98 65 94 100 72 93 99 72 92 97 70 89 94 67 89 94 67 89 94 67
88 93 66 88 93 66 84 88 61 90 95 68 88 93 66 83 88 61 84 89 62
88 93 66 96 101 76 95 100 72 94 99 72 92 96 70 83 87 62 70 75 50
69 73 48 75 80 54 81 86 61 88 92 67 95 100 74 104 109 83 113 117 92
115 119 94 112 117 92 112 117 92 107 111 86 96 101 76 87 92 66
63 67 41 44 48 21 42 44 19 39 41 18 43 45 23 46 47 30 49 51 30
54 56 35 51 59 34 52 60 36 58 66 42 63 71 47 57 64 41 47 54 30
50 55 32 87 93 69 106 112 88 112 118 94 104 109 85 93 98 74 84 90 66
83 88 64 92 97 73 97 101 76 97 102 74 103 107 80 106 111 83
103 109 81 98 104 73 89 94 68 81 85 61 65 71 46 53 58 36 51 56 37
51 55 35 55 58 37 57 62 39 63 68 45 82 86 62 95 101 73 101 107 78
100 106 77 101 106 78 104 109 79 114 117 89 109 115 86 87 61 47
66 5 4 76 1 3 76 2 2 82 9 5 91 17 5 115 43 13 130 63 12 135 66 13
115 43 12 96 18 10 82 7 4 74 3 4 78 3 3 80 6 4 77 3 4 71 2 2 69 2 1
75 3 4 73 1 5 81 4 6 96 24 9 113 45 14 132 65 20 143 77 19 148 83 26
129 63 22 110 39 16 80 9 7 75 3 4 76 2 3 74 1 2 75 0 4 77 3 6 98 23 8
111 40 6 111 43 8 135 67 21 145 74 26 145 75 21 132 62 17 114 41 12
116 44 12 126 51 13 107 35 12 81 37 22 101 91 67 108 115 86 87 92 67
78 81 59 96 99 73 78 83 58 37 38 25 60 61 43 90 92 70 109 112 86
108 113 83 113 117 90 97 102 75 93 97 70 111 115 86 80 84 57 54 58 35
102 106 78 87 92 61 96 102 69 96 102 70 94 100 68 117 120 88
115 118 89 105 108 81 91 95 63 77 84 54 91 98 66 88 94 66 78 83 56
90 97 64 99 103 73 70 73 49 58 60 36 90 95 71 54 57 44 20 21 10
38 38 29 63 63 59 53 53 44 21 21 16 21 21 20 23 22 18 23 24 18
24 25 22 25 30 19 30 35 21 51 55 36 76 81 60 84 90 66 76 82 57
73 78 53 80 85 61 80 86 60 70 76 49 72 78 51 76 82 56 77 83 57
79 85 59 79 85 59 77 83 57 77 83 58 79 85 58 78 85 56 78 84 56
82 88 60 83 89 61 78 85 56 65 72 42 67 74 41 72 79 46 77 84 51
76 82 50 78 85 53 76 82 51 78 86 55 88 95 63 90 97 64 84 90 57
72 79 46 68 75 42 69 76 43 75 82 49 77 84 51 88 95 62 91 98 65
91 98 68 96 101 75 99 102 78 108 113 89 107 115 89 86 95 65 65 73 46
55 61 34 66 70 45 80 84 59 96 99 74 105 110 85 104 111 85 108 114 88
99 105 79 79 84 58 72 76 51 72 75 50 50 53 29 47 49 25 69 70 44
87 89 64 92 96 71 93 98 72 94 98 73 94 99 74 101 106 81 106 110 85
105 108 85 101 106 82 98 103 77 103 108 84 107 113 83 102 109 75
101 108 74 102 109 77 93 98 71 76 81 54 61 65 37 51 55 24 47 50 19
53 57 27 68 75 48 84 88 62 90 93 68 89 94 69 92 97 72 99 105 79
101 107 81 102 108 82 101 107 81 99 105 79 89 95 69 80 86 59 66 73 46
60 69 41 57 66 40 56 62 38 51 58 35 52 60 36 53 59 36 53 60 38
47 55 29 32 41 15 33 42 18 44 52 26 54 63 36 57 64 38 64 70 44
71 78 51 73 80 55 76 80 56 74 81 56 75 80 55 67 71 46 60 64 39
56 60 34 59 64 38 68 74 48 74 79 53 77 84 57 82 91 63 85 92 66
83 88 62 80 86 59 68 73 40 69 74 41 78 85 52 78 85 52 78 85 52
75 82 49 73 80 46 72 80 46 76 83 50 80 87 54 83 90 57 83 90 57
79 86 53 76 83 50 71 78 45 76 83 50 77 84 51 71 78 45 69 76 42
67 74 41 65 72 38 77 84 51 92 99 69 92 98 69 85 92 62 81 87 58
75 80 53 76 82 56 76 82 56 72 78 52 81 87 61 88 94 68 98 104 78
99 105 79 99 105 79 104 110 84 106 112 86 98 104 78 81 87 61 72 78 52
70 76 50 80 86 60 84 89 64 86 89 65 102 106 81 109 113 88 111 115 91
102 106 82 78 83 58 66 72 46 67 73 47 59 65 39 54 60 34 53 59 33
71 76 51 91 95 70 110 114 89 109 113 88 103 107 82 94 98 73 94 98 73
95 99 72 104 108 80 111 116 87 107 112 81 97 102 70 103 108 76
103 108 76 106 111 78 101 106 74 88 92 62 71 74 46 52 56 27 51 50 23
51 50 24 66 68 44 78 82 58 80 87 56 80 86 57 87 93 63 96 103 69
106 113 79 106 113 79 98 105 72 103 110 77 102 107 75 102 106 73
91 94 63 72 25 19 86 9 7 87 12 5 128 64 26 164 101 35 170 108 32
159 95 21 148 84 14 129 60 18 104 28 16 80 3 4 73 0 1 81 8 7 98 25 14
110 33 15 105 29 10 99 19 6 102 18 6 102 20 12 111 33 17 129 54 20
130 58 19 124 58 15 120 50 18 100 28 13 80 7 7 75 4 3 74 4 3 77 4 6
80 3 7 82 6 10 80 5 9 80 7 8 100 27 14 110 35 15 105 31 9 104 31 10
98 25 11 86 11 6 84 8 4 97 22 7 90 13 6 82 4 4 84 5 4 84 3 2 83 17 13
96 68 48 93 90 60 81 85 61 90 97 69 80 86 60 30 32 23 55 58 36
95 100 69 108 112 81 105 108 78 110 114 85 106 110 82 94 99 69
85 90 61 86 91 64 59 63 41 113 118 88 101 106 73 95 100 68 105 110 78
105 109 78 114 114 83 115 117 88 99 103 76 82 87 55 92 98 65
95 102 69 82 87 61 83 86 61 86 90 61 93 97 70 78 81 60 74 77 54
76 79 57 30 32 18 21 21 13 53 55 38 43 46 33 44 46 36 34 36 27
31 33 23 38 39 33 11 12 9 23 23 20 67 69 55 65 68 50 34 37 27
24 27 19 33 36 23 50 54 38 75 80 61 92 97 77 93 97 71 82 87 57
72 79 48 67 73 47 71 77 52 84 90 64 85 91 65 90 96 70 97 103 77
97 103 73 81 88 55 72 79 46 76 83 51 77 84 54 75 82 52 73 80 49
58 65 31 56 63 30 67 74 42 74 80 51 77 83 54 70 76 48 64 70 45
68 74 44 73 80 47 74 81 51 79 86 55 85 92 59 83 90 57 76 83 50
64 71 38 64 71 38 67 75 41 63 70 36 63 70 40 65 71 44 70 79 52
68 77 50 63 72 45 61 70 43 55 63 37 52 55 33 56 60 37 57 61 37
62 69 42 68 74 48 78 84 58 87 93 67 89 95 69 83 89 63 78 83 58
78 82 57 80 84 59 80 86 60 79 85 59 79 85 59 78 84 58 76 82 56
76 82 56 77 83 55 76 83 54 75 80 55 69 74 47 72 79 49 87 93 66
100 107 75 105 112 79 100 107 74 109 116 83 108 115 82 103 110 77
95 102 69 80 85 53 60 66 33 48 50 19 41 41 15 45 46 20 53 56 29
64 68 43 78 82 57 83 90 63 88 94 67 92 98 70 90 96 67 83 90 62
80 86 59 80 87 59 81 87 63 77 83 58 68 73 51 64 69 47 62 67 45
61 65 42 59 63 39 52 56 33 54 62 35 51 61 34 42 50 24 39 48 21
41 50 23 51 57 31 54 60 34 55 61 35 58 62 36 71 70 47 82 81 57
84 82 57 84 83 57 85 85 59 83 83 57 76 80 52 71 77 51 65 70 45
57 65 39 52 62 34 58 66 40 67 73 47 72 78 49 79 86 53 88 94 61
97 104 71 95 102 69 85 92 59 79 86 54 75 82 50 75 82 49 79 86 53
80 87 54 68 75 42 62 69 36 61 68 35 67 74 41 75 82 49 82 89 56
75 82 49 70 77 44 67 74 42 67 74 41 74 81 48 89 96 63 87 94 61
75 81 52 63 69 43 60 66 37 61 68 37 76 82 55 72 78 52 70 76 50
72 78 52 82 88 62 82 88 62 86 92 66 78 84 58 77 83 57 64 70 44
57 63 37 52 58 32 55 61 35 66 72 46 82 88 62 85 91 65 90 95 69
99 105 79 97 103 77 92 98 71 89 94 68 77 83 56 74 80 54 70 76 50
67 73 47 68 74 48 72 78 52 75 80 55 82 86 61 86 90 65 90 94 69
90 94 69 90 94 69 96 100 75 102 107 77 108 113 80 104 109 77
106 111 79 112 117 85 105 110 78 98 103 71 85 90 58 72 77 45 58 63 31
42 47 15 39 41 10 46 46 16 56 56 27 71 76 50 82 90 65 97 106 75
83 93 59 79 88 54 89 97 67 89 97 65 84 93 58 80 89 58 83 91 64
82 89 63 80 87 59 77 85 57 72 54 38 102 29 12 134 63 23 175 118 38
197 138 48 172 111 30 136 71 15 125 56 10 114 40 10 94 17 10 80 5 7
78 6 6 83 10 7 89 15 11 97 22 9 92 14 8 86 7 6 81 4 3 77 3 4 76 2 6
77 2 4 87 13 9 91 18 10 100 25 9 111 35 11 127 54 16 127 57 17
112 41 8 96 23 7 86 9 9 84 7 10 79 4 8 83 8 10 95 19 9 105 31 8
119 44 19 123 50 24 111 41 14 96 23 7 101 17 7 101 22 10 93 18 7
87 13 7 86 10 5 90 12 8 96 15 10 86 12 7 85 23 16 90 71 54 94 106 79
80 90 63 31 34 22 40 44 27 92 99 71 106 110 83 110 113 86 111 116 90
109 113 89 94 98 74 68 72 48 73 76 54 75 78 56 119 122 95 109 113 84
97 101 73 98 102 75 105 109 82 98 102 71 102 106 76 91 96 65 74 79 47
89 95 63 94 100 68 78 82 56 91 95 70 87 90 66 86 90 67 82 86 63
83 88 61 71 75 50 21 23 9 17 17 13 54 56 36 39 43 21 38 38 22
53 51 35 44 45 30 39 40 28 3 2 5 8 8 6 65 67 50 87 91 63 67 72 53
59 63 52 43 45 38 27 29 26 32 35 26 51 55 42 80 83 66 89 92 70
87 91 67 79 85 57 77 84 55 80 86 58 77 84 57 78 84 58 84 90 64
98 104 77 91 98 66 75 82 48 72 78 47 72 78 51 68 74 49 60 66 40
45 51 23 45 51 23 51 58 30 55 66 38 66 76 49 68 75 48 63 71 43
63 70 42 65 71 43 62 70 44 65 72 45 70 76 48 71 78 50 72 78 50
63 69 41 53 59 31 47 53 25 39 45 16 37 45 17 39 49 21 43 51 24
47 52 26 51 56 30 61 65 39 56 60 35 51 54 32 51 56 31 52 57 34
51 58 29 48 54 26 51 57 31 61 67 41 73 79 53 80 86 60 80 86 60
82 87 62 80 86 60 86 92 66 92 99 72 92 98 72 89 95 69 83 89 63
79 85 60 75 81 51 68 75 42 69 76 44 71 77 45 66 73 40 62 69 35
63 70 37 71 78 45 77 84 51 84 91 58 79 86 53 90 97 64 93 100 67
95 102 69 87 94 61 79 85 53 74 79 48 58 62 34 51 55 30 58 64 38
65 70 45 74 80 54 84 90 64 85 92 63 86 93 59 81 88 59 74 80 54
70 76 51 73 78 55 75 80 59 62 67 45 50 55 33 57 62 41 63 67 45
66 70 46 66 70 47 62 68 44 62 68 44 61 66 42 56 62 38 50 55 31
48 52 28 46 50 26 51 55 32 48 52 28 54 50 26 69 62 39 73 72 48
75 76 51 74 78 53 77 79 54 73 76 51 71 77 52 68 74 45 66 73 42
58 65 38 47 57 30 46 54 27 47 53 27 90 98 65 89 97 64 90 97 64
76 82 50 69 75 44 64 70 43 58 63 37 54 60 33 57 64 33 58 65 33
57 64 31 59 66 33 62 69 36 65 72 39 67 74 41 69 76 43 64 71 38
62 68 39 64 70 43 68 74 47 72 78 51 75 81 54 69 75 48 56 62 34
46 53 22 42 48 20 40 46 19 43 48 23 49 55 29 57 62 36 57 63 37
60 66 40 57 63 37 54 60 34 50 56 30 46 52 26 49 55 29 54 60 34
54 60 34 61 67 41 91 97 71 81 87 61 75 81 55 73 79 53 75 82 56
81 88 61 86 92 66 90 96 70 98 104 78 98 104 78 86 92 66 67 73 47
71 77 51 70 76 50 69 75 49 65 69 44 58 63 37 55 60 35 64 68 43
71 75 49 84 87 62 88 93 63 96 101 69 93 98 66 93 99 66 95 100 68
93 98 66 84 90 58 62 68 35 49 54 22 43 48 16 60 66 33 66 71 38
70 77 43 70 82 47 78 88 58 83 92 64 82 91 58 74 84 49 70 79 45
72 81 52 70 79 52 65 73 47 51 58 38 48 55 39 63 70 53 63 74 51
66 75 50 72 70 47 92 32 23 98 25 16 96 28 12 116 49 15 120 55 9
122 52 7 125 55 11 129 58 12 136 65 18 120 52 12 121 52 13 86 15 8
72 0 2 69 0 2 70 0 4 71 0 4 67 0 4 67 0 3 71 0 4 76 0 3 81 4 5 87 8 9
91 15 9 99 25 11 99 27 12 95 23 10 80 8 4 74 2 1 72 0 1 72 0 1 74 1 1
76 2 2 86 11 6 104 29 7 129 56 19 118 46 18 101 28 7 89 15 5 82 7 3
75 1 6 82 5 7 83 5 5 79 2 2 79 4 3 83 5 5 87 8 6 97 13 9 90 19 15
85 48 37 83 82 57 35 40 27 59 64 57 108 114 92 100 105 76 109 111 84
118 121 98 112 114 94 110 111 89 60 59 38 71 72 50 104 106 85
121 124 99 116 119 92 106 108 80 93 97 71 103 107 80 91 96 68
85 90 60 80 85 53 73 78 46 87 92 60 76 81 50 81 84 58 100 104 79
92 96 71 86 90 65 79 83 58 73 77 52 75 78 55 33 35 21 26 24 15
51 50 33 65 68 56 50 52 40 55 54 40 46 46 36 32 33 19 7 7 5 1 1 2
44 46 30 95 99 72 76 81 59 70 73 57 76 79 67 59 62 55 34 37 30
45 48 36 31 33 20 35 37 26 54 57 42 67 72 50 78 84 58 83 88 63
76 82 56 71 77 50 74 81 54 81 87 60 83 90 60 76 83 50 61 69 36
52 59 29 55 61 35 52 58 32 45 51 25 46 52 26 50 55 29 60 64 39
72 78 52 76 79 54 69 73 46 71 76 49 68 75 49 57 63 38 54 59 34
50 56 30 49 55 29 48 54 29 51 57 31 51 58 32 49 55 29 43 50 24
39 47 21 40 49 23 44 49 26 38 43 21 31 34 13 34 37 17 41 44 22
45 49 26 52 58 36 60 65 43 65 70 46 56 62 35 55 61 36 56 62 36
56 62 36 58 64 38 62 68 42 66 72 46 73 80 54 85 91 65 87 93 67
93 99 73 93 99 73 91 97 71 91 97 71 86 92 63 83 90 58 80 87 55
70 77 45 70 77 45 71 78 46 74 81 49 83 90 58 93 100 68 95 101 70
93 100 68 95 102 70 99 106 74 107 114 81 105 112 79 102 110 77
107 112 79 102 106 77 90 94 70 77 83 57 72 78 52 73 79 53 79 85 59
82 88 60 88 95 62 85 92 62 83 89 62 84 90 63 80 86 61 84 89 66
88 93 70 83 88 63 78 84 57 72 77 52 60 64 40 66 70 47 64 68 45
58 62 39 66 69 46 76 80 57 86 89 67 88 92 69 86 90 67 78 82 58
67 74 48 62 67 41 57 60 34 54 59 33 56 60 35 52 56 31 56 60 35
68 72 47 71 77 51 68 75 45 65 72 40 66 71 45 64 72 45 71 75 50
74 79 54 64 70 40 63 68 38 63 68 36 56 60 28 55 58 31 53 57 34
61 65 43 65 69 46 72 78 53 78 84 56 77 84 51 79 86 53 67 74 41
55 62 29 51 58 25 47 54 21 44 51 20 50 55 30 51 55 32 46 51 28
46 51 27 45 51 26 48 54 29 44 49 24 33 39 13 28 33 9 33 37 14
41 45 20 40 44 19 46 50 25 59 65 39 64 70 44 63 69 43 51 57 31
50 56 30 52 58 32 54 60 34 57 63 37 54 60 34 78 84 58 97 103 77
90 96 70 91 97 71 94 100 74 86 92 66 81 87 61 81 87 61 80 86 60
81 87 61 90 96 70 79 85 59 73 79 53 74 80 54 77 83 57 87 93 67
89 95 69 93 99 73 84 91 65 80 84 59 81 84 59 88 91 64 99 103 72
104 109 77 103 108 76 101 107 75 98 105 72 83 90 57 74 81 48 64 71 38
65 72 39 71 77 45 90 97 64 89 96 63 88 94 61 91 98 65 86 93 60
73 80 47 81 88 55 88 95 62 84 91 59 74 80 54 60 67 43 62 71 48
60 69 41 63 73 44 63 73 45 64 73 46 78 87 60 91 102 75 95 72 58
65 0 3 67 0 1 73 6 5 107 41 9 136 70 17 160 94 23 167 104 30
172 110 31 158 93 24 147 80 20 124 55 18 115 46 13 111 42 14
106 39 10 93 25 8 89 25 11 104 36 14 129 60 22 141 71 21 148 79 19
135 66 14 91 18 9 71 0 2 71 0 1 68 0 1 68 0 1 69 0 1 69 0 1 70 0 1
71 1 2 82 11 5 108 38 11 116 47 9 100 32 6 84 10 7 87 13 6 83 7 3
76 0 1 77 0 2 80 3 3 84 5 4 83 4 1 83 5 3 86 9 7 95 21 8 92 16 8
74 0 2 71 0 0 69 9 9 45 23 16 76 77 59 116 118 92 96 102 74
115 113 84 118 119 87 114 119 89 113 118 86 68 72 43 63 66 39
114 117 89 115 118 91 118 120 92 110 113 81 92 97 65 101 106 74
86 91 59 78 83 51 68 73 41 58 63 31 78 83 51 80 84 53 88 92 64
97 100 73 85 90 62 60 62 39 73 75 53 68 72 48 65 67 44 24 26 12
21 20 14 47 48 26 88 90 69 68 70 53 53 56 39 56 58 43 27 29 15
17 19 10 12 13 9 32 35 20 89 92 71 50 54 29 52 56 31 78 81 60
82 85 67 63 65 46 100 103 82 100 103 86 48 49 41 26 27 23 24 26 13
34 36 21 63 68 50 76 81 56 69 77 45 67 73 40 70 75 47 75 81 54
83 91 57 81 90 56 64 72 38 54 60 33 51 57 31 43 47 22 41 45 20
48 50 25 57 57 31 65 65 39 62 65 38 55 59 34 48 52 27 39 48 21
51 58 31 57 63 37 58 64 39 65 71 46 67 73 47 68 74 48 68 77 50
64 73 46 59 68 41 53 62 35 51 60 33 49 53 30 51 55 32 50 54 31
42 45 24 35 39 20 40 44 28 42 47 27 42 48 25 42 47 25 41 46 24
49 54 32 60 66 40 68 74 46 65 71 42 52 58 32 45 51 25 51 57 30
49 55 29 62 68 42 72 78 52 83 89 63 82 88 62 81 87 61 78 84 58
75 81 55 82 88 62 91 97 71 97 102 77 94 100 74 89 95 69 82 88 62
83 89 63 81 87 61 83 89 63 86 92 66 89 95 68 102 109 76 106 113 80
112 119 86 117 122 90 115 120 88 111 116 88 97 102 77 87 93 67
79 85 59 76 82 56 70 76 49 70 77 44 75 82 49 80 87 54 81 88 55
75 82 51 80 87 58 76 82 54 77 83 56 74 81 52 67 73 46 61 67 39
62 68 39 64 69 41 45 50 22 42 45 17 47 49 26 54 56 36 63 67 42
72 76 51 80 87 61 84 89 64 81 89 61 79 88 58 80 84 59 73 77 52
65 71 45 62 68 42 60 66 40 62 68 42 66 72 46 65 71 45 72 78 52
93 98 72 110 114 85 119 124 95 44 47 21 47 49 23 56 54 28 57 58 31
58 62 35 56 60 36 58 62 39 51 55 32 57 61 38 63 68 43 65 71 43
62 69 37 63 70 37 62 69 36 62 69 36 59 66 34 54 61 30 50 56 30
38 42 20 37 43 16 44 50 24 46 50 28 48 53 30 45 49 26 38 44 20
33 38 14 43 47 24 47 51 26 39 43 18 54 58 33 69 74 48 68 73 47
63 69 43 53 59 33 59 65 39 61 67 41 54 60 34 54 60 34 57 63 37
87 93 67 91 97 71 87 93 67 95 101 75 96 102 76 90 96 70 87 93 67
86 92 66 81 87 61 74 80 54 65 71 45 70 76 50 75 81 55 83 89 63
88 94 68 94 100 74 102 108 82 108 114 88 115 121 95 110 115 90
110 113 88 113 114 87 108 113 82 100 105 73 90 95 63 85 91 59
79 86 53 73 80 47 71 78 45 80 87 53 82 89 56 81 88 55 78 85 52
76 83 50 81 88 55 83 90 57 83 90 57 72 79 46 72 79 46 79 86 52
64 71 39 54 60 34 47 54 29 49 56 31 48 56 25 56 64 32 62 70 39
73 81 50 82 90 59 86 95 64 98 102 76 80 37 30 89 16 11 119 48 22
123 54 14 132 63 10 135 63 14 132 59 18 127 55 18 127 57 16 134 66 15
148 79 20 156 87 23 166 102 28 178 121 39 187 133 48 196 144 47
205 156 55 197 150 51 175 122 32 152 95 25 134 76 16 117 51 10
108 39 9 108 39 10 104 36 11 105 40 11 101 34 9 95 25 7 83 10 6
84 8 4 94 22 9 98 28 12 91 18 5 90 19 7 109 38 10 114 45 11 102 31 8
93 19 9 91 14 5 94 14 8 90 13 8 97 22 9 107 32 9 102 31 11 107 36 9
99 28 10 94 21 7 91 22 7 89 25 6 99 34 12 93 64 38 115 104 80
104 108 82 110 111 82 116 115 85 111 115 85 110 113 82 78 81 50
71 74 42 93 96 65 109 112 84 116 118 90 82 85 56 79 83 52 98 103 71
81 86 54 72 77 45 85 90 58 65 70 38 81 86 54 90 95 63 74 79 48
82 86 56 76 82 50 48 50 22 61 64 40 79 84 56 52 54 36 19 19 11
14 16 10 47 45 24 83 88 65 73 81 58 70 74 56 63 66 50 30 33 20
30 32 23 24 26 18 39 42 26 70 76 55 40 42 21 21 23 6 35 38 18
70 73 49 92 95 72 94 98 72 80 84 62 51 54 37 62 63 53 72 74 56
42 45 31 25 30 20 34 33 24 50 47 34 70 71 51 79 84 62 83 88 63
80 85 55 79 82 52 70 74 45 62 67 41 59 63 37 54 57 31 52 56 29
51 55 28 50 58 31 62 66 40 65 68 42 61 66 40 42 46 21 40 44 19
49 54 28 58 64 39 61 66 43 64 70 45 65 70 44 67 72 46 71 74 49
70 75 48 69 77 51 69 78 51 68 77 50 67 75 49 63 67 43 57 61 37
46 49 27 38 42 23 38 42 26 28 31 19 26 30 12 30 35 13 32 37 15
31 36 14 32 37 14 40 45 22 47 53 30 50 55 31 46 51 26 50 55 31
60 66 40 66 72 46 67 73 47 60 66 40 51 58 32 53 59 33 67 73 47
72 78 52 73 79 53 81 88 60 87 93 65 86 92 66 89 95 69 91 97 71
89 94 69 83 88 62 74 81 53 73 78 52 71 76 49 73 80 47 81 88 55
84 91 58 97 103 71 100 106 73 96 102 71 98 104 74 99 105 75 96 103 73
104 110 80 98 105 74 82 89 56 67 74 41 63 70 37 66 73 40 72 79 46
75 82 49 76 83 51 74 80 49 75 80 48 75 80 51 70 75 47 72 79 46
69 75 42 76 80 49 67 70 43 44 47 21 44 46 22 59 63 38 66 72 45
75 81 52 85 91 63 78 86 57 73 83 52 78 85 57 80 88 60 77 83 57
71 77 52 60 66 39 56 61 35 68 74 48 70 76 49 65 71 45 66 71 44
74 79 50 81 86 56 52 55 30 53 56 28 56 56 32 55 56 31 54 57 30
51 55 31 52 56 33 55 59 36 56 60 37 61 65 41 71 77 51 74 81 50
71 78 45 71 78 45 71 77 48 69 75 48 66 72 42 55 60 36 46 51 30
45 50 31 40 44 25 37 40 21 32 34 15 33 36 15 36 41 19 38 42 20
38 42 19 41 45 20 50 54 29 63 67 42 50 57 31 44 51 25 51 58 32
61 68 42 70 76 50 56 62 36 53 59 33 48 54 28 63 69 43 74 80 54
71 77 51 71 77 51 72 78 52 83 89 63 99 105 79 102 108 82 101 107 81
95 101 75 86 92 66 78 84 58 75 81 55 75 81 55 75 81 55 82 88 62
85 91 65 98 104 78 101 107 81 106 111 85 108 113 88 107 110 85
112 115 89 104 109 78 92 97 66 84 89 57 76 82 49 61 68 35 65 72 39
71 78 45 77 84 52 78 85 53 77 84 51 78 85 52 78 85 52 76 83 50
71 78 45 75 82 49 75 82 49 70 77 44 53 60 26 42 48 16 45 51 24
58 64 38 65 71 45 66 73 41 74 81 49 73 80 47 77 83 54 78 84 56
82 89 56 86 95 66 90 81 59 107 35 19 114 42 14 116 46 12 122 52 3
111 37 8 89 12 5 81 4 2 83 6 4 103 29 11 115 42 10 120 49 13
129 64 12 139 77 16 146 83 26 143 82 22 122 60 15 106 42 8 100 27 5
95 21 7 117 47 11 124 57 12 130 64 13 152 88 24 169 111 35 170 114 35
170 111 31 160 97 31 131 62 15 112 37 7 90 16 6 77 3 6 76 0 1 74 0 3
73 0 3 74 0 3 74 1 3 73 2 4 76 4 6 110 39 20 146 78 21 135 68 23
112 44 16 96 25 12 85 15 8 88 18 9 89 23 8 91 24 7 88 20 5 85 14 7
100 30 11 107 50 19 107 80 53 112 106 78 113 111 86 109 110 83
97 101 69 74 78 46 81 85 54 71 73 48 88 90 67 98 101 75 73 76 49
67 71 41 97 102 70 72 77 45 70 75 43 85 90 58 74 79 47 82 87 55
99 104 72 57 61 33 64 68 42 70 74 47 47 50 27 56 64 34 73 78 52
38 39 27 8 9 4 19 21 13 46 42 22 48 54 31 81 91 65 101 110 87
74 78 62 46 50 36 41 43 33 35 37 31 24 26 14 37 44 25 31 30 18 5 6 2
8 9 3 43 45 23 67 71 44 63 68 36 48 53 25 26 29 8 42 43 28 89 92 76
82 85 66 37 38 21 39 40 28 42 42 37 26 27 21 31 33 19 53 55 39
65 66 48 70 70 47 69 70 46 64 69 44 65 68 43 62 65 38 60 63 36
51 56 29 39 51 23 43 51 24 34 42 16 37 43 17 46 51 26 50 54 29
54 60 34 58 67 40 63 68 43 66 73 47 71 77 51 74 79 53 76 74 49
71 70 45 67 74 48 67 76 49 66 75 48 65 75 48 66 71 46 64 68 43
59 63 38 54 59 35 52 57 37 46 51 32 45 51 30 44 49 27 40 45 24
38 43 21 26 32 10 19 24 3 18 22 1 27 31 9 39 43 20 50 54 31 56 62 37
61 67 41 69 75 49 70 75 50 63 68 43 61 67 41 59 65 39 61 67 41
57 63 37 60 66 40 65 71 46 65 71 44 63 69 43 69 75 49 78 83 58
85 89 63 77 84 56 73 78 52 73 78 52 73 80 47 70 77 44 68 75 42
66 73 40 70 77 44 76 83 50 80 87 54 85 92 58 95 102 69 112 119 86
118 125 92 113 120 87 100 107 74 72 79 46 51 58 25 53 60 27 62 69 36
67 74 41 79 85 53 83 88 56 91 95 67 93 98 69 78 84 57 69 74 44
84 88 57 90 93 67 78 81 54 64 66 40 56 59 34 51 57 31 52 57 32
56 62 36 60 66 40 65 75 46 69 78 48 60 71 40 48 53 26 39 45 20
41 48 21 46 52 26 45 51 26 47 53 29 56 61 38 61 65 42 69 72 49
72 75 53 45 49 24 47 51 24 59 63 38 68 73 48 70 74 49 68 74 48
68 74 48 68 74 48 68 70 44 65 67 41 65 69 44 65 70 40 65 72 39
65 71 41 60 65 41 53 57 35 46 51 29 42 47 26 36 41 23 34 37 20
31 33 16 26 27 10 24 25 7 24 26 7 22 25 5 22 26 5 38 44 21 47 55 29
54 63 36 53 62 35 47 57 32 53 63 38 60 70 45 66 73 47 66 72 46
60 67 40 59 65 39 57 63 37 74 80 54 74 80 54 68 74 48 66 72 46
65 71 45 83 89 63 86 92 66 82 88 62 79 85 59 71 77 51 68 74 48
71 77 51 75 81 55 73 79 53 70 76 50 84 90 64 90 96 70 95 101 75
96 102 76 101 107 81 106 112 86 108 113 88 105 111 85 90 94 69
66 71 44 63 68 36 63 70 37 68 75 42 74 81 49 80 87 56 74 80 51
69 75 47 77 84 52 71 78 45 59 66 33 73 80 47 77 83 53 76 83 52
70 76 45 51 55 30 42 48 18 50 55 25 71 75 50 78 83 58 79 85 59
83 89 62 78 84 57 66 72 46 60 65 41 58 62 38 51 59 33 52 56 32
42 45 25 78 20 14 107 31 7 121 57 5 138 75 4 145 81 20 125 56 18
100 26 6 108 34 12 105 31 13 87 10 9 77 3 2 79 6 5 74 1 1 71 0 0
69 0 2 68 0 2 71 0 3 74 0 3 83 7 5 97 20 8 109 39 9 116 47 10
111 42 11 124 57 12 140 76 22 147 84 32 133 67 15 129 61 9 120 49 10
110 38 11 102 30 10 98 27 8 89 19 5 83 15 6 83 12 5 85 13 7 85 15 5
97 27 13 126 57 19 123 54 20 88 18 7 70 0 3 69 0 2 69 0 1 70 0 1
65 0 1 66 0 2 70 0 6 74 2 4 97 22 7 112 42 3 110 40 1 120 70 26
113 100 66 111 109 82 95 102 70 87 96 61 83 89 57 70 73 51 81 84 60
80 83 53 79 84 53 88 93 61 100 105 72 75 80 50 74 78 51 73 77 49
66 71 39 82 87 55 99 103 76 46 48 28 62 64 45 87 91 68 47 51 29
57 62 35 43 46 29 37 39 27 12 13 10 17 17 12 43 43 24 45 49 26
85 88 65 99 106 83 75 86 62 67 71 56 48 52 40 47 53 41 48 52 40
34 37 29 11 11 7 1 1 1 6 6 4 31 35 14 49 54 27 46 51 20 61 67 32
56 59 43 39 35 24 76 75 67 106 106 97 63 63 50 52 54 32 94 96 72
72 75 57 45 47 37 26 27 23 27 30 23 41 43 33 62 65 46 70 71 49
71 70 49 68 71 46 65 68 39 60 66 37 51 62 32 43 54 24 27 37 8 27 33 7
37 43 17 43 49 23 49 53 28 54 59 34 54 60 34 56 62 36 64 70 44
70 76 50 73 78 52 72 77 52 70 79 52 71 80 53 73 79 53 72 79 53
74 80 53 73 79 51 72 78 50 72 78 51 69 75 48 67 75 46 67 75 47
66 72 44 66 72 45 66 73 46 63 70 44 57 63 38 38 43 19 32 37 14
32 35 13 39 43 20 46 51 26 53 59 32 70 75 48 74 80 54 74 79 54
73 79 53 64 70 44 59 65 38 43 49 22 39 44 23 52 57 32 52 58 32
59 64 39 67 74 47 66 72 46 68 74 48 71 78 51 74 80 54 82 88 61
86 94 60 85 92 59 78 85 52 67 74 41 62 69 36 68 75 42 67 74 41
67 74 41 75 82 48 85 92 59 98 105 72 105 112 79 111 118 85 96 103 70
71 78 45 58 65 32 47 54 21 37 43 10 43 47 17 52 55 28 65 69 39
75 79 53 75 79 56 76 81 54 82 86 59 84 88 63 83 87 59 85 89 63
74 80 54 61 70 41 53 58 35 46 51 30 49 55 29 54 66 36 62 71 40
61 70 39 60 69 38 59 68 40 56 65 39 56 65 38 58 67 39 57 66 37
53 65 35 54 57 33 56 53 33 52 52 31 66 71 43 68 73 48 73 78 52
74 79 53 74 79 53 72 78 52 73 79 53 72 78 52 68 78 49 67 77 48
69 73 48 66 72 42 66 73 39 63 69 38 57 65 38 58 67 41 61 66 44
55 60 36 52 57 32 50 54 31 35 38 16 22 24 3 20 22 3 27 29 9 34 38 16
44 49 27 64 69 47 77 78 53 79 83 57 73 79 53 67 72 48 60 64 42
54 58 35 50 55 29 60 65 40 63 68 43 57 63 37 65 71 45 74 80 54
70 76 50 68 74 48 69 75 49 79 85 59 89 95 69 85 91 65 84 90 64
69 75 49 62 68 42 56 62 36 65 71 45 72 78 52 72 78 52 76 82 56
86 92 66 95 101 75 108 113 88 110 115 89 111 117 91 93 99 73 86 92 65
56 62 35 47 51 26 34 38 12 61 65 36 71 77 46 84 91 58 89 96 63
95 102 71 86 93 63 83 89 58 82 88 60 80 87 56 82 89 55 73 80 49
60 67 41 51 57 32 44 50 25 40 45 29 48 54 32 55 61 35 67 72 45
65 72 45 57 64 38 55 63 36 50 57 31 47 54 28 49 53 30 48 52 29
47 53 28 51 48 26 50 48 29 70 48 34 146 91 35 172 120 39 196 149 48
211 164 66 204 157 66 170 118 33 145 86 15 121 49 13 89 13 6 79 5 2
76 2 3 74 0 1 75 1 1 75 2 1 74 3 2 76 3 4 86 11 4 105 30 5 120 47 7
120 51 9 111 36 11 108 32 8 111 38 10 113 46 5 119 49 8 126 57 12
129 62 10 136 67 14 136 70 9 129 63 11 123 57 13 129 62 10 133 67 13
138 74 16 160 96 31 159 97 25 159 96 22 148 85 16 104 33 13 76 2 5
69 1 3 68 0 1 69 0 1 70 0 1 70 0 3 69 0 2 76 1 6 85 8 4 92 15 6
116 46 8 136 71 12 161 100 26 149 100 30 129 112 57 99 109 70
93 105 70 89 97 64 80 83 61 75 75 52 82 86 55 67 72 40 85 90 58
92 97 66 79 83 58 60 64 39 72 77 48 69 74 44 83 88 56 87 92 62
71 74 50 64 66 45 61 62 42 35 37 21 39 42 21 18 20 9 24 26 15
18 18 14 23 20 13 53 55 34 69 74 49 69 74 49 77 81 58 79 82 60
84 90 70 48 55 36 47 53 35 71 76 59 48 51 40 9 9 6 1 0 2 21 22 14
53 55 37 53 56 34 57 60 36 66 71 42 54 57 40 43 40 26 70 69 56
95 95 83 84 83 76 46 47 31 68 71 45 101 104 81 84 86 68 41 42 25
41 40 23 36 38 24 27 30 17 32 34 23 45 50 34 54 64 42 58 67 43
54 64 39 48 59 28 43 54 23 44 54 24 48 55 27 52 60 33 54 61 34
55 58 32 52 57 31 48 53 28 50 56 29 48 55 28 50 61 32 56 61 35
60 64 39 65 74 47 69 77 51 71 76 50 67 72 47 60 67 38 63 71 39
69 78 45 74 81 51 79 85 57 79 83 58 78 82 57 75 80 53 72 78 50
73 79 51 77 80 55 77 82 56 74 80 54 70 74 52 64 69 46 53 57 35
47 52 27 48 54 28 54 63 34 55 67 39 59 65 39 63 68 42 64 70 44
58 64 38 44 49 25 39 44 21 42 47 22 37 43 19 34 40 16 41 47 21
42 48 22 46 52 26 48 54 28 51 57 31 56 62 35 64 71 41 68 75 45
70 77 47 76 83 50 75 82 49 74 81 48 74 81 48 74 80 48 71 78 47
75 82 50 77 84 51 78 87 53 85 92 59 97 105 72 90 97 64 78 85 52
73 80 47 65 71 38 56 60 30 45 48 21 37 40 11 39 43 16 48 51 28
60 59 37 68 64 40 71 73 48 78 80 55 71 73 50 61 67 40 61 71 46
70 74 53 67 73 47 66 72 44 62 72 44 61 71 43 60 70 42 60 70 43
62 70 43 63 70 43 63 70 44 64 73 45 65 74 46 61 72 43 64 69 43
67 66 43 64 62 41 73 79 53 74 80 54 72 78 52 72 78 52 73 79 53
73 79 53 73 79 53 73 79 53 76 79 53 76 78 52 73 77 53 72 78 47
72 79 46 71 78 45 72 79 50 76 82 56 76 82 53 69 74 48 58 63 40
52 56 33 43 46 23 41 43 21 40 42 21 46 48 27 51 55 32 55 60 37
59 64 41 62 69 41 57 62 36 50 54 30 37 40 20 31 34 15 25 29 7
35 39 15 50 55 27 53 57 32 56 62 36 61 68 41 62 68 42 63 69 43
66 72 45 69 75 49 77 84 57 82 88 62 84 90 64 81 88 61 69 75 49
66 72 46 63 69 43 68 74 48 73 79 53 75 81 55 84 90 64 92 98 72
91 97 71 85 89 63 76 80 55 65 71 45 51 57 31 45 51 24 33 39 12
39 44 18 42 46 21 58 62 37 65 70 41 74 81 47 77 84 51 78 85 51
75 81 53 73 79 50 73 79 52 72 78 49 70 77 43 64 70 39 60 67 41
61 66 41 60 68 41 58 68 44 60 70 44 59 73 42 59 74 42 61 73 44
62 71 44 60 69 42 58 68 41 58 67 40 59 64 40 56 59 36 53 50 29
55 47 28 58 50 36 63 61 43 140 113 45 186 139 43 177 128 40
169 118 34 168 115 34 167 114 34 158 98 24 138 70 18 112 37 14
92 16 6 90 14 7 99 24 8 101 26 12 100 31 7 107 38 7 122 53 14
144 74 17 142 77 8 126 65 4 108 40 6 94 17 6 88 11 5 91 16 5 110 38 6
119 49 12 128 59 14 132 65 12 143 78 19 150 85 27 137 72 20 139 73 22
141 77 22 163 100 29 157 94 30 148 85 19 131 70 15 137 73 11
135 71 10 118 51 9 87 16 6 70 2 5 67 1 2 68 0 2 69 0 2 78 8 4 87 16 8
88 12 9 97 16 12 116 38 11 139 70 16 153 85 17 150 87 15 155 93 18
146 91 27 114 79 31 102 100 67 93 100 70 88 91 69 98 94 72 92 96 65
72 77 45 74 79 47 81 85 54 71 75 50 55 58 39 79 83 62 78 82 56
85 90 58 88 93 61 89 93 64 73 76 52 35 31 15 35 34 23 25 26 16
19 20 16 23 24 19 23 25 17 27 28 18 63 67 43 83 89 60 84 88 62
55 58 35 47 48 27 72 78 55 43 53 30 31 37 16 56 61 40 36 39 27
18 17 12 4 3 2 35 36 30 89 90 71 79 81 60 85 86 70 59 62 42 29 33 11
48 45 28 78 78 57 70 72 51 68 70 50 64 66 47 82 84 63 95 98 78
69 69 51 36 34 14 57 49 23 80 85 58 78 84 57 54 59 41 28 31 26
24 29 22 31 36 26 41 48 32 41 52 22 34 45 15 44 54 25 49 58 30
57 66 39 59 67 41 59 65 37 58 62 36 57 61 37 58 63 39 58 63 40
58 62 39 59 63 38 60 65 39 61 69 42 59 68 42 61 68 41 60 67 42
44 51 29 30 39 16 37 45 22 51 59 35 64 70 44 75 80 55 81 85 59
86 90 61 79 85 55 76 82 53 78 82 57 76 82 54 73 80 50 67 72 47
56 62 35 46 52 28 36 42 17 46 52 27 58 63 38 65 73 46 74 78 53
71 77 51 69 75 49 67 73 47 66 72 46 68 74 48 62 68 42 61 67 41
58 64 38 55 61 35 56 62 36 56 62 36 55 61 35 52 58 32 51 57 31
55 61 35 61 67 41 66 72 46 69 76 43 70 77 46 73 79 51 89 95 66
97 103 75 94 100 72 93 100 68 90 96 63 93 96 64 97 104 71 99 106 73
99 106 73 96 103 70 88 96 63 83 89 56 80 84 54 76 79 52 70 73 45
62 64 37 52 53 30 46 48 27 46 50 24 56 58 31 60 62 37 51 61 34
46 56 29 48 57 32 55 59 38 62 68 41 67 73 46 66 75 48 67 74 48
64 71 45 62 70 44 64 69 42 65 68 41 64 68 43 63 68 42 65 71 45
70 75 50 69 76 49 75 73 48 73 71 47 56 61 36 57 62 39 60 66 40
72 78 52 73 79 53 76 82 56 80 86 60 83 89 63 79 83 57 75 79 54
75 80 54 72 78 51 73 79 52 73 79 52 70 75 49 63 68 43 60 66 40
58 63 38 58 64 39 58 64 39 61 66 41 64 68 43 66 69 46 63 67 44
66 71 46 65 71 46 54 60 35 51 60 32 47 54 28 41 47 21 37 43 17
41 46 21 44 48 24 45 48 23 45 48 20 42 45 20 52 55 32 69 74 50
64 70 42 62 68 36 67 74 42 70 77 45 74 83 51 73 84 51 75 86 53
75 84 54 78 84 58 76 82 56 76 82 56 83 89 63 89 95 69 99 105 79
94 100 74 86 91 66 81 85 60 75 78 52 59 62 36 55 58 34 39 44 21
38 41 19 38 41 21 56 58 36 62 64 41 60 64 39 60 64 38 66 71 44
65 72 39 68 75 42 68 75 42 66 73 40 68 75 42 67 74 41 65 73 39
65 70 40 68 65 39 69 68 38 66 71 40 67 72 44 65 70 43 65 70 42
65 73 44 65 73 45 65 72 45 61 71 42 59 68 40 59 68 41 58 66 40
55 64 37 52 57 32 54 57 34 56 59 38 56 61 40 63 59 31 93 34 11
115 40 10 117 43 12 103 31 8 97 26 6 99 28 9 90 20 9 82 9 4 79 2 3
80 6 3 84 10 6 85 8 7 96 26 10 120 53 11 146 82 28 162 99 27
142 79 13 131 71 6 110 46 10 78 7 8 77 4 5 76 3 6 90 15 9 100 23 14
103 29 6 112 40 5 117 40 10 104 28 11 84 16 5 84 11 5 79 8 5 94 24 10
90 18 10 91 19 10 88 16 8 85 13 5 91 16 7 90 14 4 89 14 6 93 20 7
109 40 9 123 53 13 117 48 15 112 36 8 112 36 10 99 20 10 96 16 13
94 18 10 92 20 6 100 33 9 100 31 6 104 35 8 109 39 10 102 31 3
105 45 16 95 70 42 92 93 63 99 100 72 94 95 67 86 91 59 73 78 46
67 72 40 75 80 51 74 77 55 81 83 71 86 90 64 75 80 49 95 100 72
89 93 70 72 75 59 31 32 25 21 22 15 19 20 14 19 20 15 23 24 19
20 21 16 25 26 19 69 74 50 72 78 51 86 90 65 69 72 47 52 53 34
52 57 39 51 56 39 33 31 19 24 27 13 28 30 21 28 27 19 16 15 9
44 44 36 105 106 85 90 91 73 86 86 75 58 60 44 27 30 9 50 45 25
80 80 56 40 43 23 34 35 20 67 68 51 110 112 87 78 81 57 44 43 28
30 31 14 48 43 21 67 68 42 97 104 69 89 99 70 64 65 66 40 38 31
29 31 21 25 28 16 25 32 22 29 36 21 42 50 31 54 62 41 64 73 49
65 74 48 58 71 40 61 67 39 64 68 41 62 67 45 58 62 40 58 60 38
57 61 38 56 61 37 55 64 37 54 63 36 55 64 37 53 61 37 51 60 37
40 48 25 27 35 12 36 43 20 47 51 28 56 62 37 64 70 44 69 75 48
73 79 52 74 80 52 75 82 50 73 80 47 70 77 44 61 67 38 48 55 27
37 42 20 25 30 7 28 33 10 37 43 20 49 57 31 65 73 46 70 79 52
72 78 52 70 74 49 71 75 50 72 77 51 71 78 51 70 76 50 67 73 47
68 74 48 71 77 51 75 81 55 74 80 54 68 74 48 67 73 47 62 68 42
55 61 35 49 55 29 49 55 29 58 64 38 56 61 38 70 75 51 79 84 61
82 89 58 82 89 57 85 93 59 97 96 66 109 113 81 111 116 84 111 118 85
114 121 88 107 114 83 102 108 76 98 103 74 92 97 66 84 89 57 78 81 54
70 73 49 68 71 50 66 72 45 62 68 42 61 62 37 55 58 31 51 57 31
49 56 30 50 55 30 51 57 31 55 61 35 59 63 38 65 70 46 67 75 50
65 75 50 69 73 48 67 72 46 66 70 45 65 69 44 64 68 43 66 70 46
68 71 47 67 71 46 67 72 45 44 49 27 56 61 39 70 76 50 75 81 55
79 85 59 81 87 61 84 90 64 78 84 58 73 78 53 71 76 51 64 70 44
54 59 34 47 53 27 42 47 22 46 52 26 48 54 28 59 65 39 65 71 45
68 74 48 68 74 48 68 74 48 72 77 52 73 78 52 68 73 47 66 72 46
68 74 48 69 75 49 64 69 43 60 65 40 57 63 37 57 63 37 59 65 39
56 60 34 52 55 29 56 59 31 58 60 35 67 70 47 72 77 52 74 80 51
81 88 55 95 102 69 92 100 66 92 99 66 95 101 68 96 103 70 101 107 76
103 109 81 100 105 79 98 104 78 93 99 73 88 94 68 85 91 65 83 89 63
80 84 59 73 77 52 70 73 46 60 61 36 58 54 31 43 46 26 46 49 29
50 53 32 54 58 36 54 58 36 51 55 30 50 54 30 58 62 37 60 67 36
71 78 47 70 77 47 64 72 41 64 72 41 64 71 40 64 71 40 64 68 39
68 65 39 67 72 41 71 76 46 70 75 46 69 74 44 68 73 44 73 69 44
70 69 45 68 69 45 64 71 43 60 69 41 56 65 38 54 63 35 48 57 30
45 54 27 43 49 22 43 48 21 42 46 25 53 59 38 70 43 28 89 12 9 86 9 9
79 4 8 73 1 4 71 0 5 70 1 4 70 0 2 78 3 4 88 13 5 91 16 4 113 40 13
130 64 15 176 118 40 188 134 46 196 143 51 161 105 32 149 89 27
146 84 28 141 78 32 126 61 20 122 55 15 122 51 11 125 56 12 124 52 14
114 40 6 100 20 6 83 3 5 69 0 3 73 0 2 73 0 2 70 0 3 73 0 3 75 1 3
74 1 3 78 3 8 96 20 11 95 20 9 97 22 8 112 37 10 116 44 11 124 51 14
121 48 14 100 22 6 97 18 6 83 10 7 74 1 3 71 1 2 69 0 2 68 0 2 69 0 3
72 0 3 73 1 2 75 2 3 77 1 6 71 2 5 71 25 21 88 74 54 96 102 71
92 99 66 69 73 43 61 66 35 70 74 45 76 80 53 86 90 68 80 84 56
79 84 51 90 95 67 67 71 50 34 36 23 32 33 28 18 18 16 20 21 17
19 20 14 18 19 14 14 15 11 24 25 23 73 78 55 68 74 45 86 90 63
69 72 48 35 36 23 34 39 29 72 76 63 51 50 37 28 31 15 34 36 24
31 32 22 21 22 12 46 47 35 89 90 70 87 89 70 87 88 75 93 96 77
70 72 50 60 56 40 72 69 56 54 53 44 23 22 13 46 46 37 117 118 101
79 82 60 24 23 10 27 28 14 45 41 22 57 56 33 95 98 68 83 87 58
59 58 38 50 45 25 37 38 25 49 51 40 40 45 34 28 32 24 25 29 22
32 37 27 50 55 40 65 70 50 67 76 49 65 70 46 61 65 43 57 61 41
52 57 34 49 57 32 53 59 36 56 62 38 55 63 38 54 63 37 53 61 36
54 62 39 58 66 43 56 64 41 53 61 38 53 60 37 48 54 31 50 56 31
52 57 32 49 55 30 60 65 41 61 67 41 56 63 31 55 62 29 59 66 33
57 64 34 50 57 27 42 48 22 35 41 14 29 35 8 28 34 7 34 43 16 50 61 33
68 78 51 81 86 60 81 85 59 80 83 57 81 86 60 88 94 68 91 96 70
84 90 64 76 82 56 69 75 49 68 74 48 68 73 47 68 74 48 71 77 51
71 77 51 71 77 51 65 71 45 59 64 39 54 60 35 48 53 30 44 50 25
43 48 24 51 57 26 57 63 31 60 67 34 68 73 41 73 77 45 81 86 54
90 96 63 99 103 75 106 109 83 101 105 80 92 96 71 77 81 56 70 75 48
73 78 52 71 76 52 70 74 53 70 75 49 67 76 49 68 80 51 69 76 48
63 69 43 59 64 39 58 64 38 55 62 36 54 60 33 50 56 29 46 59 33
46 56 32 43 53 29 57 61 39 63 66 44 63 66 44 66 69 48 66 69 47
63 67 44 63 67 43 63 67 42 64 68 41 59 64 42 70 75 54 71 77 50
71 77 50 73 79 53 69 75 49 59 65 39 52 58 32 44 50 24 39 45 19
27 33 7 33 38 12 40 44 19 52 55 31 63 68 43 69 75 49 73 79 53
74 80 54 73 79 53 72 78 52 73 79 53 73 79 53 72 78 52 67 73 47
72 78 52 78 84 58 79 85 59 76 82 56 73 79 53 71 77 51 60 66 40
53 58 32 42 46 21 43 46 19 41 44 18 55 57 34 74 77 55 71 76 51
69 74 47 79 85 57 85 92 62 100 106 77 107 113 82 116 121 89
116 121 89 112 117 85 112 117 84 108 112 86 101 105 80 88 94 68
82 88 62 77 83 57 73 79 53 70 75 50 73 77 52 71 74 47 64 62 38
61 59 34 51 55 33 48 57 34 49 56 33 46 55 32 47 55 32 50 54 31
51 55 32 67 72 48 72 78 52 74 80 55 72 78 52 64 72 46 65 71 46
65 71 45 61 67 41 61 66 40 65 68 41 65 72 45 66 70 46 65 69 44
64 70 44 65 72 45 74 72 47 76 69 46 77 64 45 63 71 45 61 70 43
56 65 38 56 65 38 47 55 29 46 55 28 40 49 21 43 52 24 46 50 28
50 57 37 49 55 34 57 11 6 66 2 3 68 2 2 70 2 2 71 3 2 71 2 2 72 0 1
79 3 4 104 29 8 120 48 6 134 65 7 155 93 20 167 108 30 148 90 23
122 63 16 108 45 9 103 37 11 100 35 11 102 34 10 98 27 9 95 23 7
97 25 10 100 25 10 103 27 10 109 35 7 105 30 8 85 9 8 76 3 3 70 0 3
70 0 3 70 0 3 73 1 2 87 13 4 102 30 7 122 48 15 128 55 19 116 44 10
116 46 8 113 43 6 83 10 6 81 5 4 85 7 3 83 7 1 77 3 0 74 0 1 67 0 2
66 2 2 68 1 3 69 1 2 69 1 1 68 1 0 71 1 1 74 6 5 83 14 10 87 17 9
86 20 10 79 22 13 81 59 39 88 94 63 71 75 48 83 87 60 84 87 60
87 91 66 95 99 77 71 75 49 87 92 61 68 72 45 49 52 33 42 45 30
37 39 26 35 37 29 41 43 31 23 25 14 18 19 13 12 13 6 25 26 21
70 74 52 70 77 46 89 94 65 67 71 47 20 22 10 20 24 14 89 91 79
69 70 55 34 37 17 45 48 32 30 32 19 21 24 10 42 44 31 51 53 36
69 71 49 91 92 75 103 108 78 102 106 77 84 86 71 69 69 61 68 66 60
29 28 22 28 30 23 95 98 82 93 97 75 63 66 52 46 49 35 44 41 22
54 50 34 77 78 65 81 79 58 49 46 18 49 42 22 42 42 32 56 61 45
68 71 46 68 71 49 57 59 43 33 35 33 23 25 22 29 31 24 44 47 35
65 68 54 64 66 50 54 58 39 51 56 33 51 56 34 54 62 39 54 62 40
54 62 39 52 60 37 49 57 34 49 57 34 50 58 35 51 59 36 52 60 37
51 59 36 53 61 38 60 65 42 62 66 43 63 67 44 65 68 46 65 70 46
63 69 40 62 69 39 66 73 44 70 76 46 71 78 48 69 75 47 63 69 43
57 63 37 40 46 20 40 48 21 39 49 22 44 54 27 67 71 44 82 85 58
84 87 60 84 87 61 88 92 67 98 104 78 99 105 79 88 94 68 80 85 60
74 78 53 70 73 49 60 65 40 55 61 35 56 62 36 59 65 39 64 70 44
61 67 41 59 64 39 58 63 39 54 59 36 51 57 34 55 61 35 55 61 31
51 57 29 53 57 30 50 52 21 53 56 25 66 71 38 50 54 26 43 47 21
46 52 29 49 56 29 57 60 38 64 69 46 64 71 44 66 72 47 68 73 51
67 72 46 65 70 44 66 77 48 70 77 49 69 72 47 63 68 44 59 65 42
59 68 41 58 67 39 51 61 31 50 57 36 48 56 34 42 51 25 43 49 24
47 50 28 47 51 28 51 54 32 55 59 36 63 67 43 64 70 45 61 69 42
60 70 43 58 63 40 59 64 42 61 67 40 56 63 35 53 59 34 43 49 23
36 42 16 32 38 12 32 40 13 41 48 21 48 54 27 70 73 46 79 82 56
83 87 60 85 89 63 85 89 64 87 93 67 88 94 68 81 87 61 77 83 57
68 75 48 64 70 44 66 72 46 69 75 49 74 80 54 74 80 54 72 78 52
70 76 50 66 72 46 58 64 38 50 56 30 49 55 29 50 55 30 47 51 26
45 48 23 60 63 39 66 71 48 68 73 50 67 72 49 72 77 54 75 81 58
93 99 76 94 98 74 98 99 73 88 93 61 80 85 53 77 82 50 74 78 52
73 77 52 70 76 51 68 74 48 68 74 48 68 74 48 68 74 48 69 75 49
66 70 45 61 65 39 57 62 36 55 58 37 55 57 37 52 55 33 43 49 28
42 51 27 48 52 29 50 54 31 62 66 43 62 68 42 64 70 44 64 70 44
64 67 42 65 69 44 65 71 45 64 70 44 65 71 44 65 71 44 65 71 45
65 70 45 66 70 45 64 70 44 61 71 44 64 72 45 64 70 44 64 69 43
61 71 44 60 70 43 62 71 44 62 70 44 53 63 35 48 57 29 54 61 33
55 63 35 53 57 34 49 55 33 50 60 37 59 37 23 62 1 1 63 3 2 66 1 1
67 1 1 71 0 3 76 1 6 82 7 8 104 33 7 127 59 9 127 59 12 112 44 11
100 28 8 90 17 6 79 5 4 75 6 6 68 2 6 65 1 2 65 1 2 69 0 3 67 0 2
69 1 1 73 0 2 73 2 3 77 6 7 102 26 15 125 54 17 126 52 14 112 38 16
95 24 8 98 31 6 117 50 13 140 77 17 164 105 23 179 120 39 173 111 39
145 79 20 131 64 9 117 50 6 102 27 6 99 20 9 85 9 5 79 6 2 76 3 1
74 2 2 76 2 3 76 2 3 79 7 4 82 8 3 84 10 3 87 13 8 84 9 4 84 10 5
93 22 7 104 35 11 131 64 17 132 65 16 109 38 14 96 44 21 90 66 31
92 96 67 89 91 70 101 100 76 84 86 60 69 73 50 85 88 64 48 50 27
29 29 15 26 26 15 43 44 30 53 55 39 75 78 56 50 53 36 29 30 19
16 17 7 31 32 22 82 86 61 76 81 55 81 85 63 68 69 52 33 35 21
27 26 12 91 92 71 97 99 76 56 59 41 43 45 36 27 28 21 17 18 8
38 40 25 45 47 29 60 61 40 93 95 71 100 104 76 135 133 111 110 109 92
68 71 54 77 79 64 53 54 53 31 33 26 58 61 44 71 75 51 72 74 55
66 66 50 47 45 25 48 46 27 63 66 54 73 77 56 62 66 39 61 64 40
50 50 36 45 46 32 45 48 23 57 59 40 82 85 67 77 79 69 29 30 22
25 24 18 28 28 20 28 28 23 34 35 30 41 44 33 46 50 36 51 55 37
54 59 38 54 61 37 55 63 39 54 62 39 54 62 39 51 59 36 52 60 37
51 59 36 52 60 37 45 53 30 33 41 18 40 47 24 48 55 32 51 58 35
58 65 43 62 70 47 67 75 46 74 82 52 77 82 57 74 79 56 74 80 54
74 80 53 75 80 55 74 78 53 63 67 40 50 53 26 46 50 24 48 55 28
55 59 34 68 71 46 78 82 56 82 87 61 83 88 63 88 94 68 94 100 74
91 97 71 85 89 64 81 85 59 80 83 56 78 83 53 75 80 50 66 72 46
60 66 40 57 63 37 55 61 35 55 61 34 52 58 32 53 59 33 57 63 35
56 62 37 68 72 47 79 84 58 85 89 64 92 96 68 101 106 76 100 104 78
91 96 66 70 75 46 54 57 36 42 44 24 41 45 23 35 39 22 38 43 22
55 61 34 61 66 43 60 67 40 63 67 42 61 71 43 62 69 42 64 71 43
61 68 40 58 66 37 56 65 38 56 65 38 59 68 41 59 68 39 58 67 38
58 67 39 54 62 37 50 54 33 45 50 27 41 46 24 40 45 23 44 49 26
50 55 33 52 57 38 60 64 44 72 76 54 69 74 52 51 57 31 46 52 26
48 54 28 45 51 25 47 53 27 53 59 33 69 74 49 78 81 56 83 88 61
92 95 68 96 99 72 94 96 69 92 95 69 89 93 68 83 89 63 80 86 60
73 79 53 59 64 39 51 57 31 53 59 33 54 60 34 58 64 38 59 65 39
59 65 39 59 65 39 59 65 39 59 65 39 57 63 37 56 62 36 55 61 35
57 63 37 65 70 44 58 62 36 48 53 27 44 49 27 44 49 27 41 46 24
41 46 22 46 51 26 51 56 33 59 66 42 62 69 43 64 69 40 67 71 40
66 70 38 67 72 45 68 73 47 67 73 47 66 72 46 64 70 44 62 68 42
61 68 41 64 70 44 59 64 38 52 57 31 52 57 31 51 54 32 46 50 26
40 45 17 43 49 26 43 53 29 57 61 38 60 64 41 63 67 44 63 70 44
61 68 42 60 66 40 59 66 39 61 67 41 60 66 40 60 66 40 60 66 40
61 67 41 65 71 45 65 71 45 66 70 45 66 70 44 61 71 44 59 72 43
60 71 43 61 70 43 62 69 43 63 70 43 64 72 46 58 67 40 55 64 36
57 62 35 62 61 36 63 62 37 58 62 38 54 60 37 53 62 38 55 61 37
66 17 12 71 1 2 72 2 4 74 5 5 80 6 7 93 19 11 109 38 14 122 51 15
125 54 15 123 53 17 92 17 9 97 20 9 104 24 6 109 26 7 110 34 9
105 35 12 91 20 7 76 5 4 76 5 4 78 6 3 78 4 3 80 5 7 79 6 7 79 6 7
83 10 7 98 20 15 105 23 12 101 23 8 111 39 8 127 60 11 151 87 20
164 103 27 167 107 30 167 107 32 145 83 15 125 58 8 126 57 5 129 59 8
116 41 9 91 17 8 77 6 4 74 1 3 74 1 2 72 2 2 78 3 2 89 15 9 109 38 14
111 40 7 120 48 9 128 56 14 123 51 17 104 30 6 90 18 3 98 28 9
135 70 17 153 87 19 155 92 21 148 85 19 139 74 11 124 84 33 101 90 65
105 104 80 80 82 56 73 77 54 68 72 48 37 38 16 39 35 22 35 31 21
57 55 49 77 80 62 82 87 61 65 68 47 61 64 45 43 45 29 35 37 26
85 89 63 78 83 53 71 75 53 76 78 57 54 55 37 33 30 11 71 71 46
101 104 77 93 96 76 34 36 26 20 21 15 17 18 12 20 22 11 40 42 24
72 74 54 74 77 53 77 80 52 122 119 97 111 110 89 69 74 48 67 71 47
60 62 50 35 36 29 21 22 15 38 40 26 65 66 51 86 87 66 70 69 47
54 52 31 52 51 39 83 85 66 82 86 60 86 90 62 69 73 47 44 44 32
38 37 24 43 42 33 75 76 66 87 90 70 36 37 23 22 21 11 56 57 41
68 69 53 48 50 39 28 30 21 24 26 19 31 33 22 42 45 31 47 51 34
46 53 31 53 61 38 54 62 39 56 64 41 57 65 42 54 62 39 44 52 29
24 32 9 17 25 2 27 35 12 41 49 26 45 55 31 42 51 28 47 55 32 55 65 36
60 69 40 68 76 50 73 78 54 74 79 53 74 80 54 80 85 59 85 88 62
87 87 62 80 82 55 69 74 47 57 63 37 56 62 36 60 65 40 65 70 44
71 76 51 74 80 54 75 81 55 77 83 57 78 84 58 77 84 58 77 83 57
77 82 54 76 81 50 75 80 49 73 79 54 71 77 51 68 74 48 67 73 47
67 73 47 63 69 43 59 65 39 48 54 28 56 61 37 94 97 76 120 123 101
127 131 109 127 130 107 116 120 97 103 108 83 98 102 75 101 106 79
107 111 87 91 94 75 77 80 59 69 74 52 59 64 40 50 56 29 50 56 32
53 59 34 56 62 35 56 62 35 55 65 38 57 69 40 58 70 41 62 72 43
68 77 49 64 74 46 61 70 42 58 68 37 56 66 36 60 67 45 59 66 47
54 65 39 56 61 39 53 57 35 47 52 30 42 47 21 35 40 15 31 34 20
31 33 20 65 70 46 53 57 34 39 45 19 50 56 30 56 63 37 68 74 48
75 81 55 80 86 60 85 89 64 88 92 67 90 94 69 93 96 70 92 95 68
86 89 62 81 85 59 77 82 57 76 81 56 74 80 54 70 76 50 57 61 36
55 60 34 49 55 29 47 53 27 48 54 28 51 57 31 61 67 40 68 74 48
74 80 54 82 88 63 91 97 71 90 96 70 95 101 75 106 112 86 109 115 87
64 71 41 48 55 25 41 45 27 40 45 27 39 43 25 40 45 25 47 52 30
56 60 37 61 65 42 60 64 41 59 63 38 60 63 37 65 68 39 64 68 40
61 67 38 59 65 36 53 59 32 58 64 39 65 71 45 65 71 45 65 71 45
56 63 36 51 57 31 48 53 27 46 48 24 40 43 18 34 37 16 40 46 24
40 49 25 63 66 43 67 72 50 71 76 54 73 80 54 72 78 52 70 76 50
66 71 45 62 68 42 54 58 33 52 58 32 52 58 32 54 60 34 64 69 44
64 70 44 65 68 43 67 70 45 65 74 47 67 72 45 71 71 45 69 70 44
65 69 44 65 70 44 65 71 45 54 62 35 48 58 31 52 60 33 49 58 31
55 63 37 61 66 43 65 64 43 68 64 45 61 71 46 69 54 37 79 5 7 75 3 4
73 2 3 74 2 3 79 6 3 82 8 5 85 9 5 94 18 8 119 46 18 120 48 12
117 42 9 116 39 11 118 39 6 106 31 5 78 8 3 75 2 3 75 2 2 79 5 3
84 8 5 83 6 6 79 5 6 73 1 1 71 0 0 70 0 1 71 0 1 72 0 1 73 0 1 80 8 5
87 14 7 99 29 8 116 47 13 126 60 12 132 67 13 122 56 7 111 41 7
116 44 7 113 40 4 86 11 6 74 2 4 71 0 2 71 0 3 72 0 2 72 0 1 71 0 1
74 3 3 98 28 9 119 48 9 122 50 8 119 47 5 125 54 13 115 43 11
119 47 8 145 76 22 158 98 19 154 89 17 149 89 22 155 102 27
159 101 25 143 80 9 119 58 17 105 87 64 92 93 70 85 89 66 63 67 42
40 41 19 43 39 28 45 41 28 71 68 53 89 89 68 68 70 48 52 55 34
82 86 62 56 58 41 34 36 26 81 85 62 84 89 61 74 80 55 76 83 57
60 60 38 30 27 7 62 61 41 98 101 77 112 114 95 52 54 41 20 21 13
18 19 15 19 20 12 27 29 15 49 51 38 53 57 37 42 41 14 94 93 67
110 109 86 81 84 56 70 74 46 62 64 44 39 40 25 30 29 22 27 28 20
43 41 31 92 90 67 88 92 62 60 56 34 35 29 17 69 65 51 95 98 72
102 105 77 80 83 60 42 44 29 36 37 24 52 53 37 82 85 71 93 96 75
49 50 29 34 33 15 62 64 41 90 93 65 96 98 74 81 83 65 57 60 47
35 38 31 22 24 19 23 25 20 31 34 21 43 50 28 49 57 32 48 57 33
50 59 35 59 68 44 63 71 48 53 61 38 36 44 21 36 44 21 49 57 34
55 63 39 55 63 40 53 61 38 52 62 35 55 64 37 65 75 48 74 79 55
76 76 54 75 79 55 76 79 52 82 82 57 91 83 63 86 84 59 80 83 56
72 78 52 67 73 47 61 67 41 56 62 36 54 60 34 60 66 40 68 74 48
70 76 50 72 78 52 72 80 54 70 79 52 69 78 49 67 76 44 67 76 43
69 75 49 64 70 44 63 70 44 65 71 45 64 70 44 76 82 56 82 88 62
63 67 44 47 50 28 52 59 34 65 72 46 83 87 64 91 95 72 86 90 67
87 89 67 93 93 72 85 88 62 82 85 64 90 93 74 89 94 64 94 98 72
96 100 74 78 84 58 69 75 49 61 66 44 54 61 34 52 56 29 50 54 29
49 57 31 49 60 33 55 63 37 58 63 38 59 69 42 61 70 40 54 63 35
47 56 28 50 58 36 52 59 39 50 58 39 53 58 36 52 57 33 51 57 36
48 53 31 42 50 24 41 47 22 39 44 20 56 61 37 56 60 37 66 72 46
71 77 51 72 78 53 76 82 56 76 82 56 78 84 58 80 86 60 81 86 61
78 84 58 77 81 55 74 77 52 71 75 49 70 75 46 69 75 45 72 79 48
68 74 45 60 64 39 60 63 37 62 68 39 70 75 49 93 98 73 103 109 84
122 126 104 121 126 102 108 114 88 105 111 83 102 109 80 101 107 81
100 106 80 99 105 78 97 104 77 84 89 67 49 54 32 49 54 32 52 57 35
54 59 36 57 62 40 61 65 43 62 67 44 63 67 44 62 66 43 66 70 47
69 73 49 67 71 48 68 72 49 64 68 45 59 62 43 58 62 42 57 62 39
61 66 42 64 70 43 60 66 40 56 61 37 52 56 32 51 54 30 42 43 21
38 38 17 33 33 17 27 29 21 32 38 19 34 42 19 62 66 43 67 73 48
75 80 56 78 84 58 75 80 55 73 78 52 66 72 44 65 69 43 64 67 41
60 66 40 59 65 39 57 63 37 56 62 36 57 63 37 57 64 38 58 64 38
61 68 42 63 66 41 67 69 44 67 69 44 60 65 40 59 66 40 56 64 37
50 59 32 39 48 21 36 47 20 45 56 29 51 61 34 60 67 42 65 72 47
72 79 54 68 77 51 67 76 48 63 29 18 69 0 1 70 1 2 71 1 2 75 1 2
82 5 2 92 13 3 106 29 6 124 52 12 131 68 13 140 73 10 135 66 11
115 38 9 91 12 4 76 2 0 74 1 2 76 2 3 77 3 3 79 5 4 78 4 5 74 0 1
72 0 3 73 0 4 70 0 3 72 0 2 71 0 1 74 1 3 77 3 5 89 16 8 109 39 14
129 62 16 130 64 7 151 87 19 170 111 35 159 96 35 147 78 27 112 43 12
82 11 5 79 4 4 78 2 3 74 2 3 71 0 2 74 1 3 76 1 4 78 4 1 84 10 5
110 37 8 106 32 6 104 29 9 131 62 21 155 91 30 167 105 31 161 95 30
134 65 19 109 36 11 95 25 10 95 30 7 100 32 7 101 33 6 94 22 6 77 8 6
86 37 30 94 81 62 71 77 49 60 62 38 57 55 38 64 63 45 86 86 64
91 90 66 78 80 55 47 52 27 73 77 49 56 59 39 33 35 24 80 83 62
88 92 68 62 70 43 65 72 45 75 79 54 38 39 20 53 55 35 86 90 65
99 103 81 72 74 56 23 25 14 17 18 12 20 22 14 25 28 12 26 28 12
50 52 34 65 66 41 86 88 61 106 107 81 88 93 62 78 83 58 68 69 56
48 51 28 48 48 31 69 71 52 75 76 58 101 104 78 102 107 77 57 58 35
27 25 13 35 34 19 84 87 63 94 97 72 84 87 62 48 50 37 40 37 26
57 54 36 99 97 82 111 114 88 58 60 39 38 39 20 64 65 44 89 91 67
94 96 73 95 98 76 116 120 97 117 121 101 85 89 74 50 54 40 29 32 20
24 27 16 30 35 23 41 44 34 49 53 38 52 58 40 51 59 37 48 56 32
51 59 36 37 47 22 35 41 17 45 47 25 51 55 33 54 59 36 53 54 31
50 50 28 58 60 37 78 80 58 89 83 64 87 83 61 83 80 53 84 82 54
86 81 54 85 78 54 79 79 54 76 82 56 76 82 56 70 76 50 59 65 39
46 52 26 44 50 24 49 55 29 56 62 36 65 71 45 70 76 50 69 76 49
65 74 45 62 74 41 64 73 40 78 83 53 105 108 80 112 114 88 100 105 80
90 95 70 88 94 68 84 90 64 78 84 57 71 77 51 79 83 58 81 85 60
74 78 53 66 71 45 54 57 32 38 40 19 41 40 22 60 61 40 82 86 62
99 105 79 108 112 85 104 106 83 102 105 82 102 107 81 105 111 83
98 102 79 90 95 72 81 85 62 70 76 50 63 67 42 56 61 34 53 57 31
55 58 36 52 60 37 51 59 36 50 58 35 49 57 34 51 58 35 49 57 35
49 57 35 49 58 31 51 56 35 49 55 39 47 55 34 40 51 25 43 51 25
46 50 28 62 67 43 68 72 49 73 79 53 73 79 53 71 78 52 71 77 51
71 77 51 69 75 49 68 74 48 69 75 49 68 74 48 68 72 47 67 71 46
79 83 58 79 85 55 75 82 49 75 82 54 49 52 28 38 36 17 64 62 44
70 73 52 81 85 58 81 87 60 100 107 81 102 111 87 82 88 68 71 75 56
86 91 67 89 95 69 100 106 80 103 109 83 89 95 68 90 97 69 63 68 46
51 55 34 50 55 33 50 55 33 50 55 33 49 54 32 55 59 37 59 63 40
58 62 39 57 61 38 60 64 41 61 65 42 56 60 38 53 58 36 52 55 39
51 53 41 55 60 40 55 59 37 54 59 37 51 56 34 49 54 31 50 54 31
40 43 21 36 38 17 40 38 17 40 36 17 36 33 18 31 34 19 43 49 27
45 53 30 68 71 49 72 78 53 72 78 52 70 77 51 71 74 49 71 71 47
68 67 43 61 63 37 54 60 32 54 60 34 51 57 31 50 56 30 50 56 30
52 58 32 54 60 34 57 63 37 59 65 39 63 68 43 67 72 47 69 74 49
61 71 44 59 69 42 55 64 37 50 59 32 42 51 24 45 53 27 44 53 26
41 49 22 45 55 28 46 56 28 52 61 34 52 61 34 48 57 28 52 42 21 70 5 3
71 3 3 74 4 1 81 8 3 98 23 7 127 56 18 151 81 28 159 92 26 162 99 33
150 85 20 134 64 10 108 31 9 97 18 6 82 6 4 74 1 2 75 1 2 76 2 3
77 3 2 80 7 3 86 14 6 92 20 7 89 14 7 92 14 8 94 16 9 93 20 10
95 24 6 119 51 10 138 71 13 151 86 18 146 81 16 148 83 20 144 79 23
133 64 22 110 41 15 82 12 8 72 4 5 71 3 4 75 1 2 72 1 1 69 1 2 68 0 2
70 0 2 75 0 2 76 1 2 79 5 2 94 20 7 115 43 9 114 41 10 130 59 15
115 42 8 122 46 19 108 32 13 87 9 6 80 2 5 73 0 4 68 0 5 68 0 4
70 0 3 70 1 5 70 0 2 71 0 1 75 10 9 68 45 28 49 60 36 74 78 57
76 77 54 85 89 60 87 88 60 82 85 57 48 54 27 51 57 27 51 55 33
39 40 30 86 89 68 105 109 83 56 56 39 36 37 22 84 88 64 68 69 48
54 56 34 80 84 60 92 96 73 76 80 58 44 46 34 18 20 13 19 20 13
19 21 10 17 18 5 23 25 8 63 66 43 92 95 68 106 109 82 96 101 73
98 105 72 98 102 79 65 67 42 47 49 21 68 71 49 94 97 79 105 110 83
89 94 64 54 58 34 36 38 25 54 55 40 75 77 56 85 85 62 60 56 33
41 42 30 43 41 28 58 56 32 91 90 67 99 101 73 67 68 47 43 45 24
64 66 43 89 90 69 94 96 74 94 98 73 99 103 78 114 118 92 124 130 103
116 122 94 104 108 86 71 74 61 29 31 26 23 23 22 27 28 26 34 37 29
43 49 33 43 51 28 47 55 32 48 59 32 45 51 25 38 40 19 47 47 26
53 53 31 57 52 32 55 48 29 59 57 36 63 67 44 66 72 50 70 77 51
76 83 51 75 81 48 71 76 43 70 71 47 67 71 48 65 71 45 66 72 46
71 77 51 62 68 42 55 61 35 49 55 29 48 54 28 43 49 23 38 44 18
43 49 23 55 62 35 54 63 34 49 60 28 48 56 24 63 69 37 89 94 64
88 92 65 105 109 84 114 119 93 93 99 73 86 93 62 69 76 44 53 57 27
50 51 22 59 60 30 73 73 43 76 79 52 76 80 56 82 86 61 66 72 45
48 59 35 46 54 37 56 59 42 81 81 60 100 102 80 112 114 92 113 117 93
107 113 86 109 114 91 112 115 93 109 113 91 94 102 76 87 91 66
85 89 63 81 85 59 66 72 49 54 60 37 55 58 36 54 61 37 54 62 39
56 64 41 55 62 41 51 59 37 49 61 34 56 60 39 54 60 39 44 52 32
39 47 32 43 50 33 46 55 32 69 74 49 69 73 50 73 79 53 72 79 52
80 88 59 86 93 65 85 92 64 92 98 72 83 87 63 82 86 61 77 81 56
70 74 49 76 81 56 89 93 68 85 90 66 78 84 60 67 72 49 59 62 40
48 50 28 42 44 23 48 50 29 56 60 33 68 73 47 104 110 84 99 105 80
91 96 71 92 98 71 90 96 70 95 101 75 103 109 83 100 106 80 94 100 73
88 95 67 58 63 42 55 60 38 52 57 35 51 56 34 52 57 35 52 57 35
53 57 35 53 56 33 51 55 32 52 56 33 50 54 31 49 54 31 54 60 37
53 59 36 51 56 35 51 55 34 44 49 27 44 49 26 44 48 25 42 47 25
47 52 29 48 52 29 35 37 16 32 33 12 35 34 14 36 35 15 41 42 21
43 46 25 47 54 32 49 57 34 59 63 40 60 66 41 58 64 38 55 61 35
48 53 27 45 50 25 43 49 24 41 49 22 46 54 27 53 58 32 59 65 39
63 69 43 64 70 44 69 75 49 69 75 50 71 77 51 70 76 50 65 75 48
69 77 51 74 80 54 71 80 53 69 78 51 68 77 50 70 79 52 68 77 49
61 70 43 53 62 35 45 54 27 42 51 24 35 44 17 30 40 12 23 34 7 29 36 8
36 43 15 57 17 9 89 13 11 93 13 7 100 26 10 126 61 20 170 112 43
178 124 44 174 116 35 158 92 30 152 87 23 147 79 17 134 60 13
126 51 15 92 18 11 75 0 2 75 1 2 73 2 3 94 22 9 108 39 9 120 50 11
120 44 12 112 34 7 106 24 9 104 22 9 103 24 9 105 32 5 117 45 8
122 51 11 126 53 15 121 49 12 113 43 10 105 30 12 98 15 6 80 4 5
69 1 3 70 1 3 70 2 4 71 1 3 75 3 3 78 3 3 81 5 4 82 7 8 80 4 4 78 3 3
83 11 8 103 31 13 116 46 13 112 40 7 107 32 9 95 21 7 81 6 4 78 2 2
79 1 3 83 5 2 98 23 6 107 35 12 98 24 7 86 10 5 87 10 7 85 8 8 83 7 7
90 6 3 92 18 10 76 35 20 71 63 41 84 88 64 83 94 63 85 89 62 87 91 67
49 53 30 53 57 32 54 56 44 45 47 35 89 93 69 97 102 72 57 56 42
27 27 17 82 86 61 85 87 66 55 55 34 80 85 62 89 92 70 51 54 33
56 58 48 24 25 20 8 8 6 17 19 11 26 26 13 37 39 21 56 60 36 90 94 68
108 112 88 98 102 75 74 80 46 90 94 66 79 80 55 51 50 26 71 72 54
94 96 80 102 107 77 81 88 57 53 59 31 43 46 29 66 67 50 65 67 45
58 57 31 51 47 22 40 40 26 41 39 26 54 50 28 83 81 60 84 86 59
67 70 44 57 60 36 71 74 47 88 92 65 95 98 71 90 94 69 91 95 70
93 97 72 97 103 74 97 104 73 111 116 88 124 128 105 113 116 92
85 88 66 45 48 37 25 28 22 25 29 15 35 39 24 46 51 32 62 67 46
70 74 51 65 69 46 60 61 39 55 55 33 55 56 34 53 55 32 55 57 34
54 58 35 52 57 35 56 63 38 57 68 38 61 71 41 65 75 45 65 75 50
62 69 45 59 65 39 63 69 43 66 72 46 61 67 41 56 62 36 50 56 30
46 52 26 51 57 30 66 72 46 84 90 64 95 102 76 82 91 62 65 74 45
64 73 44 67 76 47 71 80 52 74 83 55 85 91 64 96 102 75 85 91 65
84 91 58 73 79 46 55 60 32 52 55 27 49 52 23 46 48 19 48 51 25
55 59 35 64 68 43 67 71 44 64 70 41 63 62 40 55 51 29 49 45 23
52 50 25 64 63 36 73 72 46 80 82 57 101 102 81 112 116 93 118 119 96
114 117 92 104 108 85 101 104 77 100 103 76 89 94 68 78 81 62
68 70 54 61 64 48 55 62 39 55 64 41 56 64 41 51 59 37 48 55 33
54 58 36 59 65 42 57 66 44 50 56 41 45 52 36 45 55 35 54 59 35
74 78 54 89 95 69 108 113 87 121 126 99 122 126 101 112 117 91
95 100 73 73 76 49 63 66 37 51 53 25 63 65 37 85 87 59 88 91 62
88 92 64 82 88 60 71 71 48 61 62 40 32 34 13 39 42 21 80 83 60
94 98 73 118 123 96 121 127 97 101 108 77 100 107 77 105 112 81
105 111 82 95 101 72 90 96 69 92 96 72 91 96 71 65 70 45 53 58 36
57 62 40 57 62 40 58 63 41 57 62 39 56 61 38 57 62 39 56 60 37
52 57 34 51 55 33 47 51 30 48 53 33 50 54 35 49 53 34 49 54 35
49 54 34 47 51 30 47 51 29 45 49 26 42 46 24 40 44 21 37 41 18
28 31 9 26 29 7 29 30 9 31 32 11 34 35 15 35 37 16 40 46 23 41 50 26
44 48 26 41 46 23 41 47 22 43 49 23 34 40 14 31 36 11 45 51 25
59 65 39 62 71 43 71 75 50 73 79 53 72 78 52 73 78 53 73 78 52
72 80 52 73 79 53 72 78 52 71 74 49 72 76 51 73 79 53 72 80 54
70 79 52 73 82 55 79 88 61 79 88 61 73 82 55 69 77 50 52 59 33
44 50 24 30 36 10 30 37 10 31 39 10 38 44 17 50 57 28 60 50 30
71 13 7 95 19 4 126 55 18 169 105 37 198 145 46 202 153 53 182 131 41
146 81 18 142 78 15 134 68 16 127 54 13 114 40 10 89 15 7 79 4 5
77 3 5 72 3 4 82 9 5 86 11 5 93 19 10 103 26 11 92 15 3 83 5 1 79 3 2
78 1 1 75 2 1 74 2 3 74 2 2 78 2 3 89 13 6 106 32 10 100 21 9
103 23 7 104 28 9 117 41 13 125 52 16 127 55 15 123 51 11 120 46 14
103 27 10 94 17 18 91 15 18 83 5 6 83 6 5 83 10 6 95 17 7 94 16 5
98 22 7 98 23 9 98 21 9 101 26 8 100 24 10 96 18 8 95 17 6 101 22 8
104 25 9 104 28 8 100 24 8 97 22 11 91 15 12 93 16 15 105 28 12
103 24 10 102 17 11 85 15 11 82 51 37 87 91 63 86 92 66 91 94 71
69 70 46 53 56 30 54 57 42 43 46 33 89 94 67 88 95 62 73 77 54
53 57 37 93 98 73 95 102 75 33 35 14 47 48 26 85 89 63 66 69 46
73 75 55 41 42 31 19 17 11 23 23 16 40 40 25 63 64 42 68 72 47
77 81 56 100 104 79 95 100 71 65 70 44 53 57 34 83 84 58 61 59 40
80 76 56 95 98 78 94 98 70 78 85 54 67 73 42 67 71 43 79 82 58
65 68 42 46 43 24 44 43 22 44 48 39 43 42 33 44 47 29 71 80 61
93 97 72 77 80 65 73 76 53 85 90 61 93 97 67 94 98 69 86 89 64
85 88 64 86 89 65 87 92 66 82 88 62 86 91 65 103 108 81 119 125 97
118 124 97 107 111 88 75 79 57 55 58 44 38 40 32 25 26 21 28 30 24
42 44 31 59 62 46 71 74 56 71 75 54 64 67 45 56 60 38 57 61 39
55 56 35 51 54 32 50 58 31 57 62 34 65 69 43 71 77 52 70 79 54
69 78 54 70 76 50 64 70 44 65 71 45 72 78 52 80 86 60 91 97 71
99 105 79 108 114 88 111 117 91 112 118 91 101 107 80 84 94 65
71 80 51 68 77 48 74 86 54 85 97 65 93 104 72 101 109 80 103 110 84
103 109 83 98 104 75 96 103 69 91 97 66 85 89 65 80 85 57 77 81 52
77 81 52 68 74 45 60 66 36 60 67 35 64 69 37 67 69 41 71 69 41
66 65 37 61 63 38 61 64 37 55 55 26 52 54 28 55 56 33 61 65 41
74 76 51 91 93 69 103 107 85 112 116 91 116 119 90 105 106 81
92 94 74 86 88 71 76 80 59 63 71 47 62 70 47 68 76 51 66 73 48
59 64 42 54 58 36 46 52 30 52 60 37 59 67 43 62 68 45 58 64 42
79 84 60 94 98 75 78 84 58 72 78 52 66 72 46 66 69 45 59 62 36
45 45 19 49 43 19 49 43 18 52 48 18 69 68 38 68 69 37 76 76 45
72 73 42 58 61 29 61 60 32 49 52 24 39 43 18 71 75 49 81 85 61
105 108 84 122 128 100 118 125 95 115 122 89 109 116 83 99 106 73
93 99 71 81 87 57 80 85 60 81 85 62 74 77 55 52 56 33 51 56 34
55 59 38 56 60 38 55 59 37 54 58 35 59 63 40 59 63 40 57 62 39
54 59 37 43 48 28 38 42 24 43 47 28 46 50 29 45 48 27 40 46 25
43 47 27 48 51 30 44 48 26 38 42 19 37 41 18 39 43 20 38 42 19
36 40 17 38 42 19 35 39 16 39 41 20 26 28 7 26 28 7 26 32 9 22 32 8
27 33 8 28 33 8 39 45 19 49 55 29 53 59 33 59 65 39 64 69 43 70 75 48
70 77 49 73 76 51 72 77 52 65 71 45 67 72 47 69 73 48 69 75 47
69 75 48 70 76 50 69 75 49 68 74 48 69 76 49 67 76 49 67 76 49
68 77 50 65 74 47 63 72 45 58 67 40 55 62 35 46 52 26 40 47 21
43 50 24 48 56 29 50 58 31 53 59 36 57 62 39 56 68 44 71 41 23
126 44 13 151 84 25 164 102 26 171 115 31 169 114 27 157 100 22
133 69 7 122 56 6 94 24 7 87 9 9 84 7 6 82 6 4 78 5 5 82 9 7 76 5 5
79 6 2 84 5 2 85 7 4 82 4 5 77 3 4 74 1 1 71 0 2 70 0 1 69 0 0 69 0 1
70 0 2 75 1 2 84 7 6 86 7 8 89 10 7 111 34 9 120 45 8 145 70 20
158 85 26 145 76 15 127 56 7 114 39 8 85 13 8 74 2 4 71 0 3 72 0 1
72 0 1 73 2 3 86 7 2 98 19 5 127 56 17 139 74 21 157 92 39 160 95 42
150 82 26 130 55 12 109 31 8 96 16 7 88 7 7 78 0 1 75 1 1 71 0 1
74 2 3 77 3 4 75 4 4 79 7 5 81 6 3 79 5 3 83 3 2 92 29 22 88 77 59
93 93 73 82 82 60 63 66 40 48 50 36 42 45 32 92 97 69 87 95 61
88 93 70 77 82 58 91 97 72 82 92 61 26 28 7 35 33 12 77 81 52
81 85 61 87 89 63 57 58 38 36 33 16 33 32 21 46 46 31 74 76 55
73 76 51 67 71 45 71 75 50 89 95 66 74 79 56 52 55 35 77 80 54
58 59 43 67 64 42 91 94 70 74 78 55 70 76 48 80 85 58 96 99 71
84 88 59 64 70 39 41 41 31 38 35 30 43 42 36 41 42 34 32 46 24
53 78 43 87 98 70 87 91 82 83 86 63 88 93 65 94 99 68 94 99 67
91 96 69 84 88 64 80 84 60 79 85 59 68 75 48 77 83 55 94 100 73
109 115 89 110 116 89 108 112 86 89 93 67 89 93 74 88 90 82 67 68 60
43 44 38 26 27 21 23 24 17 32 34 23 53 55 41 65 67 51 66 70 48
65 71 48 61 61 40 58 55 34 53 61 35 57 61 35 64 68 43 70 74 49
67 74 47 61 69 45 67 73 47 78 84 58 95 101 75 114 120 94 118 124 98
117 123 97 113 119 93 108 114 88 106 112 86 109 116 87 93 100 71
70 79 50 60 69 40 55 63 33 57 65 32 68 77 43 76 85 52 91 100 70
103 110 82 110 116 90 105 111 84 97 104 72 98 105 73 103 107 79
101 105 73 94 99 67 90 96 63 84 95 61 81 92 57 79 90 56 79 90 56
83 94 59 90 96 64 84 88 56 80 84 56 80 85 56 71 77 45 69 73 43
73 77 47 67 72 42 58 64 32 49 53 27 51 52 33 67 67 46 105 103 76
125 123 96 120 119 95 111 112 87 103 105 79 91 96 69 86 91 62
84 90 61 83 89 62 97 102 77 104 109 85 79 85 62 63 72 49 52 61 38
53 57 36 56 59 38 100 104 80 96 100 77 79 85 59 76 82 56 71 77 51
63 71 44 53 57 31 57 57 31 63 57 34 63 57 32 62 58 28 62 60 30
59 59 29 60 60 29 57 57 27 55 57 26 52 49 19 43 44 13 57 64 32
77 81 53 86 90 64 112 116 91 111 116 90 111 115 90 108 112 87
98 102 77 91 95 70 79 84 61 72 77 55 71 75 56 68 73 51 63 68 47
59 63 42 55 58 38 51 54 33 53 57 36 56 60 37 59 63 40 64 68 45
60 65 42 53 58 36 52 55 32 52 56 33 51 55 32 46 51 28 46 51 27
50 56 30 50 55 33 49 55 33 46 51 29 39 44 21 36 40 17 37 41 18
43 46 24 48 52 29 59 63 40 60 64 41 50 54 31 47 55 29 35 41 16
35 38 16 27 34 8 27 35 8 34 40 11 33 40 11 48 54 26 55 61 35 65 71 45
73 79 53 72 78 52 72 78 52 72 79 52 73 78 52 71 77 51 68 77 50
67 76 49 65 73 47 65 68 44 64 69 43 64 70 44 60 66 40 58 64 38
57 63 37 54 63 36 48 57 30 42 51 24 40 49 22 39 48 21 41 50 23
52 58 32 55 61 35 55 64 37 57 66 39 58 68 41 59 68 41 60 66 44
60 65 43 57 65 39 64 59 33 103 30 15 110 35 11 97 25 7 110 42 11
130 63 17 134 68 17 119 52 7 119 53 8 111 43 6 107 43 9 114 51 12
124 60 13 121 54 16 114 45 11 117 51 12 99 30 11 81 4 4 78 2 2 75 2 1
73 1 2 71 0 2 69 0 2 68 0 1 69 0 0 70 0 1 70 0 2 71 1 1 76 2 3 80 3 4
84 5 3 91 11 3 108 33 11 110 36 14 107 30 17 104 27 15 94 17 11
79 2 4 72 1 2 70 1 3 70 0 2 71 0 0 71 0 0 72 2 2 81 5 4 86 11 5
98 22 9 112 40 13 132 63 21 130 60 18 118 45 9 108 32 5 96 13 6
89 6 5 81 2 3 71 0 0 74 1 1 75 3 4 72 2 2 70 2 0 68 1 1 68 1 1 76 4 4
88 7 7 97 13 7 107 23 11 86 16 13 79 52 38 79 74 50 80 82 55 42 47 32
43 46 33 93 97 72 83 88 56 86 90 65 84 89 66 83 87 62 80 84 61
47 48 27 47 47 24 83 87 63 95 99 76 106 110 82 81 85 57 54 54 30
65 62 47 56 55 36 69 72 44 63 66 39 64 67 42 76 80 56 84 90 61
85 91 65 63 67 45 57 60 38 42 40 19 50 50 29 78 84 62 61 66 53
66 71 50 93 96 83 96 99 84 76 78 52 65 67 38 55 54 35 56 55 42
41 38 30 39 39 27 33 45 16 43 68 27 74 90 58 52 60 46 78 83 61
90 96 68 93 100 67 94 101 67 95 100 74 87 92 66 79 86 58 64 75 46
63 73 43 67 74 41 85 91 58 111 118 85 111 116 84 111 115 86
110 113 86 82 87 59 80 84 59 97 97 74 108 107 89 94 96 78 62 64 48
37 39 27 25 26 18 28 30 19 38 41 30 54 58 45 65 71 52 65 70 48
62 65 44 59 61 40 60 63 42 65 69 45 63 71 43 67 75 48 78 84 58
89 95 69 101 107 81 109 115 89 111 117 92 112 118 93 112 118 92
109 116 88 105 112 80 102 109 76 90 97 65 77 84 51 65 72 40 48 55 22
44 51 18 49 56 23 61 68 35 74 81 48 92 99 66 103 110 78 103 109 83
100 105 79 98 103 77 99 104 76 100 105 75 105 110 78 105 112 79
100 108 75 102 109 76 101 109 76 104 112 78 112 119 86 116 122 89
103 107 76 96 100 74 99 104 77 90 96 63 78 83 51 67 72 39 60 65 33
65 70 38 71 75 49 49 52 30 34 32 13 53 48 27 75 72 49 102 101 76
120 117 93 116 118 94 111 116 91 101 107 81 87 92 68 83 88 64
84 89 63 95 101 74 98 105 77 96 106 77 95 103 75 92 96 70 84 88 63
91 96 71 86 91 67 82 88 62 78 84 58 80 86 60 72 80 54 75 81 55
81 86 59 85 89 59 80 85 53 74 77 46 66 74 41 67 76 43 66 72 41
64 69 37 53 57 28 37 35 8 43 42 15 81 85 55 87 91 60 116 121 91
122 126 100 109 113 87 104 107 82 89 93 67 81 85 58 80 84 56 76 81 52
85 91 60 94 99 71 89 95 72 50 59 35 52 59 31 51 54 33 50 52 32
60 63 41 63 66 43 63 67 43 63 67 43 58 62 39 52 55 34 50 55 32
53 57 35 55 59 37 57 62 40 55 60 38 40 45 22 36 40 18 33 38 16
35 40 17 39 44 21 44 48 25 53 57 33 61 66 42 62 67 43 63 68 44
60 65 40 53 58 33 50 60 31 44 53 25 46 51 25 44 51 24 47 56 27
50 57 28 48 56 26 53 61 32 58 65 39 63 71 44 73 80 54 72 79 53
72 79 53 73 80 53 72 79 53 71 79 52 68 77 50 65 74 47 60 69 42
57 62 37 56 63 36 55 62 36 52 59 33 50 57 31 51 58 32 51 60 33
48 57 30 43 52 25 46 55 28 51 60 33 53 62 35 60 68 42 63 71 45
63 72 45 62 71 45 60 69 44 57 66 39 57 63 41 58 62 41 56 60 40
56 61 41 58 30 26 70 0 2 77 0 4 74 1 4 75 3 5 96 28 7 113 46 4
118 53 5 142 77 21 141 81 15 150 90 22 161 101 32 136 73 16 124 57 12
133 70 10 101 35 10 72 0 3 74 0 3 70 0 1 67 0 1 66 0 1 68 0 2 67 1 2
67 1 2 69 0 2 70 0 2 73 1 2 77 4 3 85 9 6 92 12 9 88 6 8 82 6 4
75 5 5 72 2 5 73 3 6 71 1 4 70 1 4 70 1 3 71 1 3 70 0 3 71 0 0 71 0 0
71 1 1 76 2 4 77 3 2 90 12 4 103 27 5 109 34 7 88 14 7 77 3 5 74 1 2
78 3 3 75 2 2 94 43 43 97 64 59 98 62 58 90 57 56 78 46 45 76 44 43
80 49 46 82 50 47 82 49 45 81 42 45 87 50 56 97 66 66 101 63 62
93 59 54 67 22 18 81 60 44 52 52 38 40 43 32 88 91 71 78 82 55
78 82 57 85 88 66 83 87 60 82 86 60 61 64 38 58 59 32 86 90 65
110 114 89 115 120 90 96 102 72 84 85 60 86 86 66 65 67 45 58 61 33
50 53 25 46 49 20 74 77 52 86 91 64 92 96 72 75 78 55 43 44 22
45 41 18 45 43 25 68 73 52 61 66 51 64 68 49 89 93 73 82 84 70
66 66 40 62 57 31 56 50 30 81 79 60 62 59 43 42 39 26 30 37 16
26 45 13 51 70 34 32 38 23 80 82 62 96 101 74 90 96 66 88 94 64
103 107 81 71 74 49 63 65 38 55 65 34 68 77 46 70 80 48 82 91 59
111 116 85 111 116 84 112 117 86 117 120 91 79 84 51 62 69 37
111 105 79 113 112 90 109 113 86 98 102 76 70 72 58 42 43 38 37 39 31
25 26 20 24 25 19 30 32 21 39 41 29 56 59 43 80 83 65 83 86 66
70 75 51 62 69 43 50 58 32 48 55 28 62 67 42 62 67 42 70 75 50
87 93 65 94 101 71 91 97 69 87 93 62 85 92 59 86 93 60 80 87 54
71 78 44 59 66 33 47 54 21 43 50 17 50 57 24 59 66 33 68 75 42
78 85 52 98 105 72 113 119 92 120 126 100 115 120 94 111 116 88
109 114 85 109 114 82 110 116 83 110 116 84 110 116 83 105 111 79
100 106 73 101 107 75 106 112 80 111 116 84 111 116 87 112 117 88
112 117 85 109 114 82 98 102 71 79 83 52 65 71 39 70 73 45 70 74 48
60 61 35 49 47 21 43 44 18 50 52 25 73 75 48 86 90 64 91 94 69
95 98 73 97 101 77 100 104 80 96 101 78 90 95 70 94 100 72 103 108 79
103 108 80 102 106 79 104 109 80 103 109 83 104 110 84 100 106 80
102 108 82 88 94 68 87 93 67 86 92 66 85 91 65 73 78 47 67 72 40
73 79 47 81 88 56 77 85 53 60 66 39 57 62 33 48 50 24 46 44 24
87 81 59 112 108 84 112 116 84 118 123 93 110 114 88 97 101 78
93 97 74 83 88 60 84 89 57 97 102 70 102 107 75 114 119 88 122 126 99
85 92 68 43 57 29 48 57 25 42 45 20 44 45 24 54 52 31 50 52 28
58 63 37 60 64 39 47 49 27 42 44 23 45 50 28 48 54 32 51 56 34
54 59 37 51 56 33 38 42 19 41 45 22 45 49 26 50 54 31 60 63 40
62 66 43 67 73 47 70 76 50 66 72 46 62 68 42 62 68 42 67 73 46
62 71 44 61 69 42 65 71 45 63 71 45 61 71 44 50 59 32 47 56 29
51 60 34 55 64 37 57 67 40 62 71 44 61 71 43 68 77 50 67 77 49
68 77 50 65 74 47 59 68 41 58 67 40 53 62 35 50 59 32 50 60 33
53 62 35 54 63 36 54 63 36 54 63 36 52 61 34 50 59 32 48 57 30
48 57 30 55 64 37 61 70 43 61 70 43 60 69 42 58 67 40 58 67 42
55 64 41 51 61 37 52 56 38 50 52 39 52 55 39 51 54 38 52 46 34 64 4 2
73 0 0 71 1 1 68 0 2 80 12 5 113 46 4 116 50 6 145 79 23 151 89 22
158 97 30 159 99 25 155 92 27 149 84 19 133 67 6 118 51 9 103 33 10
89 21 9 83 18 7 89 22 8 83 13 6 78 6 3 76 6 5 70 2 4 78 9 6 99 29 11
109 40 10 119 46 13 131 59 16 132 60 18 106 33 10 85 8 3 74 1 1
68 0 0 66 0 0 66 0 1 67 1 2 69 0 1 70 0 1 70 0 1 71 0 0 70 0 0 72 0 1
75 2 2 85 9 6 109 32 9 116 43 6 115 45 2 94 15 7 77 4 5 85 36 34
64 23 23 46 8 8 68 53 48 64 65 62 51 52 49 45 48 48 36 39 39 35 37 37
41 44 40 41 44 40 38 42 38 29 36 34 36 40 41 46 49 53 50 56 58
64 66 63 36 10 10 48 16 12 73 61 55 58 54 47 92 94 76 85 90 64
81 86 57 90 94 69 85 90 60 81 85 53 71 75 45 70 73 46 88 93 64
112 115 86 115 118 86 88 101 66 82 92 63 84 88 62 69 73 47 58 61 36
64 68 37 46 47 16 65 69 41 92 95 70 94 98 74 84 88 64 53 56 34
55 57 34 61 62 46 54 58 43 63 68 48 69 72 52 77 79 61 67 64 47
62 58 31 60 53 29 51 45 26 40 40 23 53 48 31 39 36 21 15 21 6
25 43 13 36 61 23 19 24 6 64 64 42 84 87 60 85 87 62 59 68 39
74 94 60 61 65 39 43 39 15 38 53 18 65 77 43 72 82 53 81 89 61
97 103 75 104 109 77 112 117 86 123 128 100 111 108 83 91 90 64
120 112 91 119 114 90 112 115 89 107 111 84 74 77 57 45 47 36
57 59 47 53 57 36 27 28 22 24 25 19 24 25 20 27 28 22 39 43 31
62 68 51 74 85 64 79 85 63 71 77 52 73 79 53 80 83 59 68 71 47
60 64 39 80 85 56 87 94 61 81 88 54 77 84 51 77 84 51 81 88 55
83 90 57 85 92 59 79 86 53 69 76 43 61 68 35 55 62 29 54 61 28
56 63 30 63 70 37 78 85 52 97 103 76 114 120 95 122 128 102
122 127 96 120 124 92 116 121 89 113 118 86 112 117 85 112 117 85
109 114 82 104 109 77 98 103 71 95 100 68 92 97 65 94 99 67 99 104 72
104 109 78 110 115 83 111 115 84 103 111 78 91 103 68 85 92 60
77 81 56 72 76 50 67 69 43 61 66 40 59 64 38 66 69 43 67 71 45
66 70 46 74 78 53 80 84 59 89 93 68 95 99 74 102 106 81 113 116 91
116 120 95 113 117 92 109 113 88 106 111 80 115 121 95 115 121 95
115 121 95 115 121 95 109 115 89 87 93 67 71 76 50 68 72 48 61 65 38
57 60 33 52 56 28 53 56 25 42 43 14 39 39 13 62 64 39 85 88 60
100 103 73 115 119 88 110 114 83 100 105 74 93 97 72 78 82 59
76 80 58 88 92 69 96 100 72 96 101 69 96 101 69 104 109 76 119 124 93
108 112 86 63 70 46 54 66 37 45 55 26 45 49 23 40 42 19 39 37 16
45 48 23 56 61 35 55 61 34 50 54 31 52 55 33 61 59 39 61 62 40
53 57 34 50 55 33 48 52 30 48 52 29 54 58 35 58 62 39 58 62 39
68 72 49 71 75 52 71 77 51 70 76 50 62 68 42 58 63 38 63 69 43
74 80 54 71 80 53 71 78 52 72 78 52 65 74 47 64 73 46 54 63 36
52 61 34 50 59 32 46 55 28 47 56 29 48 57 30 47 56 29 51 60 33
48 57 30 46 55 28 43 52 25 48 57 30 54 63 36 56 65 38 57 66 39
59 68 41 57 66 39 55 64 37 51 60 33 50 59 32 49 58 31 48 57 30
48 58 31 49 61 30 50 62 31 51 63 33 52 62 34 54 63 36 55 64 37
55 63 38 56 64 41 52 61 38 51 57 37 49 53 36 36 39 20 38 41 21
53 59 34 71 43 30 73 8 7 79 4 3 83 11 6 101 32 10 125 58 9 133 67 15
150 86 23 155 93 25 166 108 35 170 111 34 171 113 37 160 100 28
159 93 30 163 99 27 157 93 20 147 83 19 138 72 19 141 75 18 139 70 14
140 72 15 138 75 18 138 79 20 153 98 34 161 109 33 170 122 33
178 126 36 173 118 35 167 110 29 147 88 14 112 40 13 77 4 6 72 2 3
72 2 1 71 0 3 71 0 4 70 0 2 71 0 2 69 0 2 72 0 0 72 1 1 73 2 2 79 7 3
95 21 8 122 45 12 129 50 10 115 38 5 92 44 33 58 17 14 55 38 38
24 24 26 9 9 6 12 12 9 7 6 6 0 0 0 0 0 0 0 0 0 0 0 0 0 0 0 0 0 0
0 0 0 0 0 0 0 0 0 0 0 0 0 0 0 26 27 26 5 6 4 16 16 10 47 44 43
39 29 28 74 74 62 85 92 64 89 93 62 88 93 70 85 89 63 73 79 46
72 78 46 75 81 48 89 94 62 99 103 71 108 113 81 93 101 69 82 94 64
82 91 63 81 90 63 66 74 47 63 71 38 50 56 24 65 70 42 93 98 72
100 104 77 99 103 77 73 76 51 72 75 53 68 72 52 46 48 36 36 38 23
46 48 33 62 56 50 53 46 27 59 49 23 63 50 26 56 51 24 21 19 8
38 33 20 51 43 26 32 34 14 26 35 11 46 46 20 37 37 17 56 59 35
57 55 29 53 47 23 45 49 25 40 74 30 64 77 40 62 61 33 32 40 11
65 72 43 79 86 58 91 95 68 92 97 71 93 97 71 96 100 75 106 110 85
112 108 84 121 114 94 139 137 123 110 112 92 101 104 79 115 120 93
77 82 57 44 44 26 44 43 24 52 55 29 31 31 24 17 17 14 7 7 8 18 18 17
22 24 18 22 26 17 26 32 20 43 47 35 63 66 49 76 80 58 82 89 60
89 97 67 90 99 70 89 97 66 90 97 65 90 97 64 90 97 64 90 97 64
93 100 67 104 111 78 111 118 85 114 121 88 109 116 83 100 107 74
87 94 61 72 79 46 57 65 31 56 63 30 62 69 36 71 77 50 85 92 65
109 110 82 118 121 92 122 126 97 121 126 94 121 126 94 120 125 93
120 125 93 118 123 91 115 120 88 112 116 86 107 111 82 101 106 74
94 97 69 86 89 62 81 86 57 81 86 54 86 91 59 86 96 62 84 97 62
86 97 63 85 92 60 83 89 58 79 83 56 74 82 56 72 82 59 80 84 63
76 80 56 69 73 48 71 75 50 74 80 50 73 79 48 75 81 50 77 84 52
78 84 53 81 88 56 90 95 64 93 98 67 80 84 52 111 117 91 108 114 88
105 111 85 100 106 80 89 96 68 63 69 43 63 69 43 70 75 50 72 76 50
58 61 35 47 50 24 60 61 33 66 65 37 77 76 50 87 89 60 88 93 63
103 108 76 104 109 77 106 112 79 108 113 82 107 111 83 103 108 78
102 106 81 97 101 77 102 107 77 109 114 82 108 113 81 106 112 80
106 112 80 77 82 54 56 63 39 53 64 36 47 56 29 49 54 29 51 55 31
51 56 33 56 62 38 56 63 38 56 62 37 55 61 37 57 62 39 61 62 40
59 63 41 55 60 37 53 58 36 49 55 33 48 53 30 58 63 41 70 75 52
71 76 52 72 78 54 71 77 52 61 68 42 58 65 38 63 70 43 68 75 48
69 77 49 72 79 52 71 80 52 71 79 52 72 79 52 70 78 51 70 79 52
65 74 46 64 73 46 54 63 36 42 51 24 47 56 29 38 47 20 38 47 20
31 40 13 24 33 7 37 46 19 45 54 27 54 63 36 63 72 45 64 73 46
68 77 50 64 73 46 56 65 38 55 64 37 48 57 30 43 53 26 45 54 27
49 57 30 51 57 31 52 57 32 50 56 32 49 55 30 48 56 30 55 65 37
67 76 49 76 85 60 82 90 69 75 84 61 63 68 48 65 70 51 67 69 50
72 75 55 84 88 66 86 90 67 65 26 17 75 1 3 101 29 12 120 52 11
124 52 6 128 59 11 133 68 8 137 73 11 135 73 14 124 59 9 128 64 8
125 60 8 126 60 13 125 61 12 130 66 11 136 70 17 157 94 21 176 116 37
182 125 45 195 141 54 192 144 47 201 155 56 219 177 70 222 185 73
214 174 63 187 138 37 174 119 34 160 104 28 151 93 20 137 65 12
111 38 10 110 39 9 96 26 4 94 23 4 90 17 5 95 23 6 88 15 4 85 15 4
86 12 4 80 5 2 83 5 5 100 25 11 114 39 9 112 38 11 98 39 16 71 15 11
52 46 44 12 16 18 3 3 7 3 2 5 0 0 0 4 4 5 7 8 8 8 8 6 12 12 11
18 18 18 18 19 17 19 19 19 19 19 19 19 19 18 18 18 17 15 15 15 8 8 7
10 10 9 28 28 26 2 2 3 2 3 0 5 5 4 0 3 2 32 37 24 55 56 35 74 71 53
83 79 60 80 82 64 69 72 43 72 78 46 85 92 58 83 88 56 81 86 54
102 108 75 104 109 77 89 96 68 85 91 65 92 99 73 88 95 69 73 80 50
64 70 40 73 79 53 96 101 74 108 113 86 107 112 86 89 93 70 75 78 60
79 82 66 58 60 51 28 30 18 25 27 15 40 33 29 41 35 18 57 45 23
62 49 29 52 48 24 14 13 11 22 18 10 47 39 21 44 42 23 24 23 5
39 32 15 48 44 21 62 64 40 56 55 31 43 35 13 30 23 5 32 64 19
53 80 35 62 75 42 32 29 6 60 65 37 77 85 56 93 98 71 93 97 72
87 90 68 87 91 69 92 97 73 70 77 48 77 79 55 128 131 112 101 105 83
84 87 61 113 118 86 81 85 58 47 45 21 30 28 8 26 27 11 47 47 39
22 22 19 0 0 1 0 0 2 4 5 4 14 16 12 21 22 16 25 26 20 25 26 18
27 28 16 42 46 25 65 72 50 77 83 60 81 87 62 93 98 71 99 105 73
97 104 71 99 107 73 105 112 79 107 114 81 111 118 85 114 121 88
117 124 91 114 121 88 111 118 85 105 112 79 82 88 57 58 64 33
60 68 37 70 76 49 76 81 56 86 88 61 102 105 78 115 119 91 120 126 94
122 127 95 122 127 95 121 126 94 122 127 95 122 127 95 123 126 97
120 124 95 116 122 90 114 115 86 113 115 88 104 109 81 93 97 67
80 84 53 77 81 49 75 82 49 75 81 49 72 79 46 73 79 49 78 82 52
79 86 55 79 89 60 84 90 64 90 95 69 97 101 76 100 104 79 91 96 66
84 91 57 84 91 58 75 83 49 70 77 44 67 75 41 63 70 37 58 63 31
55 58 27 101 107 81 98 104 78 91 97 71 82 87 61 67 73 47 64 70 44
63 69 43 65 71 45 64 68 43 63 67 42 67 71 46 72 76 51 74 78 54
80 84 59 84 89 60 98 103 71 103 108 76 107 112 80 114 119 87
107 112 80 100 105 73 96 101 69 94 98 69 88 93 63 103 109 76
112 117 85 110 115 83 104 111 78 98 105 72 61 68 40 55 62 39 51 59 36
48 56 33 48 56 32 46 55 31 49 57 34 54 62 39 54 62 39 55 63 40
56 64 41 54 62 39 52 61 38 50 58 35 48 56 33 49 57 34 52 60 37
52 61 38 58 66 43 63 71 47 66 75 48 70 79 52 67 76 49 62 71 42
62 71 42 67 76 47 71 80 51 70 80 51 70 79 50 70 79 50 70 79 50
70 79 50 69 78 49 70 79 50 68 77 48 71 80 52 68 77 51 65 74 47
64 73 46 56 65 38 62 71 44 37 46 19 32 41 14 40 49 22 43 53 26
45 54 27 57 66 39 55 64 38 55 63 37 52 61 34 49 58 31 47 55 29
39 48 21 33 42 15 38 46 20 48 55 28 52 55 28 47 44 24 36 35 17
51 51 32 71 76 53 75 87 56 92 100 73 86 95 68 63 70 54 57 65 50
62 66 49 65 68 46 69 69 46 65 65 42 63 60 39 60 62 34 67 41 22
101 24 12 123 46 15 126 58 12 127 57 8 124 55 6 117 49 2 108 40 3
93 22 5 82 9 4 84 12 4 83 13 7 100 30 9 118 48 8 132 66 10 145 81 21
156 92 24 160 101 23 177 121 36 196 145 53 195 152 49 202 158 55
202 157 56 188 138 45 175 121 36 157 95 21 140 64 17 113 34 13
117 40 11 117 43 7 133 62 9 143 74 10 142 77 19 141 77 22 146 82 21
147 86 22 146 85 21 139 78 12 123 58 10 108 34 11 99 15 10 94 14 8
89 14 11 58 18 18 27 22 22 7 10 15 9 9 13 14 15 16 23 23 23 30 30 31
36 35 36 54 57 58 68 70 71 70 70 68 81 81 80 88 88 87 79 79 76
65 64 63 64 64 62 72 72 70 86 86 84 84 85 82 71 73 70 70 70 67
64 64 62 38 38 38 32 33 32 27 28 26 16 19 16 11 11 9 7 7 7 17 14 15
58 46 36 70 72 51 70 72 46 75 82 49 89 94 62 83 88 56 71 76 44
88 96 62 108 114 82 97 101 74 89 93 68 93 97 72 95 98 74 93 97 72
81 86 60 82 88 62 94 100 74 102 108 82 108 114 88 101 106 83 77 81 63
78 83 68 68 70 60 36 37 26 27 27 15 34 32 23 27 23 11 59 47 31
50 42 25 30 34 14 10 9 7 21 17 10 40 33 15 54 48 21 37 30 13 28 21 8
46 39 18 65 65 35 56 54 31 45 41 19 43 36 18 31 57 20 40 73 29
47 74 32 40 38 15 59 66 37 75 82 53 93 97 72 91 94 70 80 84 62
73 75 57 86 89 67 76 81 57 67 71 47 107 111 87 99 103 77 91 94 70
111 114 85 90 95 65 62 67 39 31 33 17 22 24 12 59 60 52 37 37 34
0 0 0 1 1 3 1 0 3 1 0 4 3 3 5 8 8 6 21 22 16 31 30 26 23 24 15
25 26 20 38 40 28 59 61 44 82 86 62 94 98 70 102 107 78 110 117 87
117 124 91 117 124 91 116 123 90 112 119 86 104 111 78 102 109 76
111 118 85 115 122 90 105 109 84 90 93 68 75 84 55 71 76 51 75 79 54
77 82 57 85 89 63 99 102 74 114 119 87 122 127 95 121 126 94
120 125 93 121 126 94 122 127 95 121 127 94 122 127 95 121 126 94
118 121 89 121 120 91 121 119 93 107 111 85 102 107 76 98 103 71
94 99 67 94 99 67 97 102 70 87 92 60 78 83 51 77 82 50 77 82 52
78 85 54 81 87 56 85 89 63 91 95 70 96 102 71 96 103 70 96 103 70
93 100 67 89 96 63 78 85 52 70 77 44 67 74 41 63 69 36 83 89 63
83 89 63 85 91 65 86 91 66 85 91 67 76 82 56 70 76 50 70 76 50
69 75 49 70 76 50 73 79 53 74 79 53 72 77 51 71 76 51 74 78 49
75 78 46 72 76 44 73 78 46 71 76 44 76 81 49 74 79 47 90 95 63
106 111 79 106 111 79 107 112 80 108 113 81 108 113 81 110 117 85
84 90 59 55 61 33 52 62 37 52 61 37 51 59 36 41 52 27 34 46 20
43 53 28 52 63 38 56 66 41 59 67 44 56 63 41 48 56 33 47 55 32
49 57 34 51 59 36 52 60 37 55 63 40 55 63 40 59 67 44 62 70 46
60 69 42 60 69 42 63 72 44 65 74 45 67 76 47 66 76 46 64 76 42
65 76 44 67 76 47 68 77 48 70 79 50 69 78 49 69 78 49 71 80 50
67 76 44 65 74 44 65 74 46 63 72 43 62 72 41 64 76 43 65 76 48
48 59 31 46 55 28 45 54 27 41 50 23 42 53 26 46 55 26 47 57 27
47 59 28 46 57 27 45 54 24 46 57 27 49 57 27 53 53 23 55 51 25
44 41 15 39 34 12 40 34 19 42 41 27 56 56 41 77 82 59 72 83 53
77 87 60 79 89 61 69 79 47 61 71 40 62 69 44 60 64 41 60 60 35
61 53 31 61 52 33 59 58 35 63 61 34 97 48 21 122 39 10 125 44 12
123 47 10 113 41 3 115 44 3 108 35 8 86 14 4 80 5 4 81 5 3 79 4 2
86 15 6 110 38 8 120 51 7 126 57 10 127 56 11 134 67 17 143 79 18
153 93 23 161 102 28 153 95 21 141 82 13 126 51 13 118 39 9 107 27 8
99 14 8 97 12 6 114 32 8 131 54 7 126 55 7 121 50 3 133 68 13
162 100 26 180 119 39 173 118 32 163 112 22 165 111 22 178 126 38
159 102 34 127 61 18 76 25 12 63 18 12 30 24 16 12 11 9 26 26 27
46 46 46 62 62 60 74 74 73 100 101 98 126 126 123 141 143 139
152 153 150 154 154 150 142 142 138 119 120 116 84 85 82 58 59 57
58 60 57 74 76 73 105 106 104 134 135 132 154 156 153 154 156 153
146 148 146 132 133 130 111 113 111 83 85 81 66 67 64 51 52 49
33 36 32 15 16 15 17 18 14 35 36 27 51 54 33 69 74 47 90 96 65
83 88 59 72 77 47 88 95 62 103 110 78 96 102 74 90 95 70 92 96 71
93 97 72 94 98 73 86 91 63 85 92 60 92 98 67 97 103 72 110 116 87
106 111 89 81 85 70 72 76 62 82 86 72 66 70 54 35 36 29 32 33 24
27 27 13 49 42 25 30 34 11 32 35 19 14 13 9 29 26 19 41 35 27
51 45 28 49 42 24 23 19 10 33 30 15 62 59 37 58 53 32 46 41 18
47 41 23 27 50 13 30 65 19 41 68 26 48 44 25 62 68 43 73 82 54
89 93 67 86 89 67 63 64 48 43 44 30 70 71 55 94 97 76 92 96 74
100 105 74 97 101 76 92 95 71 88 92 63 79 84 57 67 73 41 32 36 19
16 17 10 34 34 29 30 31 25 4 4 3 1 1 3 1 1 3 1 1 2 1 1 1 0 0 0
19 19 17 86 87 81 70 70 63 46 47 37 28 28 21 21 21 16 30 32 20
42 45 28 58 61 42 77 81 59 85 90 64 93 99 69 108 116 83 116 123 91
114 121 89 115 122 90 119 126 93 123 128 96 134 132 104 136 128 101
121 122 91 101 105 75 85 89 59 81 86 56 83 88 57 87 92 61 92 97 66
105 110 78 111 116 84 112 117 85 114 119 87 115 120 88 113 118 86
116 121 89 118 123 91 117 121 89 114 119 88 114 111 86 104 108 79
103 107 77 96 100 74 96 100 72 102 107 75 105 110 79 102 106 75
94 98 67 91 96 65 87 93 61 83 89 58 75 82 50 73 79 49 78 82 57
83 89 58 85 92 59 85 92 59 85 92 59 87 94 61 86 93 60 89 96 63
91 98 65 88 94 61 85 91 65 87 93 67 95 101 76 100 106 79 96 102 73
89 95 69 86 92 66 70 76 50 68 74 48 68 74 48 68 74 48 66 72 46
61 66 41 63 67 42 64 68 40 64 66 36 60 65 34 57 62 31 65 71 40
78 84 53 79 84 53 100 105 73 98 103 71 105 110 78 104 109 77
104 109 78 105 110 80 102 109 82 62 69 42 51 57 30 47 53 29 45 50 27
43 46 25 36 41 18 35 40 17 47 53 30 53 58 36 53 59 36 49 57 34
48 57 33 51 58 36 51 59 36 55 63 40 56 64 41 55 63 40 55 63 40
57 65 42 60 68 45 59 67 43 61 70 43 60 69 42 62 71 44 62 71 43
62 71 42 63 71 41 64 71 39 62 70 40 61 71 43 65 74 45 66 75 46
65 74 45 67 76 48 69 78 49 62 71 43 56 65 37 57 66 38 58 68 39
57 65 34 54 61 29 49 56 29 49 56 30 47 56 29 48 56 30 54 62 35
59 65 38 49 56 31 48 55 32 49 56 33 51 58 35 54 61 38 55 64 40
54 57 36 36 30 12 29 21 8 28 23 12 31 28 14 45 40 23 65 62 44
63 62 43 57 58 35 51 57 29 65 71 45 79 87 58 72 82 48 62 71 39
62 69 43 57 62 39 61 63 36 59 60 34 57 58 36 61 62 40 66 70 48
75 52 40 91 9 11 101 12 10 108 25 5 119 45 8 134 64 10 136 66 15
115 45 12 103 29 4 91 13 7 87 9 5 98 22 7 99 21 9 88 14 5 95 23 5
98 24 4 103 31 6 107 36 5 107 39 7 97 28 6 95 27 4 100 31 6 88 12 10
84 3 5 88 5 6 91 8 8 100 18 9 116 36 10 131 54 11 124 52 7 122 52 6
126 61 6 142 77 11 154 89 23 172 111 37 171 115 34 172 116 37
150 97 34 137 84 33 91 50 15 14 14 15 15 17 14 20 17 12 41 39 40
61 62 57 85 85 82 110 110 108 130 131 127 138 139 136 159 160 158
173 173 171 179 179 177 170 171 168 119 120 117 81 82 80 65 65 65
56 58 55 56 57 54 62 64 61 75 77 75 100 102 101 157 158 161
178 179 182 173 175 176 168 170 166 145 147 145 133 135 132
119 121 118 96 98 95 70 71 68 49 51 49 24 26 23 14 15 10 12 13 8
40 39 30 81 83 57 90 90 63 83 87 57 88 94 63 87 94 61 88 93 66
84 88 62 89 93 68 95 99 74 91 95 70 83 89 61 90 97 63 91 98 66
93 100 68 103 109 80 106 112 85 86 90 71 73 77 61 83 87 69 70 74 55
44 46 38 33 34 28 31 32 22 46 39 27 46 41 24 34 36 24 23 20 12
27 22 12 35 31 24 43 37 26 49 42 27 27 26 16 23 22 9 44 41 22
59 52 35 51 43 23 48 41 22 30 48 14 30 62 17 33 60 21 31 28 15
52 57 39 72 77 57 81 85 57 74 79 54 53 55 38 21 20 8 26 26 11
65 67 51 89 91 73 92 96 70 93 97 73 92 96 73 88 92 67 73 78 52
65 72 38 54 59 41 32 34 27 24 25 19 22 23 17 18 18 15 4 4 4 0 0 2
1 1 2 1 1 1 0 0 0 19 19 17 91 93 87 98 99 89 105 107 91 86 86 73
48 49 42 30 31 27 23 24 19 23 24 15 31 33 21 49 51 37 84 87 67
110 116 90 115 119 93 114 117 91 110 117 90 111 119 89 120 124 93
126 125 96 132 132 104 134 133 108 119 120 90 107 109 78 97 102 71
90 94 63 86 90 60 81 86 58 81 86 55 91 96 64 106 111 79 109 114 82
110 115 83 109 115 83 110 115 84 112 116 86 110 115 84 109 114 85
108 112 85 104 107 81 101 104 78 96 99 75 93 97 72 92 97 68 93 97 69
92 98 68 93 100 67 93 98 70 93 98 69 94 101 68 88 95 62 81 88 57
85 90 63 87 93 62 85 92 58 85 92 59 89 96 63 85 92 59 83 90 57
82 89 56 82 89 56 83 90 57 93 99 73 96 102 76 99 105 79 96 102 76
94 100 74 91 97 71 68 74 48 60 66 40 63 69 43 64 70 44 65 71 45
66 72 46 68 74 48 64 70 44 60 65 40 56 61 36 53 59 33 55 61 35
66 72 46 68 74 48 73 79 51 76 81 49 76 81 49 86 91 59 84 89 57
83 88 56 84 88 61 69 77 53 50 61 36 49 56 32 37 41 18 36 40 17
37 41 17 37 41 18 43 47 24 49 53 30 50 52 31 52 53 32 47 53 31
52 61 38 59 67 44 58 66 43 55 63 40 55 63 40 54 62 39 55 63 40
55 63 40 53 61 38 53 61 37 62 71 44 62 71 44 61 70 43 60 69 42
59 68 37 61 70 37 61 65 40 56 60 35 51 62 35 56 65 38 57 66 39
55 64 34 56 65 35 54 63 33 50 58 33 48 56 31 44 54 26 39 49 22
43 47 22 52 56 32 58 61 37 59 64 39 56 62 36 65 71 46 79 85 58
82 87 56 46 49 35 29 30 24 38 38 26 50 51 40 48 49 42 40 42 34
37 39 29 28 29 20 31 27 11 37 34 20 44 41 25 45 43 22 47 44 23
46 44 22 49 50 26 60 62 37 65 69 44 65 71 41 62 74 38 60 70 40
57 66 36 56 64 34 57 64 32 58 63 32 62 66 38 65 71 42 69 79 49
78 83 55 94 45 33 114 31 18 125 54 12 136 66 6 140 72 8 150 82 17
150 82 22 131 62 7 107 30 11 93 13 7 105 27 9 108 33 9 100 25 9
83 5 6 81 5 8 78 3 8 78 5 6 73 2 4 68 0 3 70 0 2 69 0 2 67 0 2 67 1 2
68 1 2 71 2 2 72 3 3 78 7 3 86 11 6 100 26 8 114 41 8 120 48 14
103 29 10 109 38 11 127 57 11 135 70 16 154 91 31 131 85 33 80 51 24
15 16 17 17 18 19 33 34 33 61 62 60 91 91 93 107 107 107 126 126 124
131 131 129 136 136 134 146 147 144 159 162 159 172 175 171
186 188 185 142 144 141 56 58 55 62 62 60 118 118 116 114 115 114
114 115 112 116 116 113 101 103 100 44 46 42 99 102 98 178 181 176
177 179 175 165 167 164 152 154 151 140 142 139 131 133 130
128 130 127 112 114 111 98 99 101 70 71 74 44 46 42 22 24 22 13 13 11
35 31 21 85 73 44 86 87 52 87 87 59 82 87 61 74 74 52 75 78 51
88 92 65 91 96 71 81 86 60 70 76 49 84 91 61 92 99 68 92 98 70
93 99 70 93 100 72 90 96 67 76 82 57 71 75 54 76 79 57 61 64 44
45 47 35 40 42 32 59 60 40 50 47 28 38 38 26 38 36 20 42 37 22
34 30 18 39 34 30 41 38 23 45 42 23 27 23 15 36 33 17 58 59 36
65 64 44 53 46 31 29 49 18 22 56 12 27 52 15 28 25 10 32 33 20
45 48 34 65 65 39 66 69 43 40 41 29 13 11 3 19 19 5 44 45 38 59 61 49
83 87 65 91 95 72 93 96 74 94 98 74 84 89 62 71 78 45 71 76 54
69 71 64 28 29 24 20 21 16 17 18 15 8 8 8 0 0 0 1 1 1 1 1 1 0 0 0
17 17 16 81 82 79 88 90 78 103 105 87 100 103 86 91 92 86 98 98 94
85 85 82 49 50 43 27 28 21 23 23 22 32 33 30 52 54 40 88 88 71
116 115 94 119 123 100 115 117 93 115 114 90 123 112 90 122 116 90
121 118 96 117 120 95 117 120 93 119 123 98 113 115 89 100 103 75
80 88 55 72 79 46 72 79 46 80 86 53 88 95 62 96 103 70 104 111 77
109 115 85 110 113 89 107 111 86 104 108 82 102 106 81 101 105 80
97 101 76 93 96 72 92 98 68 92 99 66 93 100 67 93 100 67 93 100 67
93 100 67 93 100 67 93 100 67 92 98 66 93 99 67 95 101 68 98 105 72
95 102 69 90 97 64 92 99 66 97 104 71 96 103 70 92 99 66 87 94 61
85 92 59 85 91 65 88 94 68 89 95 69 98 104 78 99 105 79 80 86 60
69 75 49 71 77 51 71 77 51 72 78 52 75 81 55 78 84 58 69 75 49
59 65 39 63 69 43 64 69 43 68 74 48 70 76 50 72 77 51 73 78 53
76 81 53 77 82 50 95 100 68 106 111 79 104 109 77 95 100 69 92 96 70
52 58 35 45 57 32 38 44 20 34 35 13 36 38 15 37 40 14 37 40 15
39 42 18 37 40 16 40 39 21 46 46 29 44 45 30 53 58 39 55 62 39
54 63 40 56 64 41 55 63 40 53 61 38 53 61 38 44 52 29 37 45 22
41 50 26 55 64 37 53 62 35 52 61 34 50 59 32 48 58 29 47 57 27
47 53 29 47 55 29 44 56 28 46 54 30 46 54 29 44 52 26 43 51 29
43 51 28 48 57 32 59 69 42 68 80 51 71 82 54 83 88 60 82 86 57
83 88 58 82 88 58 88 93 63 89 94 64 81 87 56 80 86 53 50 54 40
32 36 30 38 41 32 37 39 27 35 37 25 35 34 23 36 34 22 37 36 24
47 46 23 49 42 22 47 40 21 44 42 22 45 43 27 43 42 32 54 55 36
82 86 60 81 85 61 68 74 44 62 74 38 58 69 36 55 62 30 53 56 25
52 53 22 49 48 18 62 59 30 74 78 47 74 80 47 78 89 53 89 80 52
103 23 16 116 37 13 133 60 8 148 78 16 150 89 20 163 104 27 151 93 20
136 71 9 128 59 6 136 67 8 137 70 7 134 64 13 95 17 8 79 3 6 75 1 3
74 0 1 69 1 1 67 1 2 67 0 1 66 0 1 65 1 1 66 1 1 65 1 1 66 1 1 67 1 1
68 0 3 83 9 6 108 36 7 116 46 6 114 43 4 109 36 3 106 35 5 105 34 4
112 39 6 118 45 8 68 40 21 10 10 11 22 22 26 61 60 61 77 78 75
94 96 92 108 109 106 107 109 107 125 127 124 138 139 137 142 144 141
147 149 146 160 162 159 173 175 172 189 191 188 127 129 126 44 46 43
72 74 70 137 135 133 139 140 136 136 142 138 136 140 139 117 119 116
45 48 44 76 79 75 176 178 174 177 179 176 165 167 164 153 155 152
147 149 146 139 141 138 129 131 128 111 113 110 106 108 105 97 99 98
83 84 82 69 71 67 34 36 33 7 11 11 40 27 16 93 66 30 88 88 52
86 91 65 39 36 20 48 47 30 84 86 62 78 80 61 68 72 49 63 69 42
80 87 58 93 100 67 92 99 69 91 98 74 89 96 75 88 92 70 77 83 58
71 76 52 76 80 59 67 71 50 62 63 52 68 69 58 73 74 50 64 57 31
87 83 66 74 63 46 81 72 54 62 58 39 36 31 21 22 17 8 24 23 6 26 24 9
26 24 7 33 30 12 51 51 36 56 57 45 42 53 35 31 52 19 27 47 15 26 25 9
24 27 19 35 33 24 47 44 23 51 49 25 33 33 23 8 6 4 4 7 2 59 62 48
73 75 57 82 84 62 91 95 72 92 95 73 85 90 65 86 92 66 82 88 61
86 91 66 79 81 68 31 32 23 19 20 13 13 14 10 7 7 6 0 0 0 1 1 1 1 1 1
0 0 0 17 17 16 80 79 78 85 88 74 102 106 84 98 100 84 88 90 82
107 108 102 124 124 121 113 115 102 90 92 72 61 63 52 27 29 22
21 23 13 21 26 17 35 39 29 60 58 48 102 92 79 123 116 98 125 120 98
125 114 92 119 112 92 114 113 90 111 114 89 110 115 87 109 112 85
108 112 84 104 110 77 79 86 53 60 67 34 54 61 28 60 67 34 72 79 46
77 84 51 94 100 71 106 109 85 102 107 82 98 103 78 96 100 75 94 98 73
92 97 71 91 97 67 91 98 66 92 99 66 93 100 67 93 100 67 93 100 67
93 100 67 93 100 67 93 100 67 88 98 66 81 92 61 85 95 64 97 106 73
109 115 82 104 111 78 95 102 69 91 98 65 95 102 69 98 105 72
98 105 72 104 111 78 81 87 61 85 91 65 93 99 73 96 102 76 88 94 68
73 79 53 74 80 54 73 79 53 72 78 52 76 82 56 82 88 62 83 89 63
79 85 59 84 90 64 82 88 62 82 88 62 81 87 61 76 81 55 77 80 55
78 82 58 81 86 58 92 97 65 109 114 82 108 113 81 100 106 73
102 108 76 82 86 60 49 53 31 44 54 31 34 40 18 38 34 16 36 33 16
36 33 18 35 31 16 32 28 15 30 26 12 37 29 21 40 35 24 40 38 22
50 54 34 49 57 34 51 59 35 51 59 36 48 56 33 44 52 29 42 50 27
39 47 24 41 49 26 48 55 31 51 59 32 51 59 32 49 57 31 47 56 29
46 55 28 46 56 29 46 54 31 43 51 28 48 56 32 56 63 40 59 67 41
68 77 47 68 76 52 72 80 56 84 93 67 89 97 70 85 94 66 82 94 64
85 91 61 84 88 56 83 88 55 85 90 58 89 94 62 85 89 57 75 81 48
72 81 45 61 67 50 49 54 45 49 53 41 21 24 12 19 20 8 26 23 11
29 24 13 33 25 16 43 37 24 41 38 24 42 38 27 41 39 31 46 43 39
62 64 53 68 70 51 78 83 55 79 83 58 71 77 48 61 72 39 57 69 36
47 51 20 44 40 12 48 44 16 53 50 22 59 56 27 76 81 49 78 83 51
78 89 53 80 89 55 100 61 40 142 77 23 156 95 18 186 128 41 194 152 57
213 171 71 212 171 67 193 146 49 173 117 33 149 86 20 132 70 9
104 36 8 80 5 4 73 1 1 73 0 1 72 0 1 71 1 2 69 1 2 69 1 1 69 1 1
69 1 2 69 1 2 69 1 3 70 2 3 73 4 4 89 21 8 109 38 8 128 56 10
121 53 6 119 39 5 120 35 10 118 35 7 112 37 7 113 44 8 75 33 7
15 13 12 22 22 23 62 62 64 78 78 78 88 89 85 99 101 98 104 106 103
105 107 104 124 126 123 135 137 134 141 143 140 148 150 147
159 161 158 173 175 172 190 192 189 125 127 124 45 47 44 79 80 77
145 142 140 150 146 139 148 148 142 146 149 142 123 126 122 50 51 48
72 74 70 175 177 174 178 180 177 166 168 165 153 155 152 147 149 146
138 140 137 129 131 128 111 113 110 103 105 102 100 102 99 92 94 91
80 82 79 65 68 65 40 43 42 13 12 11 47 25 11 105 71 27 107 97 58
58 59 40 41 38 27 87 89 66 75 77 58 55 57 39 60 64 41 82 89 58
93 100 66 91 99 69 90 99 72 87 95 71 82 85 64 81 86 67 83 88 66
77 83 60 72 76 55 65 68 52 70 72 58 85 88 63 85 86 56 100 99 81
120 107 90 111 97 80 77 72 53 38 33 17 21 17 4 21 20 2 24 23 5
35 33 15 32 28 13 27 22 11 32 31 22 41 40 34 46 48 30 41 46 21
28 31 21 17 23 13 19 20 13 30 29 19 45 39 21 36 31 22 23 16 14
16 15 7 63 67 44 86 89 64 84 86 61 90 93 68 91 95 70 70 79 52
70 81 50 73 84 52 86 93 63 93 99 73 51 52 42 26 27 20 8 8 4 5 5 4
0 0 0 1 1 1 1 1 1 0 0 0 17 17 16 80 80 77 86 89 75 102 107 85
97 99 83 89 90 83 99 102 89 109 112 98 112 114 95 106 109 82 99 99 75
68 70 42 51 54 33 30 33 22 28 26 18 22 23 18 31 30 20 52 50 37
85 84 68 115 112 89 111 111 87 110 111 86 112 116 91 110 114 86
107 110 82 107 110 82 98 103 71 86 92 60 80 87 55 67 74 41 60 67 34
64 71 38 63 70 37 64 70 40 73 77 52 77 83 56 80 86 59 84 89 63
90 94 69 91 96 69 91 98 66 93 100 67 93 100 67 93 100 67 93 100 67
94 101 68 93 100 67 92 100 67 93 100 67 89 97 67 84 92 64 81 90 61
81 90 58 89 95 63 92 99 66 95 102 69 96 103 70 91 98 65 91 98 65
92 99 66 94 101 68 80 86 60 81 87 61 79 85 59 76 82 56 73 79 53
73 79 53 75 81 55 77 83 57 82 88 62 88 94 68 93 99 73 100 106 80
106 112 86 102 108 82 95 101 75 96 102 76 92 96 71 94 97 72 96 99 72
99 103 76 101 105 76 103 108 76 104 109 77 105 110 78 104 111 77
99 105 75 50 55 35 38 41 26 39 41 24 36 36 20 38 33 21 29 26 13
28 24 11 27 24 15 27 23 18 28 22 21 35 27 26 33 29 21 37 37 18
45 48 26 43 46 25 41 45 22 38 44 21 37 46 23 42 50 27 45 53 30
55 63 40 56 66 41 58 63 40 54 58 35 53 57 33 52 57 31 56 60 35
66 73 47 80 90 63 94 98 71 103 107 79 113 117 88 105 109 84
105 111 84 100 109 80 83 89 67 81 85 65 77 82 61 75 77 63 76 77 66
83 87 59 86 91 59 88 93 61 90 95 63 89 94 62 84 89 57 84 89 57
76 81 49 73 79 46 71 77 47 57 63 35 60 65 34 39 42 20 39 37 15
40 33 17 28 20 6 30 22 5 32 27 16 29 29 19 29 37 26 41 43 37 49 51 37
63 66 44 62 65 41 58 68 38 64 72 45 63 72 45 58 68 41 59 70 42
60 65 38 79 76 51 87 87 61 81 83 55 84 89 57 90 95 63 99 104 72
102 107 74 92 97 66 100 102 66 178 145 57 199 154 51 214 168 65
212 175 67 222 186 78 219 183 73 215 176 70 197 150 50 168 108 30
142 74 18 118 47 5 102 26 9 89 14 7 81 7 7 80 4 5 79 2 3 75 1 1
72 2 2 73 3 4 73 3 5 80 9 4 87 15 7 85 10 8 103 29 8 128 57 17
136 66 11 132 63 11 123 56 7 122 47 12 105 22 8 109 24 11 108 40 18
77 41 22 19 16 11 31 32 31 69 70 67 73 76 72 77 79 76 87 89 86
97 99 96 98 100 97 104 106 103 123 125 122 133 135 132 142 144 141
148 150 147 160 162 159 172 174 171 184 186 183 126 128 125 58 58 56
90 89 87 156 148 144 164 149 136 165 149 136 162 150 137 131 133 126
60 61 57 84 84 81 172 172 170 179 179 176 166 168 165 151 153 150
146 148 145 137 139 136 127 129 126 111 113 110 100 102 100 98 99 97
93 95 92 81 83 80 73 75 72 71 73 70 48 48 46 12 12 11 49 36 18
137 105 42 123 100 42 73 60 38 81 96 68 76 85 63 54 57 39 60 65 42
81 87 63 92 99 66 92 99 70 90 99 73 88 94 71 79 83 65 83 87 71
89 94 69 84 90 60 83 86 63 74 77 59 69 69 63 83 86 64 93 98 67
89 91 75 116 110 102 128 118 99 107 100 75 68 69 46 32 33 17 25 24 5
48 46 27 52 49 31 44 40 25 35 31 23 22 22 16 24 24 8 41 42 28
43 44 33 34 34 27 19 24 17 17 22 15 21 21 11 30 23 9 31 23 11
29 22 13 28 24 6 56 57 36 74 76 55 80 82 56 88 93 63 91 96 68
68 79 49 66 80 44 67 79 45 57 58 32 61 61 35 47 46 37 29 29 26 1 0 0
1 1 1 0 0 0 1 1 1 1 1 1 0 0 0 17 17 16 80 80 77 86 89 75 103 107 83
100 103 84 96 99 81 97 100 82 103 106 86 104 107 86 107 107 81
100 97 72 80 78 47 72 77 45 45 44 25 42 40 26 30 28 19 26 24 17
25 23 16 24 24 17 32 33 26 48 48 38 70 72 56 83 87 65 84 88 63
84 87 62 95 97 73 102 107 82 90 95 70 83 88 62 80 87 54 76 83 50
63 70 37 58 65 32 54 61 28 53 60 27 57 64 31 62 69 36 65 72 39
65 72 39 72 78 48 81 86 59 83 89 57 86 92 59 87 94 61 90 97 64
90 97 64 87 95 61 90 99 67 90 99 71 89 98 69 86 95 66 84 93 64
86 95 66 84 93 63 84 91 58 87 94 61 87 94 61 84 91 58 85 92 59
83 90 57 74 81 48 59 65 39 56 62 36 59 65 39 71 77 51 74 80 54
77 83 57 84 90 64 91 97 71 98 104 78 101 107 81 106 112 86 109 115 89
109 115 89 110 116 90 113 119 93 110 116 90 107 111 86 109 112 85
109 110 81 106 106 78 104 107 77 102 107 75 101 105 73 94 100 68
92 98 68 73 79 51 43 48 25 48 52 30 37 41 18 34 36 13 34 31 11
28 25 6 28 25 9 26 22 14 24 20 15 27 22 16 38 33 21 37 35 18 37 37 17
38 38 18 37 38 17 36 40 17 35 39 16 46 53 29 50 58 35 49 57 34
48 58 33 47 57 32 50 54 31 46 50 27 55 58 34 80 84 59 82 86 61
105 110 85 114 118 92 115 119 90 117 119 91 112 115 86 104 108 82
92 97 71 84 92 65 76 83 65 73 80 63 64 72 52 64 69 49 73 79 54
90 100 66 90 99 66 90 98 64 93 98 66 95 100 68 94 99 67 98 103 71
93 98 66 90 97 64 86 93 61 69 75 42 71 77 45 57 59 30 50 45 23
45 42 23 34 32 14 43 38 19 47 48 28 45 50 30 45 55 32 50 56 36
54 58 37 52 56 35 50 56 32 50 60 30 62 73 45 66 76 49 72 82 55
81 91 64 91 97 71 97 100 74 76 82 53 84 89 61 102 106 78 102 108 79
111 116 87 112 116 87 103 107 78 94 99 71 156 144 75 215 173 65
202 158 53 192 147 43 182 136 34 174 127 35 176 132 31 179 130 34
173 115 33 155 92 21 141 77 12 131 60 11 114 38 12 100 19 17 94 9 15
95 10 10 92 12 6 91 17 3 103 31 8 108 36 8 113 43 5 115 45 8 110 40 6
128 60 15 149 83 24 143 76 14 130 63 6 114 47 3 115 39 5 108 26 8
101 14 12 58 18 20 19 14 16 26 26 23 54 55 56 73 74 69 73 75 71
76 78 75 85 87 84 89 91 88 96 98 95 105 107 104 116 118 115
125 127 124 141 143 140 148 150 147 158 160 157 161 163 160
166 168 165 133 135 132 81 82 79 97 97 94 142 144 140 148 150 147
147 151 151 148 148 143 128 129 124 79 80 77 107 107 107 160 160 160
166 166 165 162 164 161 149 151 148 145 147 144 133 135 132
122 124 121 109 111 108 99 101 98 89 91 88 86 88 85 81 83 80 73 75 72
73 75 71 62 64 62 36 39 37 16 19 18 39 26 22 139 96 48 136 94 44
99 84 48 90 90 76 66 69 55 67 69 55 85 87 72 90 98 70 90 100 72
91 99 74 89 95 73 79 83 67 78 81 72 87 92 73 92 98 71 89 94 66
78 81 61 68 69 64 83 86 65 92 97 65 91 93 73 111 112 103 141 130 111
120 115 89 86 90 65 82 84 63 64 66 46 64 66 45 81 84 61 67 70 45
42 42 29 34 34 31 35 37 20 46 42 32 50 46 35 44 41 18 24 25 15
22 26 14 30 30 16 41 35 19 30 25 5 34 27 9 46 38 21 57 54 36 64 69 37
64 68 38 84 87 66 94 97 75 70 79 48 70 78 45 70 80 47 47 55 25
43 38 8 29 25 14 23 23 17 5 6 5 1 1 1 0 0 0 2 2 1 3 3 2 0 0 0
17 17 16 81 81 73 88 89 73 104 107 79 103 108 77 103 107 79 96 98 81
97 98 87 101 103 83 108 107 81 104 97 72 89 70 42 77 70 38 49 43 20
47 42 24 29 25 16 24 20 14 28 24 17 30 24 20 25 24 20 23 23 17
24 25 15 30 32 22 47 49 36 76 78 59 93 95 74 96 98 77 94 96 72
86 91 63 79 86 53 74 81 49 62 69 36 58 65 32 62 69 36 67 74 41
68 75 42 66 73 40 64 71 38 63 70 37 79 86 53 88 95 65 76 85 53
74 83 51 77 84 51 75 82 49 75 82 49 78 84 52 83 90 58 82 90 60
86 96 65 87 97 65 80 90 58 85 94 62 89 96 65 86 93 60 85 92 59
89 96 63 88 95 62 86 93 60 89 96 63 87 94 61 64 70 44 67 73 47
70 76 50 74 80 54 76 82 56 86 92 66 88 94 68 90 96 70 92 98 72
91 97 71 102 108 82 99 105 79 109 115 89 119 125 99 116 122 96
111 117 91 109 113 88 113 116 88 121 116 87 120 114 86 108 107 77
103 107 75 95 99 67 80 85 54 77 83 55 56 62 37 50 55 31 48 52 27
39 43 19 41 44 22 39 36 17 35 33 13 36 33 15 33 29 19 33 29 21
37 34 20 41 39 21 40 39 17 42 41 21 44 43 23 46 50 28 51 55 32
54 59 36 51 61 36 53 61 38 56 64 40 55 64 39 53 63 39 44 48 25
42 43 21 63 63 39 88 90 63 85 89 64 112 116 91 121 124 99 113 116 90
105 107 79 103 106 80 85 89 65 80 85 58 76 82 54 67 75 49 68 76 50
68 76 50 75 81 55 86 92 60 100 103 70 102 104 72 107 110 79
115 120 88 115 120 88 110 115 83 112 117 85 102 108 75 93 100 67
93 99 66 88 94 61 89 97 63 80 82 51 69 71 45 71 75 53 61 65 43
60 61 40 56 60 37 52 60 36 55 63 40 52 63 38 48 57 34 52 56 35
54 61 37 53 63 33 68 77 50 75 84 57 82 91 64 104 113 86 103 110 84
87 91 66 90 94 69 100 104 79 94 101 75 92 99 73 103 108 82 113 116 89
112 115 88 110 114 88 119 116 84 142 103 39 153 96 22 152 94 24
148 89 18 131 73 9 139 75 10 135 73 12 145 88 22 147 88 22 143 83 16
121 55 10 107 29 10 97 11 13 91 6 11 101 17 12 108 28 11 110 35 9
111 36 8 105 29 8 107 34 6 119 49 7 133 66 9 150 85 18 156 92 19
144 78 12 135 70 7 125 62 5 104 26 7 87 6 4 62 11 8 19 12 10 21 19 16
48 49 45 61 62 64 70 72 71 72 74 70 73 75 72 77 79 76 86 88 85
88 90 87 98 100 97 112 114 111 118 120 117 118 120 117 111 113 110
107 109 106 91 93 90 84 86 83 86 88 85 85 87 84 93 95 92 107 109 106
112 116 114 121 124 122 109 110 107 104 106 103 87 88 85 89 90 88
86 86 86 86 86 85 103 105 102 106 108 105 114 116 113 119 121 118
118 120 117 104 106 103 91 93 90 87 89 86 82 84 81 75 77 74 72 74 71
71 73 70 65 66 63 54 56 53 32 36 36 8 15 13 38 29 21 107 52 13
113 47 7 104 63 41 88 82 60 82 87 67 87 91 72 82 90 70 88 95 74
90 99 69 90 96 72 80 83 70 79 83 73 83 88 70 93 97 76 90 96 70
81 85 65 75 77 65 83 87 67 92 96 71 93 97 70 107 111 84 132 128 103
125 120 99 92 96 75 81 84 63 81 84 63 69 73 50 73 77 52 82 86 61
77 81 60 59 62 50 46 46 29 50 45 34 51 46 37 46 42 29 31 24 8 27 22 7
32 31 15 50 44 26 53 47 27 49 44 24 46 41 22 55 50 38 61 62 46
72 77 45 87 89 75 99 100 89 72 80 53 72 77 45 70 80 46 42 58 24
32 44 9 24 22 10 23 21 14 19 20 17 5 5 5 1 1 1 2 3 1 8 9 4 11 12 8
22 22 18 77 78 66 87 88 71 105 107 80 102 107 75 102 107 75 97 100 77
90 92 82 92 85 72 95 83 52 100 87 59 94 66 42 82 62 36 35 26 9
36 27 16 27 20 11 21 18 11 26 23 16 29 23 17 37 35 31 39 38 34
29 29 23 25 25 19 24 25 17 31 31 21 48 49 34 71 72 55 90 93 70
95 99 72 92 98 71 86 93 60 76 83 51 71 78 46 74 81 48 74 81 48
76 83 50 82 89 56 75 82 49 70 77 44 69 76 44 73 82 53 77 86 57
77 86 56 82 89 56 81 88 55 79 86 53 75 82 49 73 80 47 72 79 46
75 81 49 76 82 49 76 82 49 79 86 53 84 91 58 86 93 60 81 88 55
81 88 55 88 95 62 87 94 61 85 92 59 83 90 57 78 84 58 76 82 56
73 79 53 73 79 53 75 81 55 76 82 56 79 85 59 82 88 62 83 89 63
94 100 74 100 106 80 106 112 86 115 121 95 116 122 96 118 124 98
118 124 98 118 123 98 115 121 94 109 118 89 101 111 82 93 101 70
94 100 67 84 90 58 83 87 60 70 74 49 50 54 31 51 55 32 48 54 30
50 55 32 45 50 27 37 35 15 37 34 15 41 37 19 44 44 25 45 46 28
47 50 28 53 56 34 60 63 41 67 70 48 73 76 53 76 80 56 77 81 56
77 82 57 75 80 55 78 83 58 70 74 48 68 70 44 60 61 41 32 32 12
28 27 8 67 64 42 99 95 68 104 101 76 123 126 100 132 127 103
116 118 91 103 106 80 102 107 82 86 90 65 82 87 61 82 89 62 91 95 70
97 100 76 107 111 87 116 120 94 116 119 92 117 117 88 121 116 86
116 114 84 108 112 80 106 111 79 108 113 82 111 116 84 110 115 83
109 114 82 106 111 79 97 97 67 93 93 62 90 87 57 74 80 49 71 77 50
58 66 36 56 63 35 58 61 39 57 61 39 57 60 39 51 57 34 49 58 33
55 59 36 58 65 40 58 67 39 72 81 54 98 107 80 103 112 85 99 108 81
96 104 77 105 111 85 114 118 93 112 117 91 99 106 80 99 104 79
104 109 82 112 115 83 114 114 85 112 113 85 107 113 81 92 81 56
85 22 10 108 34 8 116 45 6 118 48 3 114 42 4 99 25 4 99 26 6
101 29 10 92 21 11 79 10 4 81 6 1 75 2 3 73 0 1 76 1 1 82 7 5 80 6 3
77 2 1 86 8 3 106 34 6 124 56 11 138 68 13 151 88 15 144 80 9
137 73 6 132 67 4 136 68 9 105 43 14 41 14 9 17 15 9 24 25 21
45 46 40 50 52 49 57 58 56 61 63 61 66 68 65 70 72 69 74 76 73
76 78 75 86 88 85 88 90 87 77 79 76 64 66 63 56 58 55 57 59 56
67 69 66 72 74 71 72 74 71 73 75 72 77 79 76 77 79 76 77 79 76
79 81 78 87 89 85 78 80 77 77 79 76 76 78 75 76 78 77 72 74 73
72 74 73 70 72 69 63 65 62 55 57 54 59 61 58 70 72 69 84 86 83
88 90 87 79 81 78 73 75 72 71 73 70 70 72 69 64 66 63 57 59 55
53 55 55 45 46 48 36 39 40 12 9 7 43 19 8 111 44 9 113 46 6 107 52 12
102 79 48 96 98 66 79 84 68 80 88 75 89 98 70 90 97 72 88 93 74
88 93 72 91 97 69 91 97 73 90 94 75 88 92 75 84 90 63 81 88 57
87 93 65 93 99 74 97 104 76 120 121 90 117 116 94 92 96 72 75 79 58
55 57 44 54 59 36 62 67 44 74 79 56 83 88 64 84 87 65 68 70 46
50 50 32 49 44 39 50 42 37 44 36 20 34 25 12 37 31 16 64 64 40
64 61 40 55 56 37 39 40 26 61 60 47 64 64 50 91 93 72 86 88 76
87 89 81 73 77 53 68 74 41 59 71 37 41 54 24 28 45 12 22 22 10
21 17 10 19 17 14 7 7 7 0 0 0 1 2 1 8 7 4 19 14 10 26 25 16 57 62 44
76 76 57 109 106 81 107 106 78 105 106 75 103 105 79 98 101 82
94 83 68 85 65 34 86 64 34 78 59 33 74 58 34 32 23 6 33 18 10 24 14 9
21 17 10 27 23 16 28 23 18 41 39 36 48 48 44 51 51 47 59 59 55
44 46 41 29 30 25 24 25 18 23 25 16 33 34 24 52 52 38 74 77 57
92 98 67 89 96 64 83 90 61 77 84 54 80 87 55 92 99 66 97 105 71
98 105 72 87 94 61 77 84 51 72 79 47 70 78 48 71 80 50 76 83 50
76 83 50 79 86 53 79 86 53 76 83 50 76 83 50 79 85 52 75 82 49
68 75 42 68 75 42 73 80 47 73 80 47 69 76 43 66 73 40 69 76 43
75 82 49 76 83 50 73 80 47 83 89 63 76 82 56 74 80 54 73 79 53
74 80 54 73 79 53 78 84 58 81 87 61 92 98 72 102 108 82 103 109 83
115 121 95 114 120 94 111 117 91 111 117 91 106 112 86 103 109 83
99 106 79 96 105 76 90 99 70 89 97 68 90 98 66 90 96 65 91 95 69
63 67 43 55 60 36 51 56 32 42 47 23 41 44 21 38 42 18 41 42 18
51 52 30 71 70 51 86 89 63 84 88 61 74 78 52 87 92 65 86 90 64
84 88 64 79 83 58 66 70 44 61 63 38 77 79 53 88 91 64 83 87 61
66 68 43 59 60 36 51 53 31 43 45 24 50 52 32 105 95 74 128 114 89
124 119 93 118 120 91 115 118 90 106 110 84 99 103 78 94 98 74
83 87 62 81 85 60 90 96 70 108 113 87 104 108 83 113 117 92
115 119 93 112 115 89 102 106 77 97 96 67 98 97 69 102 106 76
105 110 79 109 115 82 112 117 85 108 113 81 99 104 72 96 101 69
93 95 64 92 87 58 85 83 54 60 69 36 56 66 33 55 63 30 51 54 25
50 52 27 52 55 32 52 55 34 54 59 36 60 70 45 67 71 48 69 77 51
70 79 52 77 86 59 99 108 81 98 107 80 99 108 81 107 115 88 105 112 86
108 113 88 111 116 90 108 114 88 110 115 90 112 115 89 115 112 83
118 111 87 117 109 87 97 103 71 99 102 72 87 32 25 101 22 5 106 29 6
107 29 5 94 17 6 82 6 4 77 3 0 74 1 2 71 0 1 70 0 2 72 1 1 69 1 3
69 1 1 71 0 2 73 0 2 73 1 3 75 1 2 81 6 6 109 37 8 126 58 11
135 71 15 163 103 27 165 108 26 150 92 19 139 75 8 139 73 12 82 47 16
17 12 8 14 21 18 37 38 33 42 44 39 45 47 46 49 51 49 59 61 58
65 67 64 67 69 66 67 69 66 67 69 66 63 65 62 60 62 59 48 50 47
51 53 50 51 53 50 51 53 50 56 58 55 67 69 66 72 74 71 72 74 71
72 74 71 78 80 77 84 86 83 84 86 83 86 88 85 85 87 84 82 84 81
75 77 74 74 76 75 73 75 73 70 72 71 58 60 57 55 57 54 52 54 51
53 55 52 47 49 46 56 58 55 62 64 61 65 67 64 66 68 65 69 71 68
68 70 67 62 64 61 53 54 54 45 46 50 44 45 48 38 39 44 28 30 31
15 13 10 48 21 10 85 28 7 105 27 6 108 33 8 85 59 35 77 83 59
83 89 72 88 96 71 88 97 69 91 95 72 92 98 71 93 100 66 90 95 67
85 90 66 89 93 77 96 102 81 81 86 63 73 78 54 78 83 57 90 96 65
94 100 66 101 107 77 95 98 72 85 89 67 64 66 49 43 47 23 61 65 44
74 78 55 82 87 56 83 87 58 63 66 49 51 49 29 49 45 28 58 53 37
49 45 28 45 40 26 49 45 32 71 72 52 67 69 45 58 62 40 40 41 24
71 74 53 81 85 62 80 82 65 84 85 76 77 77 70 60 66 41 57 65 32
50 64 30 29 47 16 20 39 10 22 21 12 17 15 8 12 11 6 9 10 6 4 5 3
1 2 0 7 4 2 24 12 11 30 26 20 60 62 48 73 73 55 109 105 86 112 107 86
118 109 83 108 105 80 107 106 85 93 86 64 74 59 31 78 60 34 71 54 30
62 48 28 18 11 5 21 13 6 24 16 10 20 16 8 27 24 14 30 26 16 41 39 32
47 45 39 55 53 47 78 75 72 77 75 74 63 64 59 47 48 43 32 34 29
25 25 20 25 25 17 27 29 18 43 46 30 63 68 51 68 73 50 70 76 48
72 79 45 76 82 50 82 89 58 90 96 64 89 97 64 85 92 59 79 86 53
74 82 51 72 80 49 74 80 48 73 80 47 75 82 49 74 82 51 83 91 60
88 96 64 86 94 63 82 90 58 83 91 59 80 87 55 74 81 48 73 80 47
74 81 48 73 80 47 72 79 46 72 79 46 73 80 47 73 80 47 79 85 59
77 83 57 80 86 60 78 84 58 78 84 58 82 88 62 83 89 63 89 95 69
100 106 80 101 107 81 98 104 78 95 101 75 93 99 73 98 104 78
99 105 79 102 108 82 106 112 86 110 117 90 96 105 76 89 98 69
89 98 69 76 85 56 76 84 52 65 71 44 55 59 36 58 64 38 55 61 35
58 62 37 69 74 48 99 102 77 113 114 87 118 119 95 121 124 103
119 123 99 110 115 90 107 113 87 104 111 85 78 83 57 73 77 52
61 64 38 48 51 23 53 55 29 63 64 35 63 64 32 53 53 27 35 34 11
31 28 8 56 59 31 85 89 61 87 91 68 115 118 89 119 122 90 110 115 83
101 106 74 99 104 78 82 88 65 75 80 58 78 81 62 89 93 69 90 95 70
93 99 73 94 99 74 92 96 71 111 115 90 118 122 98 113 117 92 73 77 50
75 76 50 95 95 69 108 111 84 109 112 83 108 113 80 103 108 76
100 105 73 106 111 79 108 113 81 93 98 66 80 84 52 75 83 50 57 67 33
52 63 29 52 55 24 47 42 13 47 43 18 54 54 29 59 63 40 62 68 45
72 82 57 80 84 61 80 88 62 82 91 64 83 92 65 88 97 70 89 98 71
89 98 71 94 103 76 96 105 78 101 108 82 97 103 77 96 102 76
105 110 85 112 115 88 113 114 83 114 114 85 114 113 85 109 115 81
108 117 82 101 83 59 102 24 10 97 14 8 96 10 3 88 9 7 73 2 3 71 0 2
71 0 1 71 0 0 73 0 1 72 0 2 69 1 2 72 0 2 74 2 3 78 4 4 85 10 11
104 27 14 108 34 9 120 51 12 164 100 28 174 117 31 173 118 30
192 136 46 178 126 45 160 99 32 103 62 34 17 14 11 14 16 10 24 29 22
34 37 32 39 42 36 46 48 45 49 51 48 56 58 55 65 67 64 60 62 59
56 58 55 49 51 48 42 44 41 42 44 41 48 50 47 54 56 53 60 62 59
65 67 64 70 72 69 79 81 78 84 86 83 89 91 88 94 96 93 97 99 96
103 105 102 103 105 102 102 104 101 102 104 101 101 103 100 96 98 95
94 96 92 84 87 83 81 84 80 70 72 69 67 69 66 65 67 64 57 59 56
50 52 49 42 44 41 40 42 39 45 47 44 53 55 52 58 60 57 63 65 62
62 64 61 52 54 51 45 46 47 43 45 49 37 37 42 35 36 36 21 22 23 8 7 7
29 10 6 74 5 4 82 4 2 62 3 3 63 16 13 78 55 43 93 93 74 95 98 69
90 94 74 90 98 73 91 101 67 91 97 66 85 91 62 86 92 67 96 101 79
83 87 73 67 72 46 65 69 40 87 92 61 119 112 85 109 109 79 110 113 84
97 102 74 85 90 61 62 66 36 65 67 46 71 78 54 74 81 48 76 82 49
51 53 41 44 41 28 48 44 25 69 68 45 64 65 51 56 53 44 58 57 49
85 86 73 74 77 61 62 65 43 46 42 23 76 79 57 86 90 67 65 68 54
81 83 71 85 89 70 55 67 36 43 55 21 27 51 14 33 46 16 23 36 8
19 21 12 15 17 9 10 11 5 12 13 8 10 11 6 13 14 9 13 13 9 21 13 11
33 28 26 75 80 71 83 84 69 107 104 83 115 110 85 133 118 93
115 104 86 99 100 82 89 85 62 68 57 30 64 54 27 56 47 19 51 44 23
14 10 5 14 9 5 25 21 11 26 22 10 33 28 16 34 30 17 44 39 20 49 45 25
52 48 29 63 60 48 70 66 65 74 75 68 73 75 68 68 70 65 58 60 55
42 42 38 27 29 22 23 25 19 22 25 18 28 31 21 39 44 25 56 62 34
69 75 47 72 79 47 75 81 51 82 88 59 89 95 66 84 91 62 79 85 54
74 81 48 72 79 46 69 76 43 66 73 40 62 71 42 65 74 45 76 85 56
88 97 68 88 97 68 90 99 70 93 101 69 92 99 65 95 102 69 98 105 72
95 102 69 88 95 62 81 88 55 76 83 50 74 81 48 69 75 49 69 75 49
70 76 50 68 74 48 78 84 58 91 97 71 89 95 69 92 98 72 95 101 75
94 100 74 93 99 73 92 98 72 92 98 72 92 98 72 95 101 75 113 119 93
120 126 100 114 120 94 88 95 68 84 90 64 75 81 55 63 70 43 61 68 41
87 93 67 105 109 87 104 109 84 98 104 78 98 104 78 105 111 85
114 119 94 113 117 91 111 115 90 111 114 90 111 116 90 111 117 91
111 116 90 91 98 72 63 69 42 64 70 43 76 81 55 79 86 59 72 78 51
47 47 19 46 41 12 47 41 17 48 43 19 51 48 24 79 81 53 90 94 65
89 95 63 102 108 76 102 107 75 102 106 74 100 104 73 100 105 75
84 89 58 79 84 55 89 93 68 99 103 78 100 104 79 98 104 78 97 101 76
99 103 78 110 114 89 113 117 92 107 111 86 97 101 76 101 105 79
103 107 79 95 98 72 95 99 70 96 102 69 98 103 71 101 106 74 98 105 72
95 102 69 83 89 57 69 75 42 68 73 41 58 55 26 48 45 21 47 44 20
51 44 21 55 44 18 61 58 32 74 79 55 74 80 54 82 88 61 88 94 67
90 97 71 90 97 71 87 96 69 87 96 69 89 98 71 89 99 72 99 108 81
108 117 90 108 115 88 94 99 74 90 96 70 98 103 78 108 114 87
105 110 78 101 106 73 99 104 72 96 102 69 90 99 65 90 96 62 92 39 28
89 8 8 87 11 6 87 10 13 79 3 7 75 1 5 75 1 5 75 2 5 75 2 5 73 2 4
70 0 2 79 5 6 90 12 7 102 19 11 97 15 12 116 40 17 136 68 11 132 67 8
160 102 29 197 152 54 198 154 53 198 156 53 191 151 57 99 79 48
27 28 21 8 12 7 23 24 21 28 30 27 32 32 30 37 37 34 42 44 41 49 51 48
55 57 54 57 59 56 47 49 46 40 42 39 41 43 40 51 53 50 53 55 52
63 65 62 67 69 66 79 81 78 84 86 83 90 92 89 95 97 94 95 97 94
98 100 97 99 101 98 100 102 99 101 103 100 100 102 99 99 101 98
100 102 99 100 102 99 100 102 99 100 102 99 99 101 98 98 100 98
95 97 94 85 87 84 83 85 82 71 73 70 65 67 64 57 59 56 52 54 51
43 45 42 39 41 38 44 46 43 53 55 52 59 61 58 52 55 51 45 47 44
39 40 39 33 35 33 30 32 29 27 28 27 14 17 18 10 12 7 43 30 19 67 10 8
72 2 2 68 0 2 66 1 1 74 36 30 92 91 68 91 101 76 93 98 74 92 99 69
92 99 65 89 96 62 85 92 62 91 97 73 83 87 65 71 76 48 66 71 41
94 97 66 141 128 103 141 131 104 118 118 89 108 111 81 90 96 65
67 75 45 63 70 45 66 75 47 68 76 43 65 70 42 47 46 40 41 37 34
42 41 31 66 68 42 68 68 57 68 69 60 73 74 64 92 92 86 85 86 78
71 72 60 36 34 17 77 81 57 95 99 71 77 80 59 85 87 68 89 94 65
58 67 37 42 54 23 27 45 12 42 47 19 45 45 21 31 29 21 16 17 11
11 11 7 14 14 11 14 15 11 19 20 14 17 18 13 15 16 11 30 30 26
80 81 73 86 87 72 106 106 84 110 109 80 130 116 93 113 100 90
91 93 80 81 83 64 67 67 36 61 60 27 49 44 17 47 38 22 19 14 7 18 12 7
26 21 14 28 25 14 35 33 21 40 35 18 49 41 19 52 44 21 53 44 23
49 41 19 51 40 22 70 68 54 73 76 61 71 73 68 74 75 73 67 68 66
29 30 25 25 26 21 25 27 22 24 26 21 23 26 19 26 28 21 30 33 24
51 54 40 74 78 59 86 90 69 91 95 72 90 95 69 89 94 66 84 90 58
78 90 55 72 82 50 67 75 46 62 71 42 63 72 43 68 77 48 76 85 56
85 94 64 89 96 64 83 89 57 89 96 63 97 104 71 105 112 79 109 116 83
102 109 76 89 96 63 80 87 54 77 84 51 78 84 58 73 79 53 69 75 49
72 78 52 82 88 62 86 92 66 86 92 66 90 96 70 93 99 73 95 101 75
99 105 79 104 110 84 109 115 89 112 118 92 107 113 87 94 100 74
90 96 69 74 80 53 59 65 38 56 62 36 58 64 38 59 65 39 67 73 47
99 105 79 97 101 78 97 102 77 99 105 79 99 105 79 107 113 87
110 116 90 109 114 89 109 114 89 110 114 89 105 111 85 97 104 77
97 103 75 75 81 54 62 68 42 65 70 45 67 73 45 65 72 44 60 67 38
53 55 26 59 59 29 65 67 37 71 75 45 73 78 49 81 84 56 84 87 58
89 94 61 102 107 75 102 107 75 107 112 80 114 119 87 118 123 91
110 115 83 112 117 85 112 117 86 98 102 75 96 101 74 98 103 78
109 113 88 109 113 88 103 107 82 97 101 76 98 102 77 107 111 86
107 112 85 104 107 80 98 101 74 101 105 76 106 111 79 109 113 82
107 112 80 88 95 62 85 92 59 78 85 52 61 69 36 62 68 35 55 52 23
44 36 15 42 35 13 55 43 23 59 47 22 60 56 29 80 85 59 79 86 54
85 92 59 88 95 62 86 93 64 80 86 59 74 82 54 77 85 57 87 95 67
90 99 70 95 103 74 107 115 86 106 113 86 98 104 78 92 98 72 93 99 73
94 101 73 93 99 66 93 99 66 94 99 67 94 101 68 83 91 57 74 82 48
80 65 47 71 7 6 74 2 3 77 2 5 77 2 6 76 2 6 75 3 6 73 2 5 74 3 6
72 2 4 70 0 2 78 4 5 89 12 6 113 36 11 111 36 7 123 46 11 135 68 9
146 82 17 188 132 47 186 140 42 179 138 35 175 138 41 102 85 45
27 25 25 10 11 13 20 22 16 24 26 23 25 27 24 29 30 28 35 36 33
40 42 39 46 48 45 49 51 48 47 49 46 41 43 40 43 45 42 50 52 49
61 63 60 67 69 66 70 72 69 79 81 78 87 89 86 92 94 91 96 98 95
99 101 98 99 101 98 99 101 98 99 101 98 101 103 100 105 107 104
114 116 113 117 119 116 111 113 110 103 105 102 99 101 98 98 100 97
99 101 98 99 101 98 100 102 99 95 97 94 89 91 88 83 85 82 74 76 73
67 69 66 64 66 63 53 55 52 46 48 45 40 42 39 43 45 42 49 51 48
49 51 48 45 47 43 37 39 36 33 35 32 28 30 27 26 28 24 24 26 21
13 16 13 13 17 13 45 25 22 69 10 8 74 0 2 72 0 4 68 1 4 67 16 14
82 63 45 95 101 74 96 103 80 90 96 69 80 89 56 85 91 63 93 98 74
88 90 66 81 86 58 76 80 52 103 106 75 127 127 97 132 127 101
115 118 88 95 102 70 92 99 67 67 77 45 59 71 42 63 73 42 63 69 44
54 57 39 38 40 33 39 37 34 47 47 39 68 72 44 65 69 46 69 72 56
82 83 72 101 100 95 94 95 86 79 77 67 30 23 7 74 77 53 94 100 69
83 90 58 83 89 58 81 87 59 51 62 33 37 50 18 18 36 4 40 41 20
51 42 22 39 38 29 22 22 19 5 5 2 14 15 9 17 18 12 36 37 31 35 36 27
20 22 12 31 30 20 81 72 61 86 79 66 105 101 88 108 105 83 124 113 90
111 106 88 96 100 82 82 83 64 66 68 39 62 63 35 48 45 21 46 40 23
21 18 13 18 15 12 24 23 16 28 27 16 37 35 18 41 37 19 49 41 20
52 44 20 52 46 19 53 48 20 50 43 16 68 67 45 74 77 55 75 77 74
76 77 77 66 67 65 29 29 25 25 26 21 25 27 21 25 26 22 25 27 22
24 26 21 23 25 22 23 25 21 31 33 24 47 48 37 68 70 51 89 92 71
96 99 76 95 100 71 92 99 68 86 94 64 81 91 62 76 85 56 67 76 47
64 73 44 65 74 45 72 82 52 77 87 53 76 83 50 75 82 49 80 87 54
87 94 61 94 101 68 100 107 74 105 112 79 101 108 75 90 97 64 76 82 56
72 78 52 73 79 53 79 85 59 83 89 63 87 93 67 97 104 78 100 106 80
108 114 88 112 118 92 105 111 85 96 102 76 85 91 65 77 83 57 65 71 45
57 63 37 53 59 31 47 54 25 48 54 26 51 58 29 61 68 40 61 68 42
77 83 57 85 91 66 83 89 63 90 96 70 89 95 70 93 99 73 109 115 89
108 114 88 106 112 86 104 110 84 103 109 83 95 101 76 92 98 70
90 96 69 65 70 48 62 67 48 64 68 50 64 70 43 63 70 38 65 72 38
66 72 39 66 72 40 72 76 47 73 79 48 74 81 48 81 86 54 84 89 57
91 95 63 102 107 75 101 106 74 113 118 86 121 126 94 117 122 90
110 115 83 103 108 76 94 99 67 86 91 58 84 88 59 95 99 74 112 116 91
109 113 88 105 109 84 105 109 84 107 111 86 107 111 86 107 109 84
109 108 83 109 111 85 111 115 86 106 112 79 98 103 71 95 100 68
79 86 53 75 81 48 71 77 45 56 61 28 50 55 23 45 44 15 44 36 15
44 36 15 52 41 21 62 48 25 60 48 24 71 72 44 75 82 48 74 81 47
88 95 61 98 105 71 97 104 70 80 87 54 81 88 55 88 95 61 92 99 66
93 100 66 96 102 69 94 99 72 91 97 71 88 94 68 86 92 66 87 93 66
89 96 66 90 97 67 89 95 65 87 94 61 83 90 57 82 88 55 87 87 63
76 42 32 68 1 2 71 1 3 71 1 3 71 0 3 70 1 3 68 0 1 68 0 2 69 0 2
70 0 2 73 1 2 82 4 4 96 21 2 115 40 4 130 56 10 132 65 10 142 78 13
149 86 17 140 77 12 136 73 15 116 48 13 38 16 16 1 2 7 9 9 10
24 24 22 25 26 23 25 27 24 27 29 26 31 33 30 37 39 36 40 42 39
39 41 38 40 42 39 44 46 43 54 56 53 63 65 62 69 71 68 71 73 70
72 74 71 76 78 75 85 87 84 89 91 88 102 104 101 106 108 105
116 118 115 120 122 119 110 112 109 99 101 98 97 99 96 101 103 100
101 103 100 98 100 97 96 98 95 104 106 103 117 119 116 122 124 121
109 111 108 106 108 105 94 96 93 87 89 86 82 84 81 75 77 74 72 74 71
70 72 69 66 68 65 59 61 58 48 50 47 42 44 41 40 42 39 39 41 38
39 41 38 34 36 33 27 29 26 25 27 24 25 28 24 25 26 23 19 19 17 3 3 5
9 12 11 72 24 15 96 23 8 96 26 8 100 30 12 108 37 10 93 23 3 86 36 28
95 79 72 94 102 84 81 93 57 84 89 59 88 91 67 91 94 68 83 89 60
83 88 60 106 111 79 119 125 93 124 121 91 114 114 83 103 104 74
96 100 72 82 91 61 67 78 47 62 72 44 61 68 43 49 50 39 38 38 30
53 52 46 61 60 49 82 87 58 73 78 51 73 76 55 84 86 64 89 90 72
96 97 79 90 91 69 44 38 20 71 73 50 93 98 68 81 92 57 73 84 49
72 82 51 32 50 21 30 46 13 27 35 8 40 39 20 46 44 21 31 28 17
19 18 15 1 0 1 11 11 9 17 16 9 40 40 27 50 49 28 41 40 25 47 43 29
83 74 58 84 74 64 93 89 87 99 97 87 115 115 86 109 114 80 105 111 76
86 88 70 61 62 49 60 60 41 50 46 25 51 44 26 44 38 34 31 31 27
26 26 19 27 27 15 39 35 21 40 38 18 48 41 20 51 43 22 53 47 19
63 60 30 61 56 27 67 69 42 73 76 52 78 80 70 81 81 76 73 72 68
38 34 24 30 31 22 28 29 24 25 26 19 25 27 21 25 26 21 23 24 19
30 31 25 30 27 21 22 23 15 26 26 18 35 36 21 52 53 39 80 82 61
98 101 78 100 105 77 94 101 72 88 97 68 82 91 62 78 87 58 76 85 56
74 84 54 75 82 53 79 85 53 78 86 52 79 86 53 81 88 55 84 91 58
80 87 54 81 87 55 90 97 64 94 101 68 71 80 48 72 80 48 76 84 54
79 87 56 78 86 56 84 92 61 85 94 63 78 86 55 77 85 54 74 82 51
67 75 45 63 71 40 62 70 40 57 66 34 54 61 35 55 60 37 54 59 37
52 57 35 54 59 37 56 61 40 56 61 39 61 66 43 76 82 55 75 81 52
79 85 56 81 88 59 80 86 58 93 99 70 101 107 78 93 100 71 91 98 69
91 97 68 86 93 64 86 92 64 84 91 63 80 86 60 69 74 52 73 78 60
69 74 52 64 70 41 66 73 42 67 74 42 67 75 42 67 75 42 72 78 48
72 78 47 73 80 48 80 85 53 79 84 53 88 91 60 97 99 69 92 96 65
100 105 73 96 101 70 84 88 57 70 75 44 64 69 38 74 79 47 94 99 67
98 103 72 108 113 84 110 115 85 109 114 84 108 112 83 108 112 83
107 110 81 110 112 84 115 113 86 115 112 88 109 112 81 107 112 79
93 98 67 79 86 53 79 87 54 68 76 44 59 70 36 59 66 34 45 44 15
38 37 7 41 38 10 45 40 13 48 42 17 51 43 19 58 51 25 58 53 26
66 65 38 75 79 47 74 80 48 97 104 74 107 113 85 101 107 79 83 89 61
80 87 56 84 91 58 93 100 68 92 99 67 90 97 65 83 89 58 80 87 58
80 86 61 80 86 63 82 87 64 84 90 64 84 90 63 81 87 61 80 86 56
78 85 54 78 85 53 78 88 58 77 75 52 62 10 8 65 1 2 64 2 2 64 2 2
63 2 2 63 1 1 63 1 2 65 1 2 68 0 2 69 1 0 79 3 2 85 7 3 101 25 6
119 46 4 118 49 4 126 58 9 134 65 10 119 49 4 107 25 6 60 17 8 13 7 8
2 2 2 12 12 11 23 23 21 26 26 24 26 26 24 26 27 24 27 29 26 30 32 29
36 38 35 39 41 38 46 48 45 55 57 54 58 60 56 62 64 60 68 70 67
71 73 70 74 76 73 76 78 75 81 83 80 74 76 73 67 69 66 57 59 56
59 61 58 64 66 63 60 62 59 52 54 51 51 53 50 52 54 51 52 54 51
52 54 51 51 53 50 56 58 55 64 66 63 65 67 64 54 56 53 64 66 63
70 72 69 79 81 78 76 78 75 74 76 73 73 75 72 69 71 68 63 65 62
59 61 58 55 57 54 48 50 47 41 43 40 36 38 35 35 37 34 28 30 27
26 28 25 25 27 24 25 27 24 25 27 24 19 20 17 7 9 7 2 3 2 44 29 19
110 53 11 131 66 5 137 73 16 147 82 28 124 56 11 99 26 3 83 14 10
95 60 42 87 96 60 86 87 57 85 85 57 85 91 59 86 93 60 91 97 65
107 113 79 117 122 91 120 121 94 119 113 83 121 114 86 107 105 84
95 97 76 92 96 73 74 81 52 65 72 45 63 67 44 48 50 33 71 73 56
84 88 67 84 88 61 83 88 57 82 86 59 82 87 58 82 87 60 76 81 53
73 77 49 48 51 24 58 64 34 71 77 46 79 87 54 72 79 46 60 70 39
29 46 15 36 43 13 46 40 16 48 44 32 46 42 31 27 26 12 18 18 10 7 6 2
14 13 9 19 17 8 41 36 22 54 47 28 53 50 26 56 53 29 86 84 59 89 84 70
91 89 86 97 97 88 110 115 90 106 113 79 103 110 75 85 89 69 57 58 52
55 56 46 47 45 22 49 45 24 47 47 37 47 49 44 31 32 28 26 25 17
38 32 20 41 38 19 47 41 19 51 44 17 52 47 22 61 58 32 64 61 34
66 68 40 67 70 43 71 74 53 77 81 64 72 74 65 42 38 22 40 36 19
41 37 20 38 37 21 33 31 19 27 24 14 22 20 10 52 52 36 93 91 73
53 50 36 35 31 22 26 24 19 25 23 19 26 27 16 41 43 33 75 78 58
95 99 75 94 101 72 88 96 65 81 91 60 78 87 56 77 85 55 79 84 59
78 83 55 76 83 52 76 82 52 77 84 52 80 87 54 77 84 52 70 76 44
68 75 43 80 87 54
